LUTs/Clear Waters.cube
#Created by: Adobe Photoshop Export Color Lookup Plugin
#Copyright: (C) Copyright 2018 ©Sergey Zhmakin
TITLE "Clear Waters"
#LUT size
LUT_3D_SIZE 64
#data domain
DOMAIN_MIN 0.0 0.0 0.0
DOMAIN_MAX 1.0 1.0 1.0
#LUT data points
0.024719 0.018219 0.019867
0.037048 0.019623 0.021332
0.054443 0.021851 0.023468
0.080109 0.026428 0.027832
0.116180 0.035889 0.036346
0.162048 0.047119 0.049438
0.206787 0.048401 0.060425
0.239655 0.048676 0.065979
0.272003 0.039886 0.064240
0.298950 0.031189 0.050354
0.326080 0.019775 0.043976
0.352509 0.013123 0.038239
0.377502 0.002350 0.031525
0.398956 0.025787 0.039764
0.420898 0.042053 0.048645
0.442230 0.047485 0.049561
0.462494 0.046539 0.045502
0.482391 0.037842 0.038055
0.502991 0.027710 0.038818
0.523743 0.017212 0.039063
0.545532 0.028717 0.042206
0.567383 0.059052 0.046661
0.588013 0.078430 0.048584
0.608124 0.089539 0.048950
0.628174 0.094604 0.051422
0.648041 0.097351 0.051056
0.667297 0.096375 0.045685
0.686188 0.088898 0.036713
0.706207 0.077271 0.028900
0.725647 0.067474 0.019958
0.744781 0.071655 0.022064
0.762299 0.085571 0.035706
0.778442 0.098419 0.048248
0.793640 0.109406 0.058228
0.808105 0.123810 0.066193
0.821838 0.138062 0.072968
0.835205 0.149567 0.078430
0.847992 0.158813 0.083038
0.860565 0.164581 0.085175
0.874603 0.157806 0.076385
0.888580 0.149200 0.066162
0.902588 0.138733 0.054260
0.916626 0.126038 0.040161
0.930084 0.111084 0.026276
0.942871 0.093140 0.016388
0.953705 0.077515 0.010101
0.959381 0.078308 0.010803
0.960297 0.093292 0.021576
0.961151 0.105042 0.031647
0.961884 0.114746 0.041229
0.962524 0.122650 0.049347
0.963104 0.129333 0.056000
0.963623 0.134888 0.061676
0.964081 0.139587 0.066559
0.964478 0.143738 0.070557
0.964813 0.147034 0.073944
0.965088 0.149811 0.076752
0.965363 0.152191 0.079193
0.965576 0.154022 0.081207
0.965729 0.155426 0.082764
0.965851 0.156555 0.083832
0.966003 0.156921 0.084259
0.966125 0.157104 0.084534
0.966156 0.157166 0.084625
0.026581 0.019470 0.021057
0.026062 0.018951 0.020538
0.044617 0.020538 0.022125
0.078247 0.026031 0.027435
0.116669 0.036011 0.036499
0.164551 0.047241 0.050049
0.207153 0.048401 0.060486
0.238068 0.048828 0.065765
0.270721 0.040863 0.064087
0.297913 0.032349 0.050140
0.324951 0.022827 0.043823
0.351807 0.015472 0.038391
0.376892 0.006653 0.031860
0.398773 0.027771 0.040161
0.420807 0.044159 0.048370
0.442169 0.049500 0.049255
0.462372 0.047089 0.045441
0.482330 0.038605 0.037964
0.502991 0.028442 0.039001
0.523773 0.018036 0.039063
0.545654 0.032318 0.042480
0.567413 0.061584 0.046875
0.588043 0.080200 0.048706
0.608154 0.090668 0.049042
0.628235 0.095734 0.051361
0.648071 0.097900 0.050812
0.667206 0.096802 0.045258
0.686127 0.089417 0.036530
0.706116 0.077820 0.028717
0.725433 0.069153 0.019562
0.744537 0.074066 0.022339
0.762238 0.086578 0.036011
0.778381 0.099548 0.048492
0.793579 0.110321 0.058533
0.808014 0.124481 0.066467
0.821777 0.138672 0.073090
0.835175 0.150208 0.078674
0.848022 0.159332 0.083191
0.860626 0.164886 0.085083
0.874695 0.157898 0.076111
0.888702 0.149353 0.065796
0.902710 0.138885 0.053864
0.916687 0.126282 0.039734
0.930115 0.111267 0.025940
0.942902 0.093201 0.016296
0.953705 0.077515 0.010101
0.959259 0.078888 0.010956
0.960205 0.093628 0.021637
0.961029 0.105530 0.031708
0.961792 0.115021 0.041443
0.962463 0.122986 0.049469
0.963074 0.129669 0.056091
0.963562 0.135193 0.061859
0.964050 0.139893 0.066559
0.964417 0.143860 0.070648
0.964783 0.147156 0.074036
0.965088 0.149994 0.076874
0.965363 0.152191 0.079193
0.965546 0.154144 0.081177
0.965729 0.155579 0.082764
0.965851 0.156708 0.083862
0.966003 0.156921 0.084259
0.966125 0.157104 0.084534
0.966125 0.157257 0.084534
0.032898 0.023743 0.024780
0.031708 0.022888 0.024078
0.032745 0.022247 0.023560
0.065552 0.025604 0.026825
0.116241 0.035919 0.036316
0.163330 0.047180 0.049713
0.203949 0.048065 0.059814
0.236237 0.048920 0.065521
0.269104 0.042572 0.063843
0.296631 0.034851 0.049286
0.323700 0.027771 0.043304
0.350922 0.019287 0.037659
0.376526 0.011810 0.031647
0.398743 0.030212 0.040680
0.420929 0.046692 0.048645
0.442078 0.051788 0.048920
0.462311 0.048401 0.045105
0.482208 0.039398 0.037903
0.502960 0.029480 0.039093
0.523773 0.018921 0.038910
0.545807 0.036499 0.042755
0.567505 0.064362 0.047058
0.588013 0.082794 0.048767
0.608307 0.091919 0.049133
0.628387 0.096924 0.051392
0.648071 0.098480 0.050537
0.667175 0.097351 0.044739
0.685974 0.090027 0.036224
0.705994 0.078705 0.028442
0.725159 0.070679 0.019043
0.744263 0.076569 0.022919
0.762115 0.087952 0.036346
0.778320 0.100647 0.048828
0.793488 0.111481 0.058838
0.808044 0.125275 0.066803
0.821869 0.139465 0.073456
0.835144 0.150818 0.078888
0.847931 0.160034 0.083405
0.860626 0.165131 0.084900
0.874786 0.158112 0.075775
0.888824 0.149506 0.065521
0.902802 0.139160 0.053436
0.916809 0.126434 0.039276
0.930237 0.111481 0.025452
0.942993 0.092896 0.016235
0.953766 0.077423 0.010040
0.959106 0.079681 0.011108
0.960052 0.094330 0.021790
0.960907 0.105988 0.031891
0.961670 0.115479 0.041473
0.962372 0.123383 0.049622
0.962952 0.130066 0.056274
0.963501 0.135590 0.062042
0.963928 0.140259 0.066711
0.964355 0.144257 0.070831
0.964691 0.147552 0.074188
0.964996 0.150360 0.077026
0.965271 0.152588 0.079376
0.965515 0.154419 0.081360
0.965668 0.155945 0.082947
0.965820 0.156830 0.083923
0.965973 0.157196 0.084351
0.966095 0.157349 0.084534
0.966095 0.157532 0.084625
0.053436 0.039642 0.036469
0.054047 0.039825 0.036652
0.054779 0.039795 0.036621
0.059998 0.039703 0.036682
0.093689 0.041321 0.039032
0.149750 0.051086 0.049591
0.198883 0.048615 0.059204
0.229614 0.054138 0.065887
0.264832 0.049072 0.061615
0.294678 0.040619 0.047638
0.321838 0.035645 0.041992
0.349182 0.027954 0.034576
0.375977 0.020416 0.031128
0.398773 0.034149 0.041351
0.421112 0.050232 0.049133
0.442230 0.054993 0.048340
0.462463 0.051849 0.044098
0.482239 0.040771 0.037659
0.502991 0.030548 0.039185
0.523743 0.019989 0.038727
0.545990 0.041412 0.043091
0.567627 0.067810 0.047394
0.588074 0.085693 0.048920
0.608429 0.093353 0.049255
0.628448 0.098083 0.051270
0.648132 0.099213 0.050293
0.667145 0.097839 0.044098
0.685974 0.090607 0.036011
0.705719 0.080444 0.027863
0.724792 0.072845 0.018341
0.743927 0.079773 0.023651
0.761902 0.090515 0.036865
0.778229 0.102051 0.049255
0.793427 0.112854 0.059265
0.808044 0.126343 0.067169
0.821869 0.140320 0.073792
0.835144 0.151764 0.079163
0.847961 0.160980 0.083679
0.860718 0.165344 0.084595
0.874878 0.158356 0.075439
0.888885 0.149841 0.065063
0.902954 0.139313 0.052917
0.916931 0.126801 0.038696
0.930389 0.111725 0.024902
0.943054 0.092804 0.016174
0.953766 0.077423 0.009918
0.958923 0.080383 0.011230
0.959869 0.095184 0.022034
0.960724 0.106750 0.032135
0.961548 0.116241 0.041779
0.962250 0.123993 0.049927
0.962830 0.130646 0.056549
0.963348 0.136230 0.062317
0.963867 0.140869 0.067017
0.964233 0.144775 0.071075
0.964630 0.148102 0.074463
0.964905 0.150848 0.077179
0.965210 0.153107 0.079651
0.965363 0.154999 0.081573
0.965546 0.156433 0.083099
0.965729 0.157196 0.083923
0.965881 0.157562 0.084412
0.965973 0.157684 0.084564
0.966034 0.157776 0.084717
0.086243 0.069763 0.052277
0.087433 0.070953 0.052734
0.088348 0.071655 0.053009
0.090485 0.071991 0.052887
0.096161 0.072418 0.052551
0.119385 0.072998 0.054993
0.174561 0.071289 0.062225
0.220856 0.067444 0.063416
0.256561 0.067352 0.050171
0.290070 0.055756 0.043121
0.319763 0.047821 0.038208
0.347687 0.041656 0.028015
0.374329 0.040436 0.030182
0.399048 0.040894 0.042450
0.421509 0.055511 0.049286
0.442566 0.059906 0.047333
0.462830 0.056854 0.042389
0.482666 0.048431 0.037079
0.503021 0.032379 0.039124
0.523834 0.021545 0.038269
0.546234 0.047852 0.043549
0.567719 0.072388 0.047668
0.588165 0.089752 0.049042
0.608551 0.096710 0.049438
0.628571 0.099396 0.050995
0.648163 0.100159 0.049896
0.667053 0.098694 0.043579
0.685883 0.091400 0.035583
0.705292 0.082733 0.027069
0.724243 0.075317 0.017639
0.743591 0.083221 0.024567
0.761627 0.093475 0.037506
0.778137 0.103607 0.049683
0.793335 0.114410 0.059723
0.808075 0.127441 0.067657
0.821808 0.141388 0.074097
0.835114 0.152802 0.079529
0.847992 0.161957 0.083984
0.860870 0.165527 0.084229
0.875000 0.158630 0.074982
0.889038 0.150055 0.064545
0.903107 0.139679 0.052246
0.917114 0.127228 0.037781
0.930603 0.112061 0.024170
0.943176 0.092560 0.015930
0.953644 0.078186 0.009827
0.958618 0.081635 0.011383
0.959656 0.096130 0.022247
0.960510 0.107635 0.032379
0.961334 0.116943 0.042023
0.962067 0.124847 0.050171
0.962646 0.131439 0.056885
0.963196 0.136932 0.062561
0.963684 0.141602 0.067230
0.964081 0.145569 0.071320
0.964478 0.148865 0.074799
0.964783 0.151520 0.077545
0.965027 0.153809 0.079865
0.965240 0.155640 0.081848
0.965485 0.157104 0.083466
0.965668 0.157562 0.083923
0.965820 0.157928 0.084412
0.965942 0.158112 0.084595
0.965973 0.158142 0.084717
0.126251 0.112946 0.056000
0.125946 0.112488 0.055603
0.126923 0.113159 0.055267
0.128906 0.114532 0.054535
0.135101 0.116638 0.052734
0.148407 0.119293 0.048889
0.163788 0.115173 0.049377
0.211029 0.107361 0.040222
0.250153 0.093109 0.033905
0.284576 0.085449 0.031219
0.316895 0.071960 0.025909
0.346405 0.061859 0.020905
0.373260 0.064911 0.032196
0.398560 0.063599 0.045105
0.422272 0.063782 0.048523
0.443359 0.067200 0.045380
0.463501 0.065216 0.039032
0.483276 0.059540 0.036163
0.503387 0.042755 0.038116
0.523926 0.023865 0.037598
0.546509 0.055908 0.044281
0.567871 0.078766 0.048065
0.588318 0.094696 0.049164
0.608704 0.101501 0.049622
0.628662 0.101685 0.050537
0.648193 0.101501 0.049316
0.666962 0.099670 0.043152
0.685699 0.092621 0.035126
0.704773 0.085632 0.026093
0.723785 0.078308 0.016602
0.743073 0.087738 0.025757
0.761200 0.097504 0.038177
0.777985 0.105713 0.050171
0.793243 0.116516 0.060303
0.807983 0.129089 0.068115
0.821777 0.142731 0.074554
0.835114 0.154083 0.079926
0.847900 0.163239 0.084351
0.861023 0.165924 0.083740
0.875183 0.158966 0.074463
0.889252 0.150452 0.063812
0.903290 0.140076 0.051605
0.917236 0.127563 0.036926
0.930817 0.112610 0.023315
0.943359 0.092865 0.015594
0.953461 0.079163 0.009705
0.958374 0.082947 0.011688
0.959381 0.097290 0.022552
0.960266 0.108765 0.032898
0.961090 0.118103 0.042480
0.961792 0.125946 0.050598
0.962463 0.132416 0.057251
0.962982 0.138000 0.062897
0.963470 0.142517 0.067688
0.963898 0.146454 0.071655
0.964294 0.149780 0.075134
0.964600 0.152374 0.077881
0.964874 0.154755 0.080322
0.965088 0.156555 0.082275
0.965332 0.157684 0.083435
0.965546 0.158173 0.084076
0.965698 0.158569 0.084503
0.965820 0.158722 0.084747
0.965851 0.158783 0.084778
0.172150 0.167908 0.030518
0.171936 0.167816 0.030609
0.172729 0.167664 0.030579
0.174561 0.167633 0.030304
0.177612 0.168152 0.029694
0.185608 0.169800 0.027985
0.204468 0.170288 0.024750
0.214478 0.161133 0.024261
0.251160 0.143127 0.017303
0.283722 0.122101 0.008636
0.315643 0.110382 0.010590
0.345367 0.098450 0.023773
0.373535 0.092133 0.039368
0.398621 0.089966 0.047058
0.422089 0.082489 0.045654
0.444427 0.079071 0.041290
0.464142 0.079224 0.035004
0.483887 0.073547 0.034302
0.503815 0.059570 0.035706
0.524597 0.039856 0.038605
0.546875 0.066315 0.045227
0.568085 0.087189 0.048431
0.588470 0.101349 0.049103
0.608765 0.107452 0.049500
0.628693 0.107025 0.049988
0.648285 0.103302 0.048584
0.666840 0.101135 0.042480
0.685516 0.094177 0.034454
0.704041 0.089478 0.024628
0.722992 0.082489 0.016388
0.742462 0.093445 0.027252
0.760742 0.102692 0.039276
0.777588 0.110504 0.051208
0.793091 0.119720 0.061096
0.807892 0.132019 0.068787
0.821808 0.144684 0.075195
0.835114 0.155853 0.080566
0.847931 0.164886 0.084900
0.861237 0.166290 0.083038
0.875336 0.159393 0.073792
0.889526 0.150879 0.063080
0.903534 0.140564 0.050598
0.917572 0.128052 0.035767
0.931030 0.113342 0.022247
0.943573 0.093475 0.014984
0.953186 0.080261 0.009644
0.958038 0.084625 0.012085
0.959045 0.098755 0.022949
0.959991 0.110168 0.033356
0.960815 0.119476 0.043091
0.961578 0.127136 0.051056
0.962219 0.133667 0.057709
0.962769 0.139069 0.063324
0.963287 0.143616 0.068146
0.963715 0.147552 0.072205
0.964081 0.150909 0.075531
0.964417 0.153564 0.078400
0.964691 0.155792 0.080750
0.964905 0.157562 0.082703
0.965210 0.158325 0.083588
0.965454 0.158813 0.084259
0.965607 0.159180 0.084656
0.965668 0.159302 0.084808
0.965729 0.159332 0.084930
0.207062 0.215149 0.020599
0.207214 0.215179 0.020538
0.207703 0.215271 0.020477
0.208710 0.215393 0.020325
0.211914 0.215454 0.020142
0.216187 0.215790 0.019897
0.225128 0.215759 0.019836
0.247894 0.212219 0.020630
0.260040 0.199158 0.016876
0.288849 0.178284 0.016968
0.318207 0.156586 0.024414
0.346985 0.143829 0.037476
0.374207 0.129333 0.044006
0.399384 0.119690 0.044189
0.422028 0.112976 0.041687
0.443298 0.104004 0.035553
0.464233 0.097382 0.029633
0.484253 0.091095 0.030884
0.504059 0.079102 0.031860
0.525543 0.075317 0.039551
0.547333 0.080902 0.046204
0.568329 0.098267 0.048798
0.588745 0.110413 0.048950
0.608856 0.114441 0.049072
0.628754 0.113953 0.049164
0.648254 0.108459 0.047485
0.666565 0.103088 0.041626
0.684784 0.098450 0.032593
0.703125 0.094299 0.022797
0.722107 0.090454 0.018188
0.741760 0.100555 0.029297
0.760132 0.109131 0.040680
0.777100 0.116638 0.052551
0.792938 0.123962 0.062103
0.807739 0.135651 0.069763
0.821808 0.147095 0.076019
0.835083 0.158234 0.081238
0.847870 0.167114 0.085480
0.861542 0.166870 0.082153
0.875702 0.160034 0.072723
0.889832 0.151520 0.061951
0.903900 0.141327 0.049347
0.917908 0.128845 0.034149
0.931396 0.114044 0.020813
0.943726 0.094299 0.014252
0.953064 0.081573 0.009216
0.957550 0.086731 0.012604
0.958649 0.100739 0.023560
0.959595 0.111847 0.034027
0.960449 0.121002 0.043610
0.961243 0.128662 0.051666
0.961914 0.135193 0.058350
0.962494 0.140594 0.064056
0.963013 0.145081 0.068787
0.963409 0.148926 0.072784
0.963837 0.152039 0.076141
0.964142 0.154816 0.078918
0.964447 0.157043 0.081268
0.964752 0.158447 0.082855
0.965027 0.159149 0.083740
0.965302 0.159515 0.084320
0.965454 0.159882 0.084717
0.965546 0.160156 0.084991
0.965576 0.160217 0.085022
0.244568 0.251404 0.040405
0.244415 0.251373 0.040344
0.244232 0.251404 0.040283
0.244019 0.251526 0.040253
0.243591 0.251953 0.040192
0.245911 0.251617 0.039764
0.249023 0.251648 0.039215
0.255371 0.251404 0.038666
0.279633 0.244965 0.038330
0.294495 0.228943 0.038239
0.320587 0.210052 0.039429
0.348846 0.189728 0.040466
0.374634 0.175201 0.041870
0.398956 0.159332 0.041260
0.421814 0.147034 0.037781
0.443146 0.136902 0.029938
0.463440 0.125397 0.023315
0.483795 0.114929 0.024841
0.504578 0.107666 0.030762
0.526337 0.107697 0.040771
0.547699 0.107880 0.046600
0.568634 0.113495 0.049103
0.588928 0.120178 0.047333
0.609100 0.123718 0.048401
0.628815 0.122833 0.048035
0.648102 0.117249 0.046967
0.665833 0.107269 0.039764
0.683685 0.104126 0.030090
0.701843 0.100281 0.020782
0.721130 0.099976 0.020782
0.740997 0.109253 0.031982
0.759491 0.116974 0.042511
0.776520 0.124390 0.054382
0.792511 0.131653 0.063660
0.807587 0.140411 0.070923
0.821747 0.150391 0.077026
0.835083 0.161316 0.082184
0.848083 0.169037 0.085480
0.861938 0.167664 0.080994
0.876129 0.160797 0.071350
0.890259 0.152283 0.060364
0.904358 0.142212 0.047485
0.918396 0.129852 0.032196
0.931763 0.115021 0.019684
0.944031 0.095551 0.013397
0.952576 0.086548 0.008545
0.956970 0.089661 0.013306
0.958069 0.103333 0.024414
0.959137 0.114319 0.035065
0.960052 0.123260 0.044647
0.960785 0.130951 0.052612
0.961456 0.137177 0.059174
0.962128 0.142303 0.064758
0.962677 0.146912 0.069580
0.963074 0.150757 0.073578
0.963562 0.153900 0.076843
0.963898 0.156525 0.079651
0.964203 0.158722 0.082062
0.964569 0.159576 0.083130
0.964874 0.160187 0.083923
0.965118 0.160675 0.084503
0.965271 0.161041 0.084900
0.965393 0.161224 0.085175
0.965393 0.161224 0.085266
0.283173 0.287384 0.030975
0.282471 0.287384 0.031158
0.281708 0.287384 0.031219
0.280396 0.287506 0.031555
0.278564 0.287842 0.031830
0.275726 0.288147 0.033661
0.278259 0.286987 0.034760
0.282501 0.285858 0.035431
0.289215 0.284882 0.035736
0.313446 0.277161 0.035370
0.326630 0.260834 0.038208
0.348846 0.241821 0.037659
0.375183 0.220795 0.034668
0.399231 0.204254 0.031158
0.421997 0.187653 0.026306
0.443451 0.172668 0.021484
0.463806 0.160278 0.019623
0.483856 0.150513 0.023712
0.505249 0.143066 0.033386
0.526947 0.139038 0.041840
0.548126 0.137726 0.046478
0.568787 0.134521 0.047272
0.589142 0.134338 0.046478
0.609253 0.135376 0.047302
0.628876 0.134308 0.047272
0.647247 0.127106 0.044220
0.663788 0.118042 0.035034
0.681641 0.112701 0.026550
0.700073 0.107819 0.019897
0.720123 0.111145 0.024170
0.740143 0.119415 0.035492
0.758728 0.126892 0.045959
0.775940 0.133514 0.056763
0.791962 0.140778 0.065613
0.807251 0.148224 0.072632
0.821686 0.155853 0.078400
0.835022 0.165314 0.083344
0.848511 0.171204 0.085114
0.862457 0.168701 0.079346
0.876709 0.161865 0.069672
0.890900 0.153473 0.058258
0.904968 0.143433 0.045044
0.918976 0.131195 0.029572
0.932251 0.116211 0.018280
0.943268 0.101807 0.012573
0.951721 0.093475 0.007660
0.955353 0.098511 0.015167
0.957153 0.108032 0.025726
0.958466 0.117676 0.036377
0.959442 0.126160 0.045807
0.960236 0.133514 0.053711
0.961029 0.139801 0.060455
0.961639 0.144989 0.065948
0.962219 0.149414 0.070648
0.962708 0.153137 0.074646
0.963135 0.156219 0.077881
0.963470 0.158783 0.080811
0.963898 0.160156 0.082306
0.964294 0.161041 0.083435
0.964661 0.161591 0.084290
0.964905 0.162079 0.084839
0.965057 0.162445 0.085266
0.965179 0.162628 0.085510
0.965210 0.162659 0.085541
0.317749 0.322235 0.002960
0.317261 0.322327 0.003754
0.316193 0.322052 0.005371
0.314941 0.321777 0.007385
0.313507 0.321533 0.009766
0.312286 0.321411 0.012451
0.311584 0.321533 0.014343
0.314667 0.320282 0.014862
0.319702 0.318756 0.014465
0.325012 0.317902 0.013641
0.344971 0.309235 0.010773
0.356262 0.291382 0.016968
0.374908 0.271973 0.015961
0.399506 0.250275 0.009949
0.422638 0.231781 0.013641
0.444641 0.215027 0.021423
0.465851 0.199921 0.027710
0.486267 0.189056 0.032928
0.506531 0.180237 0.037964
0.527466 0.172211 0.042023
0.548920 0.167114 0.044678
0.569427 0.162811 0.043976
0.589233 0.156525 0.045776
0.609283 0.152740 0.046631
0.628876 0.148956 0.047150
0.645569 0.143921 0.039001
0.662079 0.136108 0.030487
0.678375 0.125092 0.022949
0.697144 0.118347 0.017426
0.719208 0.123962 0.028503
0.739258 0.131561 0.039978
0.757904 0.138519 0.050049
0.775330 0.144531 0.059906
0.791382 0.151703 0.068176
0.806671 0.158386 0.074768
0.821320 0.164246 0.080353
0.835388 0.169312 0.083801
0.849121 0.173920 0.084686
0.863220 0.170013 0.077271
0.877502 0.163239 0.067261
0.891632 0.155029 0.055450
0.905823 0.144958 0.041656
0.919769 0.132904 0.026428
0.932892 0.117767 0.016785
0.942261 0.109589 0.011353
0.950653 0.102264 0.007019
0.953278 0.109802 0.017914
0.955536 0.116455 0.028137
0.957184 0.123810 0.038544
0.958405 0.131409 0.047852
0.959442 0.137878 0.055573
0.960388 0.143188 0.062012
0.961090 0.148163 0.067444
0.961670 0.152527 0.072083
0.962189 0.156097 0.075958
0.962616 0.159241 0.079315
0.963104 0.161072 0.081512
0.963623 0.162109 0.082825
0.964050 0.162842 0.083832
0.964386 0.163483 0.084656
0.964630 0.163971 0.085205
0.964783 0.164307 0.085602
0.964874 0.164490 0.085876
0.964935 0.164520 0.085999
0.339355 0.345734 0.022644
0.339203 0.345886 0.022736
0.339050 0.346069 0.022919
0.338837 0.346283 0.023132
0.338440 0.346222 0.023010
0.338104 0.346191 0.023071
0.337830 0.346252 0.023193
0.337799 0.346497 0.023712
0.340332 0.345398 0.024414
0.344696 0.343628 0.025421
0.349976 0.342041 0.027039
0.367249 0.333893 0.029846
0.379547 0.317322 0.025024
0.396454 0.298798 0.024628
0.421082 0.276581 0.027344
0.444244 0.257843 0.031036
0.465912 0.242828 0.035675
0.487061 0.228821 0.039490
0.507782 0.217621 0.042023
0.528900 0.209381 0.043274
0.550140 0.202087 0.042816
0.570892 0.195404 0.044708
0.590424 0.187805 0.046631
0.608734 0.179871 0.046143
0.626373 0.171967 0.040375
0.643402 0.163971 0.034180
0.659973 0.156372 0.026733
0.676361 0.146149 0.019196
0.695557 0.138550 0.022736
0.717865 0.141418 0.034332
0.738312 0.146027 0.045471
0.757172 0.152039 0.054840
0.774658 0.157776 0.063354
0.790710 0.164459 0.071167
0.806122 0.170197 0.077515
0.820862 0.174927 0.082520
0.835999 0.174438 0.083588
0.849976 0.177094 0.083649
0.864227 0.171814 0.074493
0.878510 0.165131 0.063934
0.892761 0.156921 0.051727
0.906952 0.146973 0.037292
0.920807 0.135040 0.022858
0.932037 0.125092 0.015015
0.941223 0.118347 0.009705
0.947815 0.116241 0.010529
0.950653 0.122406 0.021484
0.953156 0.128021 0.031860
0.955261 0.133209 0.041748
0.957001 0.138336 0.050507
0.958160 0.144348 0.058075
0.959167 0.149231 0.064301
0.960083 0.153564 0.069611
0.960846 0.157104 0.074127
0.961517 0.160309 0.077942
0.962128 0.162292 0.080444
0.962769 0.163483 0.082062
0.963287 0.164520 0.083496
0.963715 0.165253 0.084503
0.964020 0.165833 0.085205
0.964294 0.166351 0.085876
0.964447 0.166718 0.086273
0.964569 0.166901 0.086548
0.964600 0.166931 0.086670
0.358398 0.365906 0.048889
0.358246 0.365967 0.049011
0.358093 0.366089 0.049164
0.357880 0.366241 0.049194
0.357544 0.366455 0.049469
0.357483 0.366486 0.049561
0.357483 0.366364 0.049683
0.357727 0.366364 0.049774
0.358093 0.366547 0.049774
0.360077 0.366150 0.049225
0.363861 0.365112 0.048218
0.368195 0.364471 0.046844
0.384186 0.358551 0.046082
0.397308 0.342957 0.042999
0.414398 0.324921 0.040802
0.439392 0.302795 0.039978
0.462982 0.283295 0.039978
0.485474 0.269928 0.041901
0.507629 0.257385 0.043335
0.528870 0.247040 0.043091
0.550842 0.239197 0.046478
0.572510 0.231781 0.050018
0.591339 0.222778 0.046234
0.608063 0.212494 0.040741
0.623260 0.200348 0.033600
0.640167 0.189941 0.027618
0.657501 0.179047 0.021515
0.676117 0.171906 0.021851
0.696747 0.167877 0.032196
0.716858 0.164063 0.042419
0.737335 0.165070 0.052277
0.756714 0.167511 0.060669
0.773895 0.173248 0.067413
0.790039 0.178986 0.074829
0.805542 0.183563 0.080597
0.821136 0.183685 0.082642
0.836212 0.183105 0.083618
0.850800 0.180450 0.080200
0.865631 0.174133 0.070770
0.879913 0.167603 0.059814
0.894165 0.159515 0.046783
0.908356 0.149780 0.031342
0.920868 0.140411 0.019897
0.930603 0.134491 0.014313
0.939789 0.128143 0.008728
0.944550 0.130859 0.016632
0.947662 0.135986 0.027222
0.950378 0.140625 0.037445
0.952759 0.144989 0.046753
0.954865 0.148804 0.054565
0.956604 0.152252 0.061371
0.957764 0.156860 0.067566
0.958740 0.160645 0.072662
0.959534 0.164093 0.076996
0.960602 0.165436 0.079712
0.961609 0.166046 0.081573
0.962372 0.166687 0.083038
0.962860 0.167664 0.084381
0.963318 0.168457 0.085480
0.963684 0.169067 0.086212
0.963898 0.169556 0.086853
0.964111 0.169800 0.087189
0.964203 0.169952 0.087433
0.964264 0.170013 0.087555
0.380981 0.386230 0.060883
0.380920 0.386292 0.060913
0.380798 0.386383 0.060944
0.380676 0.386414 0.060822
0.380463 0.386566 0.060638
0.380280 0.386719 0.060516
0.379974 0.386902 0.060333
0.379761 0.387024 0.059540
0.379089 0.387360 0.058563
0.378052 0.388031 0.056824
0.379028 0.388123 0.054413
0.382538 0.387421 0.052460
0.387970 0.386200 0.054108
0.406128 0.380676 0.054138
0.418671 0.365204 0.054138
0.434174 0.347900 0.051605
0.458099 0.326080 0.048737
0.481018 0.306641 0.047119
0.504791 0.295258 0.047241
0.528076 0.284271 0.046722
0.550079 0.274506 0.047150
0.571808 0.267517 0.045624
0.593079 0.261261 0.043121
0.609467 0.248444 0.036377
0.624237 0.235168 0.028412
0.637726 0.220856 0.019836
0.656738 0.210541 0.025024
0.677704 0.202301 0.034393
0.698120 0.197723 0.044525
0.718079 0.193451 0.053375
0.737427 0.189117 0.061035
0.755920 0.188599 0.067169
0.773193 0.190796 0.072388
0.789581 0.194122 0.078156
0.805664 0.194763 0.081238
0.821167 0.194580 0.082947
0.836182 0.193604 0.083527
0.851227 0.186005 0.075684
0.866364 0.179169 0.065796
0.881653 0.170898 0.053986
0.895966 0.162964 0.040070
0.908905 0.155365 0.027313
0.919312 0.150269 0.020355
0.928955 0.144928 0.014648
0.936707 0.142151 0.014557
0.940643 0.146545 0.025421
0.944092 0.150635 0.035950
0.947144 0.154449 0.045837
