LUTs/Clear Waters.cube
#Created by: Adobe Photoshop Export Color Lookup Plugin
#Copyright: (C) Copyright 2018 ©Sergey Zhmakin
TITLE "Clear Waters"
#LUT size
LUT_3D_SIZE 8
#data domain
DOMAIN_MIN 0.0 0.0 0.0
DOMAIN_MAX 1.0 1.0 1.0
#LUT data points
0.024719 0.018219 0.019867
0.298950 0.031189 0.050354
0.502991 0.027710 0.038818
0.686188 0.088898 0.036713
0.835205 0.149567 0.078430
0.953705 0.077515 0.010101
0.964478 0.143738 0.070557
0.966156 0.157166 0.084625
0.283173 0.287384 0.030975
0.313446 0.277161 0.035370
0.505249 0.143066 0.033386
0.681641 0.112701 0.026550
0.835022 0.165314 0.083344
0.951721 0.093475 0.007660
0.962708 0.153137 0.074646
0.965210 0.162659 0.085541
0.480438 0.488159 0.109192
0.480804 0.488190 0.107330
0.508942 0.488007 0.079437
0.685577 0.367096 0.091217
0.836212 0.283295 0.062592
0.925629 0.239227 0.084595
0.956024 0.223694 0.097046
0.963257 0.215240 0.094330
0.677185 0.677582 0.082672
0.676117 0.677063 0.080231
0.677124 0.676086 0.078644
0.697968 0.673065 0.087860
0.835846 0.614960 0.114075
0.927643 0.580811 0.122314
0.959198 0.557587 0.117371
0.964203 0.549469 0.114960
0.825043 0.811981 0.121704
0.825287 0.812592 0.121552
0.827271 0.812012 0.120941
0.825775 0.814240 0.128448
0.848450 0.811554 0.128326
0.932800 0.785034 0.132263
0.952606 0.777344 0.131165
0.957947 0.774750 0.128510
0.927124 0.905640 0.119324
0.926971 0.905640 0.119415
0.926117 0.905914 0.120453
0.922699 0.901978 0.105133
0.918732 0.899506 0.094513
0.932709 0.898376 0.115509
0.961365 0.897003 0.128143
0.973877 0.896210 0.134674
0.968781 0.956970 0.171692
0.969086 0.957184 0.171021
0.969452 0.957520 0.167023
0.953918 0.944763 0.164764
0.947906 0.938843 0.179657
0.953918 0.938965 0.186920
0.966553 0.943237 0.192932
0.969238 0.944794 0.191406
0.982147 0.971832 0.148285
0.982086 0.971649 0.148926
0.981781 0.970551 0.151703
0.961578 0.956482 0.180359
0.954193 0.948212 0.193848
0.960938 0.950134 0.199615
0.968353 0.954651 0.191711
0.971832 0.956818 0.184692
0.084503 0.032196 0.299103
0.280487 0.024994 0.289490
0.511169 0.018616 0.146301
0.686310 0.094604 0.090576
0.834412 0.149719 0.099548
0.953094 0.078583 0.027618
0.964172 0.144562 0.080719
0.966003 0.157501 0.093628
0.219147 0.231659 0.235413
0.106781 0.081207 0.081726
0.418274 0.059174 0.064636
0.604553 0.100189 0.064209
0.774933 0.103088 0.051422
0.901886 0.140350 0.061157
0.962128 0.127930 0.054016
0.965912 0.158752 0.086792
0.467163 0.487579 0.164825
0.389008 0.404755 0.070496
0.424530 0.395599 0.073669
0.608337 0.282227 0.046631
0.769775 0.205658 0.081879
0.906647 0.162079 0.037750
0.952515 0.173615 0.077271
0.963623 0.177460 0.092072
0.668457 0.677551 0.109406
0.582184 0.594208 0.120392
0.583160 0.594727 0.115265
0.603424 0.589661 0.093292
0.772156 0.510559 0.100739
0.900818 0.447937 0.086029
0.965881 0.406433 0.090393
0.981354 0.385193 0.088623
0.820465 0.812134 0.130371
0.762939 0.756897 0.098480
0.762238 0.756500 0.099274
0.762268 0.757568 0.099854
0.781830 0.754272 0.066742
0.885834 0.713562 0.069702
0.941315 0.698364 0.092041
0.966156 0.691162 0.103271
0.924591 0.906006 0.130737
0.890503 0.869141 0.099365
0.890442 0.869934 0.099121
0.888947 0.869781 0.104218
0.887512 0.869659 0.104828
0.896515 0.864441 0.082336
0.960480 0.854645 0.043396
0.990631 0.850647 0.064026
0.968140 0.957153 0.176056
0.953918 0.940277 0.170929
0.954498 0.940704 0.170471
0.949677 0.936920 0.157623
0.941925 0.928223 0.152374
0.941986 0.926361 0.166504
0.956818 0.928650 0.175842
0.965363 0.930664 0.179901
0.982330 0.971893 0.153259
0.982239 0.971832 0.149872
0.982025 0.971283 0.151276
0.970184 0.962585 0.168549
0.956024 0.951172 0.190735
0.956268 0.948334 0.198395
0.965118 0.952820 0.196899
0.971832 0.956818 0.186340
0.114807 0.025177 0.509613
0.168427 0.028259 0.504669
0.492981 0.035217 0.491486
0.684509 0.087311 0.380249
0.835144 0.163300 0.281158
0.939453 0.028412 0.223511
0.957123 0.141327 0.194519
0.961731 0.154572 0.190735
0.124847 0.147064 0.519073
0.130157 0.041229 0.422089
0.394531 0.066986 0.400757
0.609100 0.108582 0.275391
0.772736 0.115540 0.182739
0.896545 0.131866 0.137970
0.956268 0.130219 0.113953
0.963898 0.158234 0.128113
0.422638 0.466797 0.465790
0.328369 0.366333 0.361053
0.276123 0.252747 0.259460
0.531372 0.169464 0.156891
0.703766 0.122803 0.088318
0.855713 0.170868 0.107727
0.953613 0.121155 0.063782
0.964874 0.164490 0.096771
0.634033 0.683960 0.327301
0.561005 0.597137 0.245300
0.492188 0.507782 0.158447
0.532379 0.502686 0.146210
0.709442 0.391266 0.127014
0.858582 0.305573 0.110291
0.940643 0.259064 0.114380
0.965912 0.233215 0.100464
0.788055 0.814423 0.255524
0.740814 0.758301 0.178558
0.688599 0.697510 0.121582
0.688324 0.697693 0.134827
0.711212 0.695160 0.124451
0.854767 0.637146 0.138245
0.946167 0.607574 0.136017
0.973724 0.586945 0.110962
0.905914 0.908997 0.210022
0.879272 0.870270 0.140839
0.841095 0.830963 0.134338
0.842773 0.831299 0.141327
0.840027 0.833649 0.150360
0.864563 0.830658 0.148621
0.951416 0.806610 0.137512
0.965576 0.799835 0.125488
0.959229 0.958771 0.225983
0.950287 0.941254 0.187592
0.938812 0.924042 0.158752
0.937836 0.923065 0.156281
0.933838 0.916809 0.134308
0.928894 0.913483 0.138458
0.945313 0.914032 0.158051
0.967804 0.914825 0.163940
0.978027 0.969604 0.204498
0.982635 0.971710 0.164520
0.982269 0.971710 0.155121
0.980469 0.969482 0.160858
0.958862 0.955322 0.191040
0.953552 0.948029 0.198944
0.962158 0.951324 0.203186
0.971832 0.956879 0.191772
0.182770 0.056458 0.687378
0.203918 0.057678 0.685394
0.372772 0.027618 0.679718
0.675476 0.070465 0.671692
0.820251 0.145782 0.621246
0.907196 0.113556 0.581635
0.943329 0.179230 0.560791
0.952545 0.175781 0.554749
0.161774 0.101044 0.689240
0.155853 0.048767 0.605042
0.280853 0.057373 0.600677
0.589905 0.083527 0.588623
0.762543 0.135712 0.511047
0.899597 0.110443 0.451935
0.943054 0.151459 0.413971
0.957672 0.165344 0.394379
0.280609 0.391998 0.700256
0.213928 0.279907 0.618591
0.188141 0.164490 0.535065
0.506714 0.155609 0.504822
0.708069 0.154480 0.398956
0.855652 0.172516 0.307343
0.944489 0.100067 0.249573
0.960815 0.161499 0.222290
0.592560 0.651581 0.651581
0.513367 0.563782 0.564941
0.440430 0.483704 0.474976
0.415955 0.393372 0.392975
0.656433 0.316345 0.293823
0.813721 0.228943 0.214264
0.924744 0.179688 0.156647
0.962341 0.188812 0.151489
0.733276 0.811584 0.584625
0.694092 0.761078 0.472961
0.650574 0.701172 0.349701
0.603119 0.643158 0.271454
0.643738 0.639587 0.273712
0.814178 0.560028 0.207336
0.926086 0.505981 0.163452
0.970642 0.467194 0.138550
0.853363 0.913818 0.544586
0.829407 0.875031 0.416290
0.804352 0.833527 0.276886
0.780426 0.795166 0.196045
0.779755 0.797272 0.199677
0.809906 0.795471 0.196259
0.921997 0.758972 0.176880
0.955261 0.746246 0.162628
0.913483 0.962463 0.520905
0.914154 0.945038 0.377014
0.919281 0.927032 0.245209
0.913757 0.907837 0.177948
0.911560 0.904663 0.168518
0.911743 0.903564 0.140808
0.924591 0.900055 0.165131
0.972565 0.896515 0.165466
0.932648 0.972504 0.514740
0.953217 0.970337 0.360596
0.974243 0.968628 0.226105
0.981384 0.971069 0.174530
0.961487 0.958954 0.201416
0.951080 0.949188 0.213959
0.958679 0.950409 0.221069
0.971924 0.956909 0.209442
0.173431 0.058777 0.828339
0.181824 0.057587 0.827301
0.298676 0.078369 0.826324
0.623749 0.095703 0.820679
0.817108 0.080688 0.810303
0.902435 0.154694 0.799561
0.947601 0.151794 0.794739
0.958557 0.147614 0.792145
0.166351 0.072052 0.825989
0.182037 0.058746 0.766937
0.214813 0.055878 0.761719
0.510315 0.091827 0.766510
0.756592 0.148163 0.756897
0.874847 0.101135 0.727692
0.931427 0.168701 0.707977
0.952332 0.163300 0.695587
0.223389 0.301178 0.829254
0.198730 0.194519 0.772491
0.184753 0.107330 0.704437
0.396942 0.123291 0.705627
0.695557 0.133087 0.694733
0.837677 0.122925 0.646149
0.917938 0.169861 0.609436
0.951599 0.176331 0.589264
0.529327 0.635132 0.836761
0.427155 0.541077 0.780914
0.305511 0.416779 0.718384
0.305847 0.312836 0.648010
0.633118 0.286591 0.628510
0.809326 0.245544 0.540833
0.914337 0.219513 0.505157
0.958740 0.192108 0.477173
0.727814 0.803040 0.803192
0.675262 0.740112 0.739960
0.612213 0.672424 0.671967
0.554993 0.608734 0.610474
0.551727 0.536621 0.537262
0.763947 0.464813 0.449036
0.911194 0.386169 0.389343
0.985107 0.330688 0.342255
0.821320 0.909943 0.769196
0.784088 0.870911 0.687775
0.751465 0.830414 0.608429
0.726196 0.796387 0.525970
0.703247 0.762146 0.434357
0.754669 0.760254 0.437683
0.893646 0.693237 0.358307
0.970062 0.674835 0.327881
0.885986 0.958405 0.758972
0.876465 0.945526 0.663971
0.868439 0.930786 0.569763
0.862640 0.913818 0.472900
0.855530 0.895721 0.365387
0.852448 0.896088 0.370911
0.868866 0.891998 0.361023
0.979279 0.873413 0.307922
0.900177 0.967590 0.755768
0.910950 0.970581 0.656921
0.925873 0.971802 0.552582
0.940460 0.970947 0.436890
0.947540 0.964661 0.330933
0.934540 0.952667 0.328400
0.945038 0.952301 0.338226
0.975403 0.960693 0.327728
0.209412 0.059631 0.917114
0.218262 0.064667 0.915344
0.280884 0.087036 0.914490
0.588409 0.112976 0.917267
0.805481 0.059662 0.915558
0.904388 0.149200 0.893158
0.947510 0.127380 0.906036
0.956573 0.120392 0.906586
0.220215 0.086853 0.914368
0.189667 0.062164 0.884308
0.219727 0.074463 0.881561
0.458649 0.100159 0.898071
0.724335 0.150757 0.872040
0.869507 0.131927 0.860596
0.936493 0.142731 0.867065
0.958344 0.131256 0.870819
0.218658 0.233734 0.930206
0.223236 0.141785 0.887238
0.192047 0.083954 0.845001
0.333099 0.114838 0.851990
0.646454 0.135529 0.838867
0.834747 0.089600 0.826172
0.923615 0.162079 0.825439
0.962006 0.147125 0.819946
0.461090 0.622375 0.932037
0.363281 0.504761 0.901611
0.231384 0.328278 0.845825
0.265106 0.227722 0.813873
0.562408 0.203400 0.800354
0.800110 0.196442 0.794067
0.915558 0.203339 0.776123
0.964233 0.182617 0.757629
0.689423 0.792023 0.913849
0.618347 0.721100 0.885773
0.550140 0.656708 0.848694
0.473480 0.586060 0.821442
0.493134 0.494110 0.774536
0.755737 0.443695 0.738129
0.896942 0.386383 0.686127
0.960114 0.334930 0.663849
0.823975 0.904480 0.908783
0.782410 0.862732 0.868713
0.744873 0.823517 0.825287
0.710327 0.782837 0.781586
0.672638 0.739319 0.734253
0.696747 0.688080 0.684387
0.876495 0.625793 0.607330
0.950592 0.597626 0.580292
0.881531 0.953674 0.908112
0.863281 0.941132 0.854034
0.841064 0.926514 0.794159
0.823975 0.909210 0.738434
0.806702 0.889404 0.682587
0.799194 0.871185 0.624573
0.856995 0.865814 0.622620
0.961945 0.842896 0.590851
0.895233 0.960907 0.901825
0.892914 0.962158 0.848267
0.895905 0.965515 0.788116
0.900940 0.967560 0.723969
0.901550 0.963867 0.656647
0.902496 0.958038 0.587463
0.916809 0.956940 0.586975
0.961426 0.969330 0.591827
0.233582 0.081970 0.950378
0.239166 0.084167 0.949921
0.279999 0.096893 0.950897
0.561310 0.119507 0.962158
0.792145 0.052155 0.973633
0.902679 0.146484 0.923279
0.948792 0.118073 0.936646
0.957031 0.109772 0.939117
0.230164 0.089417 0.949829
0.228027 0.077332 0.940430
0.247467 0.085266 0.939423
0.413574 0.102142 0.971619
0.701202 0.155731 0.928955
0.863892 0.140686 0.912384
0.937012 0.132141 0.925110
0.956970 0.114044 0.932434
0.202454 0.199585 0.968292
0.238434 0.129852 0.942352
0.237488 0.096130 0.927002
0.301392 0.108612 0.936646
0.612762 0.141785 0.922913
0.832886 0.069305 0.920593
0.925751 0.145203 0.913544
0.958618 0.122833 0.923370
0.438995 0.604401 0.955780
0.337219 0.433441 0.954407
0.219849 0.258698 0.942627
0.255493 0.169830 0.929871
0.516144 0.168945 0.918793
0.789886 0.122986 0.913727
0.918701 0.186218 0.909912
0.968994 0.148407 0.908325
0.666046 0.782257 0.951019
0.585419 0.709351 0.938934
0.482758 0.647217 0.943909
0.415009 0.546631 0.906738
0.425385 0.424561 0.897003
0.715515 0.386963 0.895477
0.895355 0.355804 0.892426
0.965393 0.321381 0.878326
0.807892 0.900330 0.952179
0.756226 0.857269 0.946106
0.710938 0.813812 0.922607
0.660950 0.765564 0.917847
0.607056 0.717682 0.910034
0.648865 0.659668 0.887634
0.868256 0.625336 0.852722
0.983826 0.587921 0.813965
0.876312 0.953094 0.950745
0.863586 0.941254 0.942200
0.843445 0.923096 0.926727
0.822968 0.904205 0.911316
0.798798 0.884399 0.905060
0.780945 0.861847 0.876678
0.847870 0.837219 0.834961
0.979919 0.796112 0.789764
0.895599 0.963562 0.957489
0.897736 0.963226 0.948822
0.896606 0.961823 0.925690
0.893127 0.960266 0.900513
0.884308 0.957306 0.874084
0.877502 0.951385 0.848816
0.895081 0.955048 0.818054
0.950439 0.974091 0.823730
0.237091 0.087280 0.958710
0.241852 0.088806 0.958130
0.278076 0.099335 0.958954
0.551544 0.121155 0.972687
0.787994 0.052917 0.978912
0.902130 0.146332 0.929901
0.949677 0.114990 0.943695
0.958008 0.106140 0.945709
0.234406 0.093658 0.957825
0.238068 0.089294 0.958099
0.252655 0.094025 0.957520
0.391510 0.100952 0.980438
0.689056 0.157440 0.945496
0.859802 0.147461 0.929413
0.938354 0.127045 0.941223
0.958191 0.107849 0.945984
0.218872 0.189728 0.971619
0.238495 0.124847 0.961334
0.238800 0.097168 0.957977
0.288635 0.110291 0.962372
0.590607 0.142731 0.960052
0.817902 0.091248 0.960022
0.923889 0.141541 0.937866
0.958954 0.114136 0.947021
0.431915 0.596619 0.959534
0.337616 0.409729 0.957153
0.198242 0.221466 0.978210
0.255249 0.145996 0.965820
0.476868 0.149353 0.977417
0.763580 0.117523 0.978241
0.912811 0.163818 0.940735
0.964447 0.135803 0.951538
0.659058 0.778351 0.961151
0.572968 0.705048 0.950317
0.458221 0.637390 0.972046
0.386017 0.513306 0.948151
0.380920 0.360138 0.961273
0.687134 0.347412 0.941772
0.888184 0.320618 0.956604
0.957733 0.316010 0.942627
0.803894 0.898895 0.961151
0.748657 0.854370 0.957031
0.691681 0.805450 0.951294
0.628876 0.749390 0.968842
0.573334 0.705383 0.950958
0.612122 0.637238 0.941925
0.869080 0.592133 0.951111
0.966675 0.576538 0.951935
0.873199 0.952484 0.954498
0.856689 0.939758 0.954956
0.830963 0.919861 0.956635
0.802704 0.898438 0.963165
0.773438 0.875458 0.965881
0.747223 0.850647 0.957977
0.818481 0.817139 0.964905
0.955841 0.807312 0.973328
0.892426 0.963440 0.960083
0.892303 0.963409 0.959991
0.891846 0.963257 0.959900
0.890625 0.962769 0.959686
0.884521 0.960510 0.958557
0.874542 0.954559 0.953217
0.897827 0.959229 0.957092
0.997223 0.992004 0.993347
