LUTs/Clear Waters.cube
#Created by: Adobe Photoshop Export Color Lookup Plugin
#Copyright: (C) Copyright 2018 ©Sergey Zhmakin
TITLE "Clear Waters"
#LUT size
LUT_3D_SIZE 4
#data domain
DOMAIN_MIN 0.0 0.0 0.0
DOMAIN_MAX 1.0 1.0 1.0
#LUT data points
0.024719 0.018219 0.019867
0.567383 0.059052 0.046661
0.916626 0.126038 0.040161
0.966156 0.157166 0.084625
0.549591 0.553406 0.099243
0.573578 0.551392 0.114502
0.914764 0.369415 0.096313
0.980133 0.306335 0.082458
0.904816 0.879944 0.072357
0.903412 0.880707 0.078400
0.908478 0.873840 0.048981
0.987549 0.864227 0.087921
0.982147 0.971832 0.148285
0.975311 0.965729 0.160950
0.957581 0.948669 0.197998
0.971832 0.956818 0.184692
0.087616 0.014526 0.569519
0.552643 0.081909 0.552887
0.907990 0.100281 0.377777
0.961456 0.155182 0.317688
0.474670 0.529633 0.532196
0.319794 0.291687 0.288086
0.794586 0.177246 0.135925
0.963837 0.168884 0.109711
0.849487 0.886932 0.337189
0.775360 0.778290 0.142212
0.799622 0.777222 0.132416
0.956635 0.721863 0.136597
0.962311 0.968994 0.300629
0.982422 0.971619 0.159088
0.953827 0.949799 0.197388
0.971802 0.956818 0.195740
0.193176 0.054291 0.895172
0.388245 0.100311 0.903473
0.878540 0.141113 0.868958
0.957123 0.127808 0.880920
0.317169 0.395782 0.886383
0.198486 0.121490 0.783386
0.780121 0.143494 0.776123
0.958344 0.165894 0.731537
0.793671 0.874023 0.880371
0.695496 0.763977 0.763489
0.643890 0.635803 0.626892
0.941223 0.522247 0.513916
0.892090 0.961151 0.863708
0.905457 0.969879 0.693909
0.915344 0.961243 0.501434
0.970337 0.967590 0.501404
0.237091 0.087280 0.958710
0.343567 0.108612 0.966217
0.870239 0.155029 0.926849
0.958008 0.106140 0.945709
0.281494 0.325348 0.958099
0.241364 0.106354 0.959564
0.727875 0.129547 0.964081
0.959747 0.118958 0.947906
0.762512 0.866547 0.963348
0.604828 0.730499 0.959320
0.521942 0.572998 0.958496
0.966736 0.494141 0.955994
0.892426 0.963440 0.960083
0.891632 0.963135 0.959839
0.874786 0.956329 0.956177
0.997223 0.992004 0.993347
