LUTs/Dive Vivid.cube
#Created by: Adobe Photoshop Export Color Lookup Plugin
#Copyright: (C) Copyright 2018 ©Sergey Zhmakin
TITLE "Dive Vivid"
#LUT size
LUT_3D_SIZE 8
#data domain
DOMAIN_MIN 0.0 0.0 0.0
DOMAIN_MAX 1.0 1.0 1.0
#LUT data points
0.000000 0.000000 0.000000
0.162598 0.030334 0.035187
0.411224 0.062531 0.114075
0.645996 0.086273 0.174835
0.825592 0.081665 0.193634
0.969269 0.053864 0.209106
0.996796 0.073181 0.241364
0.996826 0.075470 0.261871
0.135956 0.114899 0.054596
0.155396 0.123322 0.057220
0.385681 0.100189 0.096222
0.627136 0.099792 0.155243
0.812714 0.091736 0.180664
0.962738 0.054535 0.199554
0.996185 0.070435 0.218323
0.996796 0.075043 0.246338
0.435730 0.380219 0.146942
0.445313 0.388611 0.148499
0.451996 0.382324 0.144775
0.647552 0.257446 0.130219
0.810852 0.224243 0.145599
0.938477 0.146362 0.145020
0.992584 0.127502 0.142639
0.992645 0.121185 0.149628
0.650574 0.576416 0.188232
0.653717 0.579712 0.187500
0.664215 0.590332 0.180878
0.673950 0.576019 0.193665
0.873962 0.472076 0.180084
0.982941 0.355804 0.141998
0.996124 0.325409 0.154022
0.997131 0.321655 0.155640
0.824432 0.731354 0.197021
0.827057 0.733276 0.196503
0.833313 0.737915 0.195099
0.845673 0.745331 0.183899
0.852051 0.731567 0.192047
0.979523 0.635315 0.235931
0.996033 0.556458 0.253326
0.998993 0.545380 0.248810
0.960175 0.840210 0.171753
0.960968 0.841095 0.170959
0.963409 0.843353 0.167816
0.968628 0.846649 0.162903
0.972992 0.850830 0.156372
0.976013 0.838440 0.181213
0.993866 0.767303 0.337189
0.997070 0.754669 0.347107
0.989075 0.913208 0.234772
0.989166 0.913757 0.234955
0.989410 0.915039 0.235901
0.989899 0.917267 0.237396
0.990356 0.917999 0.234375
0.990753 0.919067 0.220245
0.991180 0.905212 0.254730
0.998535 0.865875 0.355835
0.998810 0.951752 0.274414
0.998779 0.951843 0.274963
0.998688 0.952148 0.275116
0.997711 0.953156 0.264435
0.996887 0.950409 0.254120
0.996338 0.946869 0.254486
0.996765 0.940887 0.263977
0.998871 0.936615 0.273987
0.081818 0.026581 0.208191
0.200317 0.045898 0.193237
0.485291 0.073517 0.239777
0.652344 0.092010 0.267731
0.830383 0.091522 0.279114
0.971130 0.054138 0.300201
0.996857 0.079102 0.316284
0.996857 0.079834 0.328339
0.080536 0.070007 0.076447
0.095978 0.072571 0.097198
0.423279 0.093475 0.173950
0.630035 0.111237 0.234833
0.824158 0.097809 0.260681
0.967224 0.059479 0.274963
0.996857 0.078857 0.308075
0.996857 0.079193 0.316711
0.419525 0.370422 0.153046
0.432098 0.381622 0.153412
0.454590 0.380646 0.144836
0.646301 0.249115 0.136749
0.811218 0.195740 0.155457
0.947418 0.145386 0.202484
0.997742 0.124176 0.219299
0.998047 0.122437 0.239655
0.648651 0.575165 0.191010
0.651917 0.578735 0.190857
0.666412 0.592560 0.181061
0.674927 0.575562 0.194244
0.876495 0.467773 0.179230
0.983978 0.346985 0.140778
0.996918 0.318512 0.153992
0.997284 0.315521 0.153961
0.821045 0.729492 0.202637
0.823669 0.731384 0.202209
0.831238 0.736755 0.199280
0.846100 0.745789 0.183777
0.851807 0.732330 0.192139
0.980652 0.627197 0.238770
0.996399 0.550812 0.251068
0.999023 0.536469 0.244812
0.955017 0.837402 0.183960
0.955505 0.838409 0.184692
0.958282 0.841309 0.181885
0.966675 0.846191 0.168335
0.973175 0.850891 0.156281
0.976105 0.839966 0.180969
0.994049 0.766052 0.337646
0.997070 0.752625 0.346527
0.988922 0.913879 0.233856
0.988983 0.914459 0.234009
0.989197 0.915771 0.234802
0.989685 0.918213 0.237061
0.990204 0.918610 0.236511
0.990723 0.919250 0.222687
0.991119 0.905792 0.252747
0.998535 0.865814 0.355804
0.998596 0.952515 0.275879
0.998535 0.952759 0.276428
0.998444 0.953156 0.276855
0.997498 0.954559 0.268097
0.996674 0.951385 0.263306
0.996216 0.947418 0.258636
0.996674 0.941376 0.267365
0.998871 0.936798 0.276398
0.072784 0.035950 0.429840
0.187866 0.053406 0.433411
0.455963 0.079834 0.450195
0.646271 0.094482 0.466064
0.854248 0.102386 0.459320
0.981476 0.054321 0.478302
0.996674 0.082001 0.472626
0.996674 0.081482 0.483673
0.073456 0.081909 0.465759
0.128723 0.082672 0.448120
0.445953 0.103607 0.443817
0.678375 0.087250 0.452698
0.847900 0.101593 0.456207
0.978149 0.053680 0.472229
0.996704 0.082123 0.470337
0.996674 0.081940 0.478302
0.278168 0.241089 0.257874
0.281891 0.247375 0.273895
0.315369 0.242645 0.314117
0.625275 0.199951 0.388580
0.807159 0.185455 0.403900
0.958710 0.149780 0.413269
0.997833 0.137054 0.430084
0.997772 0.134918 0.453278
0.592041 0.524963 0.267181
0.595276 0.528656 0.267029
0.604218 0.538971 0.262146
0.642548 0.530396 0.243591
0.824615 0.376892 0.251434
0.946869 0.246887 0.213257
0.989929 0.216919 0.238068
0.993530 0.210968 0.266663
0.799957 0.717407 0.240936
0.802155 0.719116 0.240784
0.807678 0.723450 0.239227
0.818085 0.732635 0.229523
0.840912 0.722107 0.216766
0.982666 0.598999 0.246063
0.997803 0.496307 0.245911
0.999390 0.474609 0.239594
0.940857 0.832123 0.218506
0.941040 0.833069 0.220795
0.943085 0.835876 0.221161
0.949097 0.839844 0.214233
0.958984 0.849487 0.189270
0.975739 0.841675 0.175140
0.994598 0.758301 0.341400
0.997040 0.746277 0.345032
0.988281 0.913696 0.233795
0.988342 0.914520 0.233734
0.988586 0.916992 0.234863
0.989075 0.920135 0.237762
0.989594 0.920929 0.238861
0.990295 0.920898 0.231537
0.990631 0.907074 0.251770
0.998535 0.864899 0.360687
0.997803 0.955780 0.279449
0.997742 0.955933 0.280701
0.997620 0.956451 0.283569
0.996796 0.958954 0.277405
0.996063 0.954376 0.279968
0.995819 0.949341 0.272430
0.996307 0.942810 0.282562
0.998871 0.937195 0.290222
0.090118 0.037567 0.610779
0.200165 0.056580 0.637939
0.443848 0.080017 0.657257
0.677002 0.088715 0.631165
0.811096 0.101959 0.640350
0.954529 0.063873 0.614319
0.996674 0.077972 0.608154
0.996735 0.076630 0.622559
0.123138 0.073395 0.638733
0.179077 0.081573 0.646362
0.429993 0.112305 0.665131
0.663239 0.096710 0.647552
0.820435 0.103363 0.646454
0.966583 0.058868 0.608521
0.996674 0.078278 0.604828
0.996735 0.077026 0.619293
0.240417 0.202789 0.626495
0.237274 0.200317 0.642639
0.329498 0.202759 0.643402
0.642944 0.200989 0.637024
0.848694 0.154175 0.624542
0.971588 0.119659 0.592865
0.997284 0.115112 0.592743
0.997192 0.111206 0.605713
0.456909 0.401855 0.461853
0.458405 0.403595 0.466370
0.459503 0.408234 0.484650
0.515900 0.406647 0.513580
0.805725 0.333405 0.548187
0.953735 0.234070 0.556854
0.997284 0.232819 0.562988
0.997528 0.218109 0.573364
0.743622 0.657959 0.379333
0.744415 0.658661 0.380615
0.746368 0.660339 0.384338
0.747803 0.661469 0.390228
0.798370 0.639679 0.358398
0.946228 0.463837 0.349213
0.995087 0.293457 0.321259
0.996948 0.288940 0.357147
0.921600 0.824341 0.271271
0.922272 0.825287 0.271606
0.921661 0.825256 0.282928
0.923553 0.826599 0.291809
0.928802 0.834991 0.263794
0.948883 0.829498 0.248688
0.995209 0.720856 0.361145
0.997162 0.699005 0.365204
0.987274 0.914703 0.237701
0.987366 0.915741 0.238037
0.987610 0.918274 0.240540
0.986755 0.920532 0.254883
0.986816 0.922760 0.259491
0.988861 0.924408 0.247681
0.989441 0.912384 0.254852
0.998505 0.855865 0.389557
0.996979 0.958801 0.293854
0.996918 0.959106 0.296051
0.996735 0.959778 0.302856
0.996033 0.961853 0.307556
0.995056 0.960266 0.313538
0.994843 0.953583 0.304779
0.995575 0.945435 0.307373
0.998932 0.936707 0.327606
0.160065 0.047699 0.759583
0.226929 0.054169 0.776947
0.406677 0.081604 0.807251
0.641235 0.083282 0.808411
0.801331 0.103333 0.790070
0.927643 0.068329 0.792877
0.989655 0.073700 0.778381
0.997131 0.067993 0.780273
0.153656 0.058228 0.774048
0.219818 0.071472 0.786652
0.396271 0.106262 0.818146
0.629395 0.107483 0.814331
0.814362 0.110474 0.786591
0.939850 0.062103 0.791229
0.993347 0.071381 0.777405
0.997162 0.067993 0.778931
0.167694 0.163055 0.810760
0.169556 0.160370 0.804352
0.341614 0.177826 0.820770
0.611206 0.202087 0.822113
0.808807 0.172272 0.806854
0.941589 0.135834 0.792358
0.997711 0.099213 0.763641
0.997589 0.078583 0.769470
0.367157 0.361023 0.749207
0.366821 0.361816 0.755188
0.361816 0.363953 0.781738
0.513947 0.363251 0.800659
0.794495 0.327362 0.779266
0.964813 0.211243 0.766510
0.997772 0.181000 0.730255
0.997681 0.188446 0.743073
0.628326 0.558533 0.603241
0.628418 0.560608 0.608826
0.627563 0.566162 0.627808
0.623474 0.573456 0.660156
0.685791 0.567657 0.682709
0.928955 0.496918 0.682739
0.998383 0.469543 0.685822
0.998749 0.472260 0.693695
0.863342 0.779358 0.493347
0.863281 0.779938 0.497131
0.862732 0.781128 0.507935
0.861359 0.782166 0.523956
0.866302 0.785400 0.529266
0.916595 0.758331 0.476318
0.994690 0.612885 0.478302
0.997284 0.578186 0.496216
0.966431 0.908081 0.386993
0.966522 0.908691 0.388184
0.966766 0.910309 0.392212
0.966339 0.912781 0.405579
0.966125 0.914490 0.420441
0.967926 0.918549 0.401031
0.984497 0.907745 0.323425
0.998413 0.835083 0.446259
0.995575 0.964050 0.340057
0.995453 0.964142 0.342377
0.994537 0.964020 0.352539
0.992157 0.963837 0.377716
0.986206 0.960571 0.414429
0.985596 0.955139 0.410492
0.994507 0.949402 0.368256
0.999329 0.934235 0.403503
0.151276 0.041931 0.854187
0.170929 0.043365 0.870178
0.329071 0.075409 0.915802
0.578308 0.085632 0.932343
0.781097 0.101257 0.900909
0.913971 0.044281 0.900055
0.965424 0.070282 0.893677
0.993774 0.048889 0.909454
0.080200 0.047943 0.870239
0.111176 0.057159 0.883301
0.357391 0.101074 0.921021
0.573334 0.116699 0.937195
0.780365 0.115173 0.907196
0.907654 0.086304 0.903168
0.966095 0.069092 0.900085
0.993561 0.048950 0.913055
0.177429 0.143311 0.916199
0.189453 0.144806 0.917206
0.303345 0.160706 0.938690
0.555267 0.195313 0.943726
0.758759 0.178680 0.931274
0.923401 0.152649 0.901672
0.994537 0.113647 0.904907
0.999268 0.103180 0.905365
0.293427 0.355408 0.951019
0.292114 0.355499 0.953674
0.289795 0.347961 0.947357
0.506470 0.323792 0.937073
0.722137 0.325867 0.937805
0.918854 0.246094 0.915771
0.992493 0.213898 0.905701
0.994812 0.181396 0.906647
0.503174 0.524353 0.860077
0.503204 0.525574 0.863190
0.500458 0.528351 0.878143
0.490265 0.528168 0.906433
0.640350 0.527832 0.913971
0.903351 0.499084 0.895386
0.999115 0.398529 0.880981
0.996582 0.348450 0.869659
0.776062 0.752014 0.728851
0.774414 0.751587 0.732910
0.768127 0.749237 0.745850
0.760864 0.749542 0.772156
0.756165 0.750977 0.791687
0.822662 0.741211 0.819244
0.983337 0.690521 0.814331
0.987274 0.689972 0.821747
0.940765 0.902832 0.596344
0.940643 0.903748 0.601746
0.940521 0.906158 0.614594
0.940247 0.909851 0.635529
0.939117 0.910431 0.659637
0.935547 0.908478 0.674316
0.961609 0.872070 0.624512
0.998016 0.803009 0.640533
0.978973 0.964478 0.523346
0.978790 0.964447 0.526001
0.977966 0.964264 0.537292
0.976807 0.964050 0.553009
0.973114 0.958801 0.579437
0.969452 0.953461 0.595703
0.976288 0.948059 0.564240
0.997742 0.940826 0.504822
0.141815 0.040710 0.838684
0.140442 0.043640 0.876709
0.300629 0.082245 0.943542
0.491608 0.100494 0.990051
0.715942 0.107422 0.988678
0.864319 0.085785 0.976685
0.973999 0.052399 0.950043
0.984619 0.038788 0.964355
0.178101 0.065948 0.933441
0.221039 0.077637 0.945618
0.316620 0.097473 0.976563
0.498169 0.123871 0.991943
0.706238 0.122833 0.989807
0.868958 0.107056 0.972961
0.975342 0.068115 0.957397
0.988464 0.058014 0.965942
0.122131 0.127228 0.967133
0.145538 0.128235 0.968140
0.281921 0.155273 0.988068
0.495178 0.187042 0.993896
0.688904 0.184784 0.992615
0.890289 0.162231 0.982147
0.992584 0.136841 0.967712
0.998383 0.130463 0.971710
0.262115 0.338348 0.997894
0.258301 0.338043 0.997925
0.281342 0.309326 0.987976
0.487122 0.311523 0.995026
0.658691 0.326965 0.995331
0.860931 0.278229 0.994873
0.973846 0.267822 0.970764
0.976105 0.237335 0.974609
0.421173 0.521301 0.997650
0.421570 0.522339 0.997833
0.421173 0.524628 0.998566
0.413635 0.511566 0.997589
0.638733 0.490173 0.993469
0.855133 0.498901 0.989471
0.993927 0.452698 0.979401
0.986877 0.405609 0.980957
0.649475 0.705353 0.954407
0.649536 0.706696 0.957153
0.649658 0.709564 0.963348
0.647247 0.712067 0.975311
0.634338 0.705536 0.992645
0.782288 0.703583 0.979248
0.968384 0.685089 0.966156
0.979950 0.635529 0.967499
0.886017 0.910919 0.836060
0.885162 0.911469 0.841461
0.880859 0.911224 0.859528
0.872650 0.907410 0.889496
0.864258 0.905029 0.915314
0.852203 0.900452 0.926147
0.926056 0.885864 0.922729
0.993988 0.862518 0.926971
0.962494 0.965973 0.714020
0.961792 0.966156 0.719849
0.960144 0.966644 0.734375
0.956726 0.967621 0.761292
0.948425 0.965454 0.797363
0.938995 0.959839 0.824951
0.946533 0.957764 0.826569
0.981934 0.960449 0.762665
0.222198 0.069000 0.792694
0.204803 0.072144 0.840698
0.305939 0.091827 0.943573
0.412048 0.103394 0.991913
0.626892 0.136749 0.994232
0.799194 0.102814 0.996033
0.957458 0.066650 0.984802
0.981171 0.032715 0.982208
0.209534 0.082794 0.937317
0.231476 0.087341 0.956879
0.270630 0.094360 0.989563
0.378906 0.125702 0.997162
0.629669 0.147400 0.996277
0.803192 0.118103 0.996399
0.965027 0.079163 0.987305
0.984161 0.057465 0.985962
0.106903 0.114410 0.996277
0.132080 0.116425 0.994843
0.263794 0.148438 0.997345
0.447906 0.184509 0.997437
0.634949 0.197968 0.997070
0.826294 0.179657 0.996796
0.979584 0.143280 0.992706
0.990570 0.140930 0.987885
0.244507 0.327789 0.998596
0.244324 0.325439 0.998688
0.251526 0.308258 0.998138
0.463074 0.299957 0.995972
0.627625 0.327423 0.997253
0.816498 0.298737 0.997528
0.963593 0.286713 0.989624
0.969666 0.266663 0.988953
0.408081 0.516998 0.998413
0.408081 0.516998 0.998413
0.400787 0.513245 0.998352
0.390686 0.488953 0.997772
0.621246 0.480408 0.994263
0.828796 0.501648 0.997101
0.982300 0.479187 0.990234
0.989197 0.456604 0.989594
0.613953 0.686554 0.994995
0.615112 0.687866 0.995148
0.618958 0.691650 0.995453
0.624878 0.696472 0.995972
0.620270 0.692993 0.998016
0.807037 0.672089 0.992645
0.960693 0.683777 0.983429
0.977783 0.667358 0.983734
0.820007 0.878479 0.976105
0.820526 0.879150 0.976593
0.822113 0.881012 0.978333
0.824066 0.883911 0.982300
0.820709 0.881714 0.986664
0.809357 0.874023 0.994598
0.910034 0.871857 0.995270
0.981628 0.857727 0.994080
0.935913 0.976257 0.901123
0.935516 0.976532 0.906586
0.934357 0.976868 0.918549
0.932404 0.977539 0.937378
0.928101 0.978546 0.962372
0.915161 0.971161 0.970276
0.925018 0.972443 0.982483
1.000000 1.000000 0.999969
