LUTs/Dive Color Contrast.cube
#Created by: Adobe Photoshop Export Color Lookup Plugin
#Copyright: (C) Copyright 2018 ©Sergey Zhmakin
TITLE "Dive Color Contrast"
#LUT size
LUT_3D_SIZE 4
#data domain
DOMAIN_MIN 0.0 0.0 0.0
DOMAIN_MAX 1.0 1.0 1.0
#LUT data points
0.000458 0.000000 0.000000
0.387543 0.004517 0.002716
0.740631 0.034088 0.001923
0.961151 0.124115 0.008972
0.369019 0.375763 0.008911
0.394409 0.368622 0.015259
0.732910 0.327423 0.010986
0.983948 0.299286 0.002930
0.717438 0.726440 0.034546
0.716003 0.723236 0.025818
0.728119 0.713470 0.031891
0.970184 0.705627 0.010376
1.000000 0.998718 0.003113
0.991272 0.991882 0.004242
0.955719 0.966034 0.047241
0.979218 0.965637 0.102966
0.089813 0.017639 0.359833
0.418884 0.094849 0.383179
0.759705 0.107697 0.298035
0.962372 0.152222 0.208862
0.262756 0.324127 0.329224
0.277588 0.248566 0.255463
0.720032 0.294434 0.213043
0.985870 0.252655 0.162445
0.675110 0.707489 0.262207
0.676544 0.703979 0.222473
0.703857 0.704163 0.224548
0.974030 0.671417 0.184723
0.971649 1.000000 0.260834
0.959045 0.988556 0.235901
0.936401 0.959930 0.215515
0.978394 0.965210 0.230286
0.214508 0.045197 0.693268
0.410187 0.086639 0.695618
0.774078 0.230560 0.720581
0.967896 0.251373 0.693085
0.251740 0.350586 0.701477
0.330078 0.314392 0.685760
0.741516 0.342590 0.706146
0.975861 0.334290 0.641418
0.629913 0.703491 0.683105
0.622620 0.694092 0.673279
0.671265 0.656281 0.620575
0.959656 0.633667 0.559479
0.924927 0.986145 0.659302
0.919067 0.978882 0.645172
0.906555 0.962433 0.611908
0.967773 0.976227 0.613251
0.282776 0.096100 0.954102
0.415161 0.126892 0.969116
0.766693 0.240906 0.955780
0.977753 0.295593 0.957153
0.296600 0.308228 0.945374
0.398010 0.312836 0.943085
0.731842 0.362976 0.937683
0.981750 0.390717 0.957336
0.602600 0.706268 0.943939
0.604614 0.705811 0.943726
0.675903 0.693237 0.958038
0.967834 0.670624 0.942719
0.899719 0.979218 0.969086
0.894928 0.975433 0.969330
0.882599 0.963531 0.958740
0.997986 0.996765 0.996826
