LUTs/Dive Color Contrast.cube
#Created by: Adobe Photoshop Export Color Lookup Plugin
#Copyright: (C) Copyright 2018 ©Sergey Zhmakin
TITLE "Dive Color Contrast"
#LUT size
LUT_3D_SIZE 8
#data domain
DOMAIN_MIN 0.0 0.0 0.0
DOMAIN_MAX 1.0 1.0 1.0
#LUT data points
0.000458 0.000000 0.000000
0.091888 0.000641 0.000671
0.329071 0.003601 0.004944
0.497986 0.007202 0.002991
0.647736 0.038300 0.007660
0.788330 0.052032 0.005066
0.910492 0.074799 0.002747
0.961151 0.124115 0.008972
0.065552 0.065643 0.003357
0.091034 0.080933 0.001404
0.323334 0.077850 0.000641
0.495850 0.077637 0.007690
0.648315 0.100616 0.003571
0.780670 0.116943 0.008789
0.911194 0.113800 0.002258
0.961212 0.150635 0.007874
0.299316 0.307770 0.006042
0.312286 0.322479 0.005859
0.328613 0.312561 0.003937
0.489166 0.274139 0.004395
0.645538 0.282654 0.018860
0.777649 0.264740 0.012939
0.900208 0.257385 0.013763
0.975708 0.243805 0.004272
0.479523 0.487946 0.034882
0.477631 0.485718 0.032745
0.476746 0.484711 0.024048
0.488983 0.478851 0.006775
0.633240 0.459137 0.020844
0.776154 0.440582 0.031708
0.909760 0.437744 0.006683
0.973938 0.426819 0.006958
0.621399 0.631317 0.042999
0.620667 0.630920 0.043427
0.620758 0.631531 0.044098
0.623413 0.632111 0.037384
0.640259 0.628082 0.000000
0.778015 0.613861 0.018066
0.902374 0.601196 0.024048
0.979736 0.603851 0.006805
0.760193 0.769379 0.038269
0.758820 0.767822 0.036743
0.756073 0.764984 0.035645
0.752563 0.762451 0.040680
0.748688 0.761688 0.043701
0.768066 0.759491 0.014008
0.895813 0.742798 0.014374
0.960358 0.746887 0.028992
0.885773 0.895508 0.041473
0.883423 0.893311 0.040863
0.878571 0.888519 0.041748
0.873413 0.883087 0.047729
0.868073 0.879333 0.056976
0.866730 0.876434 0.058868
0.884644 0.872437 0.016785
0.989166 0.873962 0.000488
1.000000 0.998718 0.003113
1.000000 0.998260 0.003204
0.996918 0.995209 0.003754
0.978882 0.984467 0.005981
0.964661 0.973663 0.014557
0.951202 0.962433 0.064636
0.947449 0.955078 0.101288
0.979218 0.965637 0.102966
0.049805 0.014740 0.113556
0.115234 0.040405 0.112335
0.367432 0.034912 0.094147
0.516998 0.026886 0.063446
0.654144 0.047516 0.051361
0.782227 0.046967 0.028900
0.905609 0.062042 0.017242
0.960541 0.115356 0.020691
0.039032 0.045135 0.068573
0.039856 0.024353 0.023163
0.311157 0.054749 0.033844
0.495331 0.068268 0.040100
0.651581 0.091370 0.042419
0.776855 0.111084 0.029297
0.906525 0.087341 0.014008
0.961151 0.138519 0.020325
0.271393 0.291260 0.039886
0.267822 0.288330 0.038605
0.305603 0.285797 0.030640
0.490204 0.261139 0.040070
0.648041 0.275665 0.049591
0.775940 0.256409 0.034027
0.899261 0.240906 0.025879
0.975922 0.231506 0.014404
0.461761 0.474365 0.069550
0.451294 0.463531 0.062286
0.451202 0.462616 0.058685
0.474335 0.464661 0.035950
0.630768 0.449890 0.043121
0.774658 0.436554 0.055908
0.909210 0.425964 0.022888
0.976501 0.417084 0.010956
0.612000 0.626099 0.087402
0.610718 0.624908 0.087616
0.610382 0.624939 0.087067
0.613464 0.626862 0.062347
0.629303 0.622620 0.031921
0.775543 0.609558 0.031311
0.902344 0.597382 0.042633
0.978760 0.594971 0.033844
0.750397 0.763336 0.086548
0.749634 0.762360 0.083679
0.748322 0.760620 0.079010
0.746796 0.759399 0.074951
0.744263 0.760376 0.066254
0.760864 0.758789 0.030975
0.895020 0.741272 0.027985
0.960785 0.743805 0.049622
0.879517 0.892181 0.073792
0.877014 0.889832 0.073395
0.871948 0.884613 0.075714
0.866302 0.878754 0.084320
0.862244 0.876129 0.092712
0.864105 0.875824 0.080353
0.881561 0.873169 0.032806
0.987671 0.872345 0.005859
1.000000 0.998871 0.007629
1.000000 0.998383 0.007904
0.993286 0.994263 0.009399
0.975311 0.983124 0.014832
0.961060 0.972137 0.049377
0.948700 0.961700 0.088501
0.946198 0.955322 0.123383
0.978668 0.964935 0.121948
0.077576 0.016144 0.309113
0.143982 0.034363 0.312592
0.357208 0.084198 0.336487
0.539246 0.074921 0.269958
0.669830 0.096680 0.236938
0.798340 0.107178 0.198273
0.909943 0.089874 0.152679
0.961639 0.137665 0.128784
0.059509 0.077972 0.300049
0.087891 0.065826 0.291931
0.318542 0.105164 0.306213
0.522156 0.119110 0.256195
0.660522 0.133606 0.208130
0.785736 0.147156 0.170288
0.906677 0.114105 0.141083
0.962616 0.149567 0.121979
0.222321 0.276215 0.279083
0.201965 0.252167 0.257568
0.207397 0.172516 0.184357
0.463593 0.234070 0.200806
0.637970 0.254486 0.170013
0.769501 0.235931 0.138702
0.891876 0.215179 0.107666
0.976471 0.204773 0.095032
0.410156 0.440857 0.235229
0.403503 0.433350 0.224518
0.402405 0.427032 0.209259
0.443146 0.427612 0.205627
0.628174 0.422394 0.184265
0.767944 0.420746 0.158478
0.898285 0.403442 0.121582
0.975708 0.389465 0.096558
0.586334 0.614899 0.230835
0.584747 0.612244 0.223663
0.581543 0.606537 0.206635
0.584869 0.610352 0.185303
0.610992 0.616180 0.172638
0.762024 0.592102 0.161316
0.894409 0.581268 0.136169
0.977203 0.576752 0.130188
0.727325 0.751862 0.204529
0.727875 0.751709 0.198944
0.728790 0.751282 0.187592
0.729279 0.751404 0.173462
0.725830 0.752411 0.171265
0.739075 0.751465 0.141174
0.892120 0.732300 0.122589
0.961884 0.731110 0.140778
0.860107 0.884033 0.188751
0.859100 0.882843 0.186615
0.856781 0.878784 0.179718
0.852417 0.873047 0.174164
0.848846 0.871094 0.177277
0.852905 0.873413 0.179535
0.869293 0.874359 0.143311
0.982880 0.868439 0.086578
0.982574 1.000000 0.185944
0.981415 1.000000 0.182251
0.973969 0.993103 0.170410
0.961243 0.979858 0.151581
0.949219 0.967743 0.153656
0.940247 0.959534 0.166931
0.941437 0.956055 0.189545
0.977997 0.964600 0.195190
0.118103 0.024628 0.456665
0.174530 0.037903 0.457916
0.356750 0.074402 0.478180
0.548645 0.125153 0.487366
0.682159 0.132477 0.446869
0.795624 0.154755 0.417572
0.914612 0.146179 0.385468
0.963654 0.183289 0.367615
0.102325 0.081207 0.460541
0.154633 0.087372 0.459930
0.317627 0.105652 0.462036
0.516785 0.155731 0.465515
0.670471 0.165009 0.431091
0.790680 0.195496 0.400055
0.906067 0.181793 0.368042
0.965363 0.194733 0.361786
0.208313 0.283936 0.460022
0.194794 0.265594 0.444885
0.250305 0.235718 0.427582
0.448303 0.258118 0.428162
0.640076 0.275269 0.385803
0.776825 0.274231 0.354126
0.893982 0.267059 0.336639
0.974884 0.243927 0.337128
0.362335 0.426208 0.435516
0.361053 0.423615 0.429962
0.353516 0.406036 0.406891
0.406281 0.380096 0.382202
0.609100 0.395050 0.375275
0.754242 0.394379 0.328705
0.880371 0.378021 0.310791
0.965515 0.363525 0.295715
0.539581 0.590729 0.410461
0.535126 0.585175 0.402405
0.528748 0.576447 0.387177
0.531311 0.571716 0.365326
0.587494 0.582336 0.371338
0.744904 0.569122 0.348297
0.873688 0.556213 0.313110
0.965515 0.552795 0.305603
0.698883 0.742523 0.393799
0.698364 0.740967 0.386383
0.697601 0.737823 0.367920
0.697815 0.735596 0.343201
0.698029 0.740082 0.334167
0.720673 0.741364 0.344727
0.871216 0.709869 0.305298
0.957947 0.706360 0.301300
0.834778 0.878235 0.390106
0.834991 0.877472 0.382202
0.835052 0.875244 0.361267
0.834778 0.871918 0.338135
0.833069 0.869873 0.326202
0.835663 0.870972 0.329498
0.848389 0.870819 0.329102
0.976563 0.864471 0.308197
0.954071 0.995667 0.374268
0.952240 0.993805 0.370361
0.947388 0.989014 0.360199
0.936676 0.978149 0.345215
0.926117 0.964722 0.332275
0.922729 0.957947 0.329559
0.931000 0.956879 0.326843
0.980103 0.968781 0.321533
0.180695 0.039520 0.600616
0.240051 0.053619 0.600311
0.373627 0.070496 0.609131
0.533997 0.134308 0.621399
0.700653 0.162048 0.632660
0.802734 0.211884 0.607941
0.905151 0.175934 0.586670
0.963867 0.224884 0.573669
0.111206 0.095551 0.596436
0.153809 0.100708 0.595612
0.329651 0.105774 0.599426
0.516327 0.167572 0.612518
0.687958 0.194000 0.626801
0.797211 0.233002 0.598572
0.901215 0.202789 0.571014
0.966003 0.237701 0.567719
0.192932 0.288788 0.604584
0.183105 0.281464 0.599304
0.243256 0.255737 0.585388
0.464844 0.268097 0.590607
0.647797 0.298676 0.599518
0.788788 0.302917 0.564606
0.897949 0.303894 0.540710
0.973114 0.283661 0.545288
0.361359 0.447388 0.605591
0.360565 0.446136 0.603180
0.355682 0.436981 0.592438
0.407471 0.414246 0.572571
0.608795 0.425140 0.581055
0.758972 0.413544 0.530304
0.876068 0.406586 0.496887
0.960938 0.392883 0.507721
0.526001 0.593750 0.587555
0.523560 0.591492 0.585236
0.514648 0.583405 0.577423
0.497559 0.564209 0.562134
0.561523 0.544037 0.532196
0.739441 0.544312 0.508301
0.865021 0.532135 0.473816
0.953918 0.534241 0.471588
0.680267 0.737823 0.573608
0.677643 0.735107 0.569946
0.669586 0.726776 0.558228
0.658112 0.714722 0.535736
0.669006 0.719452 0.521973
0.731354 0.726135 0.531616
0.862671 0.691162 0.488617
0.946503 0.681244 0.465820
0.821716 0.877747 0.566254
0.821167 0.876770 0.562164
0.820160 0.874420 0.550476
0.817627 0.869537 0.526794
0.815552 0.866791 0.504639
0.815186 0.865509 0.497650
0.846924 0.860657 0.499908
0.969666 0.856537 0.496704
0.932800 0.990082 0.551208
0.931824 0.988495 0.547150
0.928589 0.984528 0.537720
0.919739 0.975586 0.519928
0.911072 0.966949 0.505676
0.907867 0.959534 0.500885
0.918304 0.957214 0.496674
0.975708 0.972900 0.495850
0.181213 0.032776 0.736725
0.216644 0.036865 0.734680
0.338104 0.071808 0.734161
0.528198 0.149872 0.753296
0.692810 0.174530 0.759003
0.809326 0.261444 0.763702
0.912964 0.219910 0.754333
0.971466 0.262604 0.749084
0.133545 0.075470 0.726501
0.170197 0.078522 0.723541
0.340485 0.130737 0.739014
0.512970 0.170990 0.749847
0.682922 0.196350 0.753387
0.805328 0.274261 0.760284
0.907776 0.257751 0.751740
0.975067 0.274384 0.743103
0.196594 0.281006 0.745026
0.210663 0.278168 0.742706
0.284760 0.265625 0.737976
0.465149 0.274994 0.738312
0.644653 0.299408 0.743073
0.794464 0.316406 0.753143
0.905426 0.332153 0.734253
0.981659 0.316467 0.717285
0.346497 0.452637 0.749481
0.345337 0.453369 0.749756
0.348907 0.450958 0.745636
0.429443 0.431213 0.735046
0.610992 0.425049 0.734314
0.770599 0.434448 0.729523
0.886749 0.425415 0.678925
0.955444 0.421082 0.674042
0.506317 0.598999 0.733643
0.506104 0.598877 0.733643
0.504364 0.596619 0.733734
0.501068 0.590118 0.729340
0.582855 0.580048 0.714508
0.744171 0.570221 0.704254
0.870148 0.545746 0.647766
0.951263 0.546631 0.616699
0.672363 0.748932 0.725616
0.671204 0.747711 0.724152
0.668518 0.744659 0.719391
0.661407 0.736725 0.708405
0.656708 0.724091 0.692474
0.735168 0.717468 0.683380
0.877472 0.695007 0.642242
0.951569 0.685425 0.614746
0.818390 0.883362 0.717041
0.817627 0.882172 0.714966
0.815491 0.878876 0.709198
0.811859 0.873230 0.699127
0.809967 0.868683 0.686890
0.816223 0.866974 0.674194
0.867767 0.858948 0.663147
0.984222 0.841187 0.637512
0.922821 0.985962 0.711182
0.921631 0.984711 0.709503
0.917755 0.980408 0.704865
0.912720 0.974365 0.693878
0.907013 0.966949 0.678986
0.903381 0.960999 0.668671
0.915741 0.960052 0.664490
0.964478 0.978943 0.671722
0.222717 0.065765 0.870758
0.246582 0.074188 0.867584
0.367310 0.110840 0.872437
0.529022 0.146729 0.890228
0.687347 0.204895 0.879730
0.811951 0.245850 0.877563
0.912537 0.276917 0.872955
0.977203 0.284912 0.890717
0.236481 0.114716 0.870789
0.269897 0.122986 0.871887
0.357941 0.147186 0.881073
0.513000 0.172028 0.889343
0.674103 0.223419 0.875824
0.812927 0.253906 0.880676
0.908508 0.309296 0.872467
0.983551 0.297577 0.889984
0.198700 0.264069 0.868011
0.206024 0.263367 0.865234
0.282440 0.256378 0.864380
0.466705 0.275421 0.863892
0.643433 0.302704 0.872711
0.797272 0.317230 0.872375
0.914307 0.360565 0.881836
0.994354 0.349091 0.879700
0.331360 0.449585 0.868347
0.343781 0.454437 0.868744
0.377625 0.459015 0.868805
0.450500 0.445953 0.872437
0.600800 0.431366 0.861572
0.765106 0.431183 0.876465
0.899048 0.440826 0.875580
0.960052 0.442749 0.857025
0.490021 0.600403 0.878235
0.490753 0.601257 0.880646
0.493866 0.604401 0.883331
0.496521 0.608307 0.877594
0.572601 0.590454 0.865265
0.739441 0.565521 0.852722
0.886627 0.565765 0.850830
0.982056 0.559265 0.823151
0.657257 0.751190 0.868469
0.656097 0.750061 0.868561
0.652985 0.747223 0.868591
0.645844 0.741089 0.868317
0.641083 0.733398 0.867828
0.728912 0.725647 0.857056
0.871155 0.717560 0.837830
0.951202 0.703491 0.817719
0.807312 0.886230 0.864990
0.806763 0.885834 0.865295
0.804504 0.884155 0.866669
0.800415 0.881470 0.870728
0.795715 0.876129 0.867249
0.799408 0.865906 0.851013
0.881927 0.861481 0.827362
0.990417 0.845062 0.801178
0.909180 0.981659 0.852264
0.908142 0.980560 0.851929
0.905762 0.977875 0.851196
0.901489 0.972992 0.850342
0.896149 0.966583 0.849670
0.895874 0.961334 0.843170
0.915283 0.961792 0.835754
0.964966 0.983398 0.844696
0.282776 0.096100 0.954102
0.306915 0.104126 0.954132
0.376343 0.121155 0.962921
0.516174 0.144257 0.990295
0.673859 0.219238 0.957581
0.819702 0.223083 0.974457
0.910217 0.303833 0.937836
0.977753 0.295593 0.957153
0.261841 0.130554 0.959442
0.279480 0.134460 0.962585
0.336487 0.139587 0.974518
0.501282 0.176849 0.984131
0.662628 0.243988 0.947845
0.825714 0.219543 0.988464
0.912140 0.317169 0.939423
0.979767 0.310242 0.960419
0.229584 0.247101 0.967834
0.250580 0.243805 0.964203
0.336945 0.254303 0.956604
0.488251 0.281555 0.943024
0.645813 0.302307 0.983459
0.791779 0.337433 0.941956
0.916870 0.359497 0.954956
0.986572 0.362457 0.964600
0.325409 0.434296 0.963348
0.331268 0.434326 0.962372
0.364258 0.429626 0.955139
0.462646 0.425507 0.935974
0.593140 0.435730 0.938293
0.754608 0.437531 0.956604
0.893127 0.443146 0.965881
0.962402 0.454590 0.944733
0.470490 0.594177 0.964478
0.470459 0.594788 0.965546
0.481567 0.605652 0.962006
0.508240 0.623901 0.950836
0.571259 0.604492 0.942291
0.731873 0.580780 0.935394
0.892456 0.570160 0.946228
0.977722 0.565735 0.961761
0.652435 0.751343 0.945465
0.652740 0.751190 0.945953
0.652802 0.750488 0.948242
0.652802 0.750122 0.956055
0.650940 0.752502 0.964172
0.723206 0.732941 0.964722
0.876770 0.723938 0.942017
0.961090 0.722687 0.941223
0.799133 0.885651 0.945160
0.798584 0.885040 0.944855
0.796967 0.883514 0.944305
0.793945 0.880493 0.945343
0.788757 0.875580 0.950562
0.789063 0.869293 0.961761
0.869354 0.862213 0.981384
0.964935 0.858459 0.978363
0.899719 0.979218 0.969086
0.898743 0.978394 0.969147
0.896118 0.976349 0.969269
0.890503 0.972260 0.970795
0.883423 0.967407 0.972321
0.884735 0.962646 0.953979
0.924438 0.968811 0.957794
0.997986 0.996765 0.996826
