LUTs/Dive Color Contrast.cube
#Created by: Adobe Photoshop Export Color Lookup Plugin
#Copyright: (C) Copyright 2018 ©Sergey Zhmakin
TITLE "Dive Color Contrast"
#LUT size
LUT_3D_SIZE 64
#data domain
DOMAIN_MIN 0.0 0.0 0.0
DOMAIN_MAX 1.0 1.0 1.0
#LUT data points
0.000458 0.000000 0.000000
0.003296 0.000061 0.000061
0.007660 0.000092 0.000092
0.014099 0.000122 0.000153
0.023529 0.000336 0.000427
0.035889 0.000580 0.000793
0.050568 0.000732 0.001038
0.067139 0.000763 0.001160
0.079651 0.001190 0.001831
0.091888 0.000641 0.000671
0.119476 0.001892 0.000763
0.153351 0.002533 0.002991
0.183502 0.003967 0.005585
0.211487 0.004517 0.006836
0.236877 0.004761 0.007141
0.260651 0.004669 0.006744
0.284058 0.004730 0.006866
0.307434 0.004425 0.006409
0.329071 0.003601 0.004944
0.347565 0.003235 0.003174
0.367859 0.004272 0.002838
0.387543 0.004517 0.002716
0.407104 0.004150 0.002228
0.425751 0.002869 0.001007
0.443695 0.001251 0.000000
0.461609 0.000671 0.000000
0.479675 0.004059 0.000946
0.497986 0.007202 0.002991
0.516327 0.010529 0.005005
0.534607 0.013550 0.006622
0.552795 0.015869 0.007813
0.570679 0.021149 0.009003
0.586151 0.026245 0.010071
0.601471 0.032959 0.010193
0.616760 0.038422 0.009399
0.632111 0.042053 0.009094
0.647736 0.038300 0.007660
0.663544 0.036407 0.005829
0.679443 0.032898 0.003845
0.695374 0.027039 0.001984
0.710480 0.022278 0.000488
0.725159 0.028412 0.001373
0.740631 0.034088 0.001923
0.756805 0.037537 0.002167
0.773254 0.041321 0.003235
0.788330 0.052032 0.005066
0.802490 0.067169 0.006897
0.814941 0.081177 0.008728
0.827209 0.093170 0.010529
0.839752 0.104340 0.011993
0.853302 0.107452 0.011322
0.867523 0.103424 0.009094
0.881531 0.098236 0.006989
0.895081 0.091370 0.005035
0.910492 0.074799 0.002747
0.923737 0.067383 0.002106
0.935699 0.063660 0.001923
0.945953 0.065430 0.002686
0.954224 0.074707 0.003265
0.955658 0.089325 0.004608
0.957031 0.101807 0.005951
0.958344 0.112701 0.007324
0.959656 0.120331 0.008392
0.961151 0.124115 0.008972
0.000854 0.000000 0.000000
0.001282 0.000000 0.000000
0.003784 0.000031 0.000031
0.008911 0.000061 0.000061
0.018402 0.000488 0.000580
0.029968 0.000641 0.000824
0.043884 0.000549 0.000732
0.060150 0.000702 0.001038
0.076050 0.001160 0.001801
0.088928 0.000671 0.000397
0.115723 0.002319 0.000549
0.148102 0.002655 0.002197
0.179047 0.003326 0.004059
0.206482 0.004150 0.005707
0.231964 0.004425 0.006104
0.256073 0.004547 0.005920
0.280182 0.004547 0.005737
0.303650 0.004150 0.004974
0.325806 0.003693 0.004059
0.346405 0.004089 0.003448
0.366913 0.005402 0.002991
0.386932 0.005890 0.002838
0.406403 0.005737 0.002075
0.425171 0.004700 0.000641
0.442841 0.001984 0.000000
0.460876 0.001831 0.000000
0.479095 0.005493 0.001282
0.497192 0.007965 0.003113
0.515656 0.010986 0.004944
0.534027 0.013947 0.006592
0.552277 0.016388 0.007690
0.570557 0.023712 0.009247
0.586060 0.030487 0.010284
0.601379 0.037598 0.010254
0.616669 0.043335 0.009399
0.632233 0.046112 0.009094
0.647888 0.040558 0.007446
0.663513 0.038025 0.005676
0.679321 0.034821 0.003723
0.695282 0.029144 0.001862
0.709991 0.024048 0.000488
0.724518 0.031616 0.001343
0.739960 0.037292 0.001862
0.756104 0.040955 0.002106
0.772278 0.046967 0.003357
0.787537 0.056885 0.005249
0.801849 0.069916 0.007111
0.814911 0.082886 0.008972
0.827057 0.095062 0.010742
0.839691 0.106476 0.012207
0.853455 0.108551 0.011261
0.867584 0.104767 0.009003
0.881592 0.099792 0.006866
0.895233 0.093262 0.004974
0.910858 0.075745 0.002563
0.923737 0.070740 0.002106
0.935577 0.067780 0.001984
0.946198 0.067078 0.002716
0.953705 0.077209 0.003387
0.955231 0.091675 0.004730
0.956635 0.104065 0.006104
0.958008 0.115082 0.007507
0.959473 0.122131 0.008545
0.961151 0.125366 0.008911
0.000763 0.000000 0.000000
0.001434 0.000000 0.000000
0.002319 0.000000 0.000000
0.004913 0.000153 0.000183
0.013397 0.000610 0.000671
0.024994 0.000732 0.000885
0.037933 0.000244 0.000336
0.054138 0.000458 0.000671
0.071899 0.000336 0.000397
0.088898 0.002350 0.000000
0.111816 0.003387 0.000610
0.142731 0.004456 0.001862
0.173035 0.003510 0.003021
0.201294 0.003784 0.004242
0.227234 0.004028 0.004669
0.252167 0.004395 0.005066
0.276398 0.004303 0.004486
0.300476 0.004547 0.003784
0.323303 0.005524 0.003510
0.345093 0.006012 0.003448
0.366089 0.006622 0.003143
0.386383 0.007416 0.002838
0.405853 0.007538 0.001770
0.424713 0.006744 0.000183
0.442322 0.003967 0.000000
0.460236 0.003571 0.000000
0.478516 0.007141 0.001678
0.496857 0.009705 0.003448
0.514954 0.011383 0.004974
0.533447 0.014404 0.006531
0.551971 0.017914 0.007843
0.570435 0.026459 0.009552
0.585968 0.034943 0.010468
0.601349 0.042084 0.010345
0.616608 0.048279 0.009399
0.632233 0.050049 0.008911
0.647919 0.044830 0.007263
0.663513 0.039764 0.005554
0.679291 0.036530 0.003632
0.694855 0.031219 0.001709
0.709320 0.027557 0.000519
0.723877 0.034943 0.001312
0.739197 0.040497 0.001831
0.755310 0.044312 0.002045
0.771393 0.052155 0.003540
0.786774 0.061951 0.005463
0.801208 0.072937 0.007355
0.814789 0.084595 0.009186
0.827026 0.096802 0.010956
0.839661 0.108612 0.012451
0.853485 0.109863 0.011169
0.867645 0.106140 0.008911
0.881714 0.101227 0.006775
0.895599 0.094208 0.004761
0.911224 0.076752 0.002380
0.923737 0.074127 0.002106
0.935577 0.071686 0.002045
0.946106 0.069916 0.002777
0.953125 0.079712 0.003510
0.954712 0.094208 0.004883
0.956268 0.106476 0.006256
0.957642 0.117523 0.007660
0.959198 0.124084 0.008667
0.961121 0.126862 0.008820
0.000916 0.000549 0.000000
0.001434 0.000549 0.000031
0.002869 0.000580 0.000031
0.004547 0.000580 0.000061
0.007660 0.000549 0.000061
0.019104 0.000244 0.000122
0.033356 0.000031 0.000031
0.051147 0.000000 0.000000
0.070343 0.002014 0.000000
0.087494 0.003754 0.000000
0.107666 0.005341 0.000702
0.137573 0.006439 0.001831
0.167419 0.006195 0.002747
0.195892 0.005768 0.003357
0.223083 0.005066 0.003815
0.248901 0.004578 0.004150
0.274231 0.005554 0.003845
0.298645 0.006744 0.003601
0.321899 0.007965 0.003387
0.344391 0.008606 0.003235
0.365570 0.008789 0.003174
0.385986 0.009094 0.002686
0.405426 0.009491 0.001373
0.424194 0.008820 0.000000
0.441925 0.006256 0.000000
0.459869 0.006226 0.000092
0.478027 0.008942 0.002106
0.496338 0.011688 0.003815
0.514587 0.013397 0.005249
0.532837 0.014954 0.006500
0.552094 0.020599 0.008148
0.570374 0.030701 0.009918
0.585907 0.039307 0.010651
0.601257 0.046844 0.010406
0.616577 0.053345 0.009460
0.632324 0.053925 0.008698
0.647980 0.049347 0.007019
0.663635 0.042328 0.005341
0.679169 0.038574 0.003479
0.694305 0.033478 0.001526
0.708679 0.030945 0.000519
0.723114 0.038391 0.001312
0.738434 0.043823 0.001770
0.754425 0.047638 0.001923
0.770660 0.057220 0.003723
0.786072 0.067139 0.005676
0.800598 0.076630 0.007629
0.814301 0.087646 0.009430
0.826935 0.098846 0.011169
0.839600 0.110748 0.012665
0.853577 0.111023 0.011078
0.867798 0.107574 0.008820
0.881836 0.102905 0.006653
0.895935 0.095215 0.004547
0.911591 0.077911 0.002197
0.923737 0.077728 0.002106
0.935455 0.075470 0.002136
0.946014 0.073029 0.002838
0.952606 0.082367 0.003632
0.954315 0.096802 0.005005
0.955872 0.109009 0.006439
0.957367 0.119995 0.007874
0.959015 0.125916 0.008789
0.961121 0.128326 0.008789
0.003174 0.002228 0.000061
0.003662 0.002350 0.000061
0.004211 0.002472 0.000061
0.005005 0.002594 0.000061
0.008698 0.002869 0.000061
0.015076 0.003235 0.000031
0.031158 0.004730 0.000000
0.049591 0.004974 0.000000
0.067322 0.004425 0.000000
0.083527 0.008179 0.000000
0.101685 0.009705 0.000854
0.132355 0.009796 0.001801
0.162079 0.010071 0.002472
0.190857 0.009888 0.003113
0.218872 0.009033 0.003662
0.246155 0.007965 0.003693
0.272583 0.008026 0.003479
0.297333 0.009705 0.003296
0.321289 0.010986 0.003235
0.343994 0.011932 0.003082
0.365509 0.012329 0.003052
0.385620 0.012238 0.002228
0.405121 0.012146 0.000793
0.423706 0.011230 0.000000
0.441650 0.009399 0.000000
0.459625 0.010681 0.000702
0.477570 0.011383 0.002625
0.495880 0.014374 0.004242
0.514160 0.016327 0.005585
0.532379 0.016876 0.006622
0.552185 0.024048 0.008514
0.570251 0.035767 0.010223
0.585785 0.044708 0.010895
0.601196 0.052582 0.010498
0.616699 0.058777 0.009491
0.632416 0.058838 0.008423
0.648071 0.054810 0.006744
0.663666 0.047607 0.005005
0.679077 0.041412 0.003265
0.693573 0.035980 0.001343
0.707794 0.035065 0.000488
0.722137 0.042267 0.001251
0.737335 0.047913 0.001678
0.753296 0.051514 0.001892
0.769653 0.063232 0.003967
0.785217 0.073120 0.005951
0.799835 0.082611 0.007904
0.813721 0.091064 0.009766
0.826843 0.101471 0.011444
0.839539 0.113434 0.012909
0.853760 0.112640 0.010956
0.867981 0.109222 0.008698
0.881958 0.104889 0.006531
0.896454 0.096375 0.004272
0.911774 0.080200 0.002075
0.923706 0.081879 0.002106
0.935272 0.080139 0.002228
0.945862 0.076355 0.002930
0.951965 0.085327 0.003784
0.953766 0.099701 0.005188
0.955414 0.112152 0.006653
0.956970 0.123047 0.008087
0.958771 0.128326 0.008911
0.961060 0.130188 0.008698
0.009369 0.007446 0.000244
0.010895 0.008209 0.000244
0.012634 0.009033 0.000244
0.014648 0.009949 0.000214
0.017456 0.011230 0.000153
0.021545 0.012970 0.000000
0.029419 0.014038 0.000000
0.045593 0.015289 0.000000
0.062622 0.016235 0.000183
0.078186 0.016876 0.000549
0.094513 0.018066 0.001129
0.126556 0.017029 0.001617
0.157257 0.015533 0.002563
0.187195 0.015533 0.002991
0.216309 0.015503 0.003021
0.244232 0.014954 0.003052
0.270996 0.014130 0.003174
0.297150 0.014374 0.003174
0.321686 0.015076 0.002960
0.344391 0.016266 0.003021
0.365723 0.017029 0.002533
0.385895 0.017273 0.001465
0.405243 0.016663 0.000000
0.423248 0.014862 0.000000
0.441528 0.015015 0.000000
0.459412 0.016479 0.001373
0.477203 0.016235 0.003204
0.495453 0.018036 0.004761
0.513641 0.020294 0.006012
0.532410 0.022858 0.007202
0.552277 0.031555 0.009003
0.570251 0.042114 0.010681
0.585754 0.051514 0.011108
0.601166 0.059601 0.010498
0.616760 0.065216 0.009521
0.632507 0.064789 0.008057
0.648132 0.061371 0.006348
0.663727 0.055115 0.004608
0.679199 0.045685 0.002899
0.692505 0.039154 0.001038
0.706482 0.039764 0.000488
0.720856 0.046844 0.001190
0.735992 0.052368 0.001587
0.752106 0.058746 0.002136
0.768616 0.070160 0.004272
0.784241 0.080261 0.006287
0.799011 0.089294 0.008301
0.813080 0.096558 0.010254
0.826477 0.105713 0.011841
0.839447 0.116852 0.013245
0.853912 0.114502 0.010834
0.868103 0.111328 0.008514
0.882202 0.107269 0.006348
0.896881 0.098022 0.003998
0.911804 0.085144 0.002106
0.923645 0.087097 0.002106
0.935150 0.085510 0.002350
0.945709 0.080505 0.002991
0.950745 0.090942 0.004059
0.953125 0.103546 0.005432
0.954895 0.115997 0.006897
0.956604 0.126251 0.008331
0.958405 0.132233 0.009125
0.961121 0.132629 0.008575
0.022095 0.020264 0.000153
0.023987 0.021759 0.000031
0.025208 0.022461 0.000031
0.026733 0.023285 0.000153
0.028931 0.024536 0.000366
0.032043 0.026031 0.000671
0.036072 0.027679 0.000977
0.041595 0.029480 0.001221
0.057526 0.031342 0.001373
0.073883 0.031616 0.001465
0.090942 0.030060 0.001648
0.122040 0.029785 0.001953
0.154816 0.027588 0.002167
0.186401 0.026855 0.002258
0.216095 0.026886 0.002472
0.244019 0.027496 0.002594
0.271118 0.026764 0.002777
0.297241 0.024475 0.002869
0.321991 0.023438 0.003021
0.345490 0.022339 0.002655
0.366638 0.023560 0.001740
0.386932 0.024017 0.000336
0.405609 0.022797 0.000000
0.423706 0.020874 0.000000
0.441437 0.022644 0.000244
0.459229 0.024200 0.002228
0.477051 0.024597 0.003906
0.494873 0.023254 0.005371
0.513092 0.026093 0.006439
0.532990 0.034912 0.008118
0.552582 0.043823 0.009888
0.570190 0.050354 0.011169
0.585663 0.059174 0.011322
0.601105 0.067596 0.010529
0.616974 0.072418 0.009399
0.632629 0.071716 0.007660
0.648193 0.069122 0.005859
0.663696 0.063751 0.004059
0.678406 0.054352 0.002350
0.691742 0.044312 0.000580
0.704956 0.045074 0.000397
0.719208 0.052094 0.001068
0.734283 0.057526 0.001465
0.750854 0.066925 0.002563
0.767548 0.077972 0.004639
0.783325 0.088074 0.006744
0.798187 0.096832 0.008789
0.812317 0.104065 0.010742
0.826019 0.111572 0.012390
0.839630 0.118866 0.013031
0.854187 0.116821 0.010620
0.868408 0.113861 0.008301
0.882477 0.110077 0.006134
0.897430 0.099915 0.003632
0.911774 0.090851 0.002136
0.923553 0.093140 0.002136
0.934906 0.091949 0.002472
0.945526 0.086365 0.003082
0.949463 0.097290 0.004364
0.952454 0.107849 0.005707
0.954346 0.120605 0.007233
0.956055 0.131165 0.008606
0.957977 0.136963 0.009369
0.960999 0.136108 0.008484
0.034058 0.032623 0.001465
0.035736 0.034149 0.001678
0.037476 0.035736 0.001892
0.039215 0.037354 0.002045
0.040680 0.038574 0.002075
0.042206 0.039520 0.002045
0.046265 0.040955 0.001953
0.051910 0.042847 0.001892
0.058807 0.044830 0.001831
0.075592 0.047577 0.001740
0.093750 0.048309 0.001587
0.126648 0.047302 0.001312
0.158203 0.045898 0.001312
0.187622 0.043304 0.001648
0.217377 0.042877 0.001892
0.245758 0.042236 0.002258
0.272095 0.042419 0.002625
0.297607 0.041534 0.002869
0.322052 0.039398 0.002686
0.345367 0.037720 0.001892
0.367798 0.036591 0.000580
0.388275 0.035004 0.000000
0.406860 0.034180 0.000000
0.424744 0.036682 0.000122
0.441772 0.037384 0.001648
0.458984 0.038208 0.003143
0.476685 0.039612 0.004639
0.494507 0.038788 0.005890
0.513550 0.039642 0.007294
0.533569 0.049164 0.009033
0.552887 0.056946 0.010803
0.570343 0.063843 0.011719
0.585693 0.069000 0.011505
0.601288 0.076355 0.010498
0.617096 0.080261 0.008881
0.632721 0.080200 0.007080
0.648224 0.078156 0.005249
0.663696 0.073700 0.003448
0.677460 0.064819 0.001709
0.690857 0.052002 0.000183
0.703461 0.053650 0.000549
0.717133 0.057922 0.000916
0.732086 0.063263 0.001282
0.749664 0.075867 0.003082
0.766541 0.086639 0.005096
0.782318 0.096954 0.007263
0.797333 0.105591 0.009399
0.811584 0.112671 0.011353
0.825409 0.120514 0.013000
0.839630 0.122559 0.012756
0.854431 0.119537 0.010376
0.868744 0.116882 0.008026
0.882935 0.112762 0.005737
0.897980 0.102692 0.003204
0.911682 0.097565 0.002167
0.923370 0.100220 0.002136
0.934540 0.099426 0.002625
0.943817 0.098022 0.003387
0.947815 0.107635 0.004761
0.951141 0.116730 0.006165
0.953461 0.127686 0.007629
0.955414 0.136627 0.008881
0.957794 0.141174 0.009277
0.960968 0.140259 0.008331
0.047821 0.046997 0.003082
0.049652 0.048798 0.003021
0.051575 0.050659 0.002930
0.053528 0.052551 0.002838
0.055756 0.054749 0.002838
0.058563 0.057373 0.002777
0.060699 0.058624 0.002441
0.063995 0.060272 0.002075
0.072571 0.062866 0.001617
0.083038 0.065735 0.001007
0.103607 0.067657 0.000793
0.133026 0.066803 0.000824
0.161682 0.065186 0.000854
0.190369 0.063568 0.001038
0.218903 0.061310 0.001587
0.246613 0.060181 0.002167
0.273132 0.059265 0.002686
0.298004 0.059143 0.002441
0.322174 0.058441 0.001831
0.345520 0.056610 0.000763
0.367859 0.053986 0.000000
0.388580 0.052673 0.000000
0.407959 0.051941 0.000397
0.425262 0.053680 0.001892
0.442657 0.054779 0.003204
0.459686 0.055511 0.004364
0.476318 0.055939 0.005341
0.494568 0.057404 0.006500
0.514648 0.061676 0.008301
0.534149 0.065338 0.010162
0.553314 0.071442 0.011597
0.570679 0.078308 0.012085
0.586029 0.083313 0.011505
0.601563 0.087372 0.010437
0.617249 0.089508 0.008209
0.632813 0.089935 0.006378
0.648285 0.088715 0.004486
0.663055 0.084534 0.002655
0.676361 0.076233 0.000885
0.689392 0.069366 0.000519
0.702148 0.065338 0.000916
0.714905 0.066193 0.000916
0.730621 0.073273 0.001862
0.748413 0.085815 0.003815
0.765472 0.096161 0.005737
0.781433 0.106628 0.007965
0.796570 0.114899 0.010162
0.810822 0.122620 0.012115
0.824677 0.130310 0.013672
0.839478 0.129456 0.012451
0.854614 0.123596 0.010010
0.869049 0.120636 0.007660
0.883636 0.115356 0.005188
0.898621 0.105774 0.002777
0.911469 0.105225 0.002228
0.923157 0.108063 0.002136
0.934174 0.107544 0.002777
0.941742 0.110718 0.003815
0.945984 0.119476 0.005280
0.949493 0.127777 0.006714
0.952545 0.135925 0.008209
0.954834 0.143005 0.009216
0.957764 0.145874 0.009094
0.961060 0.145172 0.008118
0.065552 0.065643 0.003357
0.067383 0.067505 0.003296
0.069305 0.069458 0.003204
0.071381 0.071503 0.003082
0.074005 0.074097 0.002899
0.077515 0.077484 0.002563
0.081024 0.080963 0.002350
0.081909 0.080627 0.002045
0.082764 0.080200 0.001678
0.091034 0.080933 0.001404
0.107361 0.081543 0.001068
0.135437 0.083344 0.000763
0.163971 0.083069 0.000885
0.191681 0.082367 0.000946
0.219574 0.081390 0.001129
0.247467 0.080048 0.001373
0.273865 0.078888 0.001465
0.298889 0.078461 0.001312
0.323334 0.077850 0.000641
0.346008 0.077271 0.000122
0.366974 0.075378 0.000946
0.387238 0.073029 0.001709
0.406677 0.072754 0.002747
0.425812 0.071350 0.003693
0.443604 0.071686 0.004730
0.460754 0.072876 0.005585
0.477631 0.074158 0.006317
0.495850 0.077637 0.007690
0.515167 0.081787 0.009460
0.534576 0.086121 0.011017
0.553833 0.090576 0.012054
0.571136 0.093903 0.012207
0.586823 0.098694 0.011169
0.602448 0.100586 0.009003
0.617523 0.100433 0.007385
0.632904 0.101135 0.005524
0.648315 0.100616 0.003571
0.661804 0.095978 0.001740
0.674957 0.089691 0.000305
0.687683 0.086731 0.000946
0.700562 0.081787 0.001251
0.713501 0.078522 0.001221
0.729858 0.085571 0.002777
0.747406 0.096130 0.004608
0.764618 0.106842 0.006653
0.780670 0.116943 0.008789
0.795868 0.125122 0.011078
0.810028 0.133423 0.013000
0.823975 0.140839 0.014465
0.839264 0.137482 0.011993
0.854462 0.132507 0.009583
0.869385 0.125946 0.007263
0.884247 0.118835 0.004578
0.899200 0.109650 0.002289
0.911194 0.113800 0.002258
0.922821 0.116974 0.002136
0.933624 0.116577 0.002960
0.939636 0.123779 0.004333
0.944122 0.131805 0.005859
0.947968 0.139252 0.007385
0.951141 0.146149 0.008972
0.954285 0.149994 0.009552
0.957886 0.151184 0.008881
0.961212 0.150635 0.007874
0.085693 0.091217 0.002960
0.087067 0.093994 0.002991
0.088440 0.096619 0.002960
0.089752 0.099304 0.002960
0.091370 0.102539 0.002899
0.094757 0.106384 0.002869
0.099518 0.110779 0.002686
0.105133 0.115692 0.002380
0.105469 0.113739 0.001892
0.105194 0.110321 0.001556
0.122467 0.106140 0.001312
0.139160 0.101166 0.001038
0.164368 0.098602 0.001190
0.192871 0.099884 0.001129
0.220490 0.100433 0.001038
0.247314 0.100372 0.000946
0.273926 0.099457 0.001160
0.299103 0.098175 0.001373
0.322235 0.097443 0.002472
0.344452 0.096069 0.003540
0.365631 0.095337 0.004028
0.386169 0.094299 0.004364
0.406311 0.092377 0.004883
0.425690 0.091675 0.005554
0.444458 0.090546 0.006073
0.462463 0.090393 0.006622
0.480103 0.093933 0.007965
0.498016 0.097809 0.009308
0.516052 0.101593 0.010498
0.535156 0.106171 0.011566
0.554260 0.111115 0.012238
0.571777 0.115295 0.011902
0.587830 0.115875 0.009705
0.603455 0.114685 0.007782
0.618530 0.115021 0.006104
0.633148 0.114471 0.004333
0.647064 0.112640 0.002502
0.660309 0.108551 0.000610
0.673004 0.106689 0.000824
0.685791 0.104370 0.001343
0.698730 0.100189 0.001556
0.713684 0.097656 0.002502
0.730469 0.101990 0.004211
0.746918 0.108246 0.005646
0.763824 0.118317 0.007751
0.780029 0.128143 0.009949
0.795074 0.136627 0.012115
0.809296 0.144806 0.013977
0.823792 0.149139 0.014008
0.839111 0.146515 0.011505
0.854279 0.142365 0.009064
0.869446 0.134735 0.006500
0.884888 0.122925 0.003937
0.899231 0.116943 0.002075
0.910797 0.123352 0.002319
0.922211 0.126770 0.002380
0.931885 0.129089 0.003357
0.937531 0.137085 0.004974
0.942291 0.144440 0.006592
0.946320 0.151337 0.008301
0.950104 0.155670 0.009460
0.953827 0.157990 0.009735
0.958069 0.157074 0.008636
0.961487 0.156738 0.007629
0.114166 0.125092 0.002991
0.116364 0.127380 0.002991
0.118530 0.129730 0.002930
0.120483 0.131989 0.002838
0.122894 0.134888 0.002808
0.125549 0.138214 0.002777
0.128510 0.141571 0.002655
0.132935 0.144775 0.002899
0.137726 0.148010 0.003265
0.137177 0.144501 0.003296
0.137421 0.139587 0.003235
0.153076 0.134369 0.003265
0.168274 0.129272 0.003235
0.189758 0.126007 0.003113
0.218903 0.124115 0.003296
0.246094 0.121490 0.003510
0.272034 0.118530 0.003784
0.297211 0.117737 0.004272
0.321228 0.116150 0.004730
0.343658 0.115936 0.005341
0.365265 0.115143 0.005737
0.386230 0.114136 0.006195
0.406525 0.113342 0.006439
0.426361 0.112030 0.006714
0.445374 0.111694 0.007385
0.463684 0.112701 0.008514
0.481812 0.114014 0.009583
0.499695 0.117889 0.010590
0.517670 0.122131 0.011383
0.535919 0.126312 0.011871
0.555206 0.132629 0.012085
0.572784 0.135925 0.010101
0.588867 0.136108 0.007813
0.604431 0.134827 0.006256
0.619629 0.132294 0.004547
0.633728 0.129700 0.002808
0.645996 0.126434 0.001129
0.658264 0.124603 0.000793
0.670929 0.124084 0.001465
0.683716 0.122192 0.001801
0.697205 0.119446 0.002167
0.714111 0.120026 0.004059
0.730957 0.120422 0.005737
0.747437 0.124573 0.007202
0.763550 0.131378 0.009186
0.779694 0.139923 0.011383
0.794281 0.149048 0.013275
0.808533 0.157043 0.015045
0.823700 0.158356 0.013428
0.838989 0.156616 0.010895
0.854126 0.153473 0.008484
0.869720 0.143951 0.005646
0.885529 0.129883 0.003174
0.898773 0.127472 0.002197
0.910278 0.133942 0.002380
0.921448 0.137177 0.002686
0.929504 0.143433 0.003998
0.935425 0.150635 0.005768
0.940521 0.157349 0.007477
0.944702 0.163452 0.009430
0.949188 0.165802 0.009949
0.953827 0.166199 0.009552
0.958435 0.164368 0.008331
0.962006 0.163452 0.007385
0.149170 0.159790 0.002777
0.150391 0.161224 0.003021
0.151398 0.162415 0.003265
0.152466 0.163635 0.003510
0.153442 0.164948 0.003784
0.154755 0.166595 0.004120
0.156464 0.168518 0.004486
0.159271 0.170807 0.004730
0.163788 0.173584 0.004791
0.169037 0.176666 0.004791
0.170532 0.174408 0.004669
0.170898 0.169434 0.004700
0.185211 0.164093 0.004944
0.198883 0.158661 0.005219
0.215332 0.153992 0.005524
0.244904 0.152466 0.005737
0.271088 0.149597 0.005890
0.296112 0.146271 0.005981
0.320282 0.142517 0.006073
0.343323 0.138092 0.006165
0.365295 0.135437 0.006622
0.386505 0.134613 0.007080
0.407104 0.133728 0.007416
0.426514 0.133759 0.008209
0.445648 0.133911 0.009125
0.464203 0.135071 0.010010
0.482300 0.137329 0.010773
0.500458 0.139801 0.011414
0.518677 0.143188 0.011780
0.537476 0.148926 0.011719
0.556946 0.154724 0.010132
0.574219 0.157562 0.007568
0.590057 0.157837 0.006073
0.605591 0.156982 0.004425
0.620392 0.154846 0.002686
0.633698 0.150238 0.001038
0.645691 0.145813 0.001709
0.656738 0.143982 0.001923
0.668457 0.142120 0.002075
0.681305 0.140564 0.002258
0.697815 0.140991 0.003967
0.714722 0.141632 0.005768
0.731506 0.141846 0.007416
0.747833 0.143677 0.009094
0.763916 0.148315 0.011200
0.778961 0.154053 0.013000
0.793579 0.162109 0.014618
0.808136 0.168549 0.015350
0.823639 0.168915 0.012726
0.838898 0.167969 0.010193
0.854187 0.163971 0.007477
0.869843 0.154449 0.004730
0.885681 0.141815 0.002441
0.898285 0.141449 0.002502
0.909546 0.145538 0.002441
0.920074 0.149658 0.003082
0.927399 0.157684 0.004852
0.933563 0.164276 0.006714
0.938812 0.170135 0.008789
0.943756 0.174194 0.010071
0.948608 0.176239 0.010437
0.954041 0.175201 0.009277
0.958801 0.173431 0.007996
0.962769 0.170959 0.007111
0.178009 0.187622 0.004272
0.178802 0.188629 0.004425
0.179749 0.189636 0.004547
0.180695 0.190674 0.004669
0.181885 0.191986 0.004822
0.183350 0.193512 0.005005
0.185211 0.195465 0.005157
0.187622 0.197815 0.005280
0.191010 0.200409 0.005402
0.195526 0.203003 0.005646
0.200592 0.206055 0.006012
0.202515 0.204376 0.006165
0.202728 0.199402 0.006134
0.216003 0.194031 0.006439
0.228790 0.188416 0.006683
0.240784 0.182068 0.006836
0.269257 0.179901 0.006805
0.294678 0.176849 0.006653
0.319000 0.172943 0.006775
0.342468 0.168549 0.006958
0.365265 0.163910 0.007080
0.386505 0.160400 0.007690
0.406525 0.158142 0.008575
0.426025 0.156281 0.009460
0.445038 0.156830 0.010193
0.463806 0.157928 0.010803
0.482239 0.159698 0.011353
0.500427 0.163086 0.011597
0.519623 0.167084 0.010834
0.539063 0.171844 0.009399
0.558502 0.178192 0.007294
0.575378 0.180450 0.005676
0.591614 0.180817 0.004059
0.606812 0.180389 0.002350
0.620483 0.178802 0.002258
0.633179 0.176300 0.003082
0.645294 0.172546 0.003510
0.656799 0.167328 0.003479
0.667511 0.162689 0.003113
0.681549 0.160828 0.004120
0.698456 0.161652 0.005951
0.715302 0.162262 0.007721
0.731720 0.163818 0.009491
0.748016 0.165405 0.011353
0.763794 0.166931 0.013458
0.778503 0.171082 0.015015
0.792938 0.176605 0.016174
0.808228 0.179626 0.014557
