LUTs/Dive Vivid.cube
#Created by: Adobe Photoshop Export Color Lookup Plugin
#Copyright: (C) Copyright 2018 ©Sergey Zhmakin
TITLE "Dive Vivid"
#LUT size
LUT_3D_SIZE 64
#data domain
DOMAIN_MIN 0.0 0.0 0.0
DOMAIN_MAX 1.0 1.0 1.0
#LUT data points
0.000000 0.000000 0.000000
0.004761 0.000977 0.001007
0.012146 0.002411 0.002533
0.022217 0.004456 0.004639
0.036743 0.007263 0.007690
0.055969 0.010834 0.011810
0.078888 0.015106 0.017395
0.112366 0.021027 0.024719
0.136169 0.025024 0.029205
0.162598 0.030334 0.035187
0.194061 0.035522 0.044128
0.227081 0.041412 0.059326
0.252716 0.046143 0.070465
0.276978 0.050629 0.078217
0.305267 0.056580 0.089081
0.332855 0.059113 0.097717
0.359650 0.060486 0.104218
0.385925 0.061371 0.109100
0.411224 0.062531 0.114075
0.437592 0.063873 0.121399
0.465057 0.065735 0.130066
0.492737 0.070679 0.141907
0.519196 0.076355 0.153473
0.545258 0.080658 0.159882
0.571106 0.083618 0.164948
0.596497 0.084808 0.169250
0.621429 0.085999 0.171631
0.645996 0.086273 0.174835
0.669861 0.084259 0.176361
0.693817 0.079987 0.176361
0.717133 0.075195 0.177094
0.738007 0.069611 0.177429
0.756226 0.068237 0.179321
0.773773 0.070984 0.182953
0.791351 0.073059 0.186401
0.807983 0.078033 0.189514
0.825592 0.081665 0.193634
0.842743 0.084290 0.197693
0.859528 0.085846 0.200195
0.876068 0.086609 0.202515
0.892883 0.086304 0.202789
0.909363 0.085052 0.204193
0.926178 0.078827 0.202942
0.942017 0.070770 0.202515
0.956696 0.061432 0.203857
0.969269 0.053864 0.209106
0.979095 0.049530 0.214722
0.982544 0.057312 0.220032
0.985901 0.062836 0.224518
0.989136 0.066895 0.229034
0.992188 0.069946 0.233215
0.995117 0.072601 0.237610
0.996796 0.072937 0.240295
0.996796 0.073242 0.242279
0.996796 0.073181 0.241364
0.996796 0.072968 0.239838
0.996796 0.072784 0.238678
0.996796 0.072937 0.240540
0.996796 0.073242 0.242371
0.996826 0.073822 0.247284
0.996826 0.074432 0.251434
0.996826 0.074829 0.255798
0.996826 0.075226 0.259491
0.996826 0.075470 0.261871
0.000092 0.000061 0.000031
0.000061 0.000031 0.000031
0.004578 0.000916 0.000916
0.013824 0.002808 0.002838
0.028076 0.005585 0.005707
0.046234 0.009003 0.009766
0.068542 0.013184 0.014771
0.099213 0.018707 0.021210
0.131165 0.024109 0.027100
0.159332 0.029724 0.033081
0.192108 0.035217 0.042847
0.223816 0.040619 0.055969
0.249634 0.045380 0.066528
0.274078 0.049744 0.075836
0.300903 0.055878 0.086365
0.328491 0.058624 0.094940
0.355652 0.060181 0.101440
0.382324 0.060883 0.106140
0.409180 0.062408 0.113525
0.436798 0.063782 0.121155
0.464111 0.065704 0.129761
0.491760 0.070526 0.141449
0.517883 0.076141 0.152740
0.543976 0.080444 0.159210
0.569885 0.083527 0.163849
0.595337 0.084534 0.167786
0.620453 0.085815 0.170135
0.645905 0.086212 0.173950
0.670197 0.083984 0.175415
0.694092 0.079956 0.175964
0.717407 0.074982 0.176575
0.737091 0.069916 0.176910
0.755524 0.068085 0.178680
0.772888 0.070892 0.182190
0.790619 0.072784 0.185730
0.807281 0.077850 0.188812
0.824921 0.081482 0.192749
0.842377 0.084229 0.197113
0.859222 0.085846 0.199524
0.875702 0.086578 0.201721
0.892578 0.086182 0.201172
0.909119 0.084991 0.203033
0.925842 0.078796 0.201752
0.941742 0.070679 0.201172
0.956146 0.061554 0.202850
0.968811 0.053802 0.208374
0.979004 0.048553 0.213867
0.982483 0.057159 0.219727
0.985870 0.062683 0.224304
0.989075 0.066711 0.228607
0.992096 0.069855 0.232819
0.994995 0.072449 0.237061
0.996796 0.072968 0.239807
0.996796 0.073212 0.241730
0.996796 0.072876 0.240173
0.996796 0.072815 0.238647
0.996796 0.072571 0.237183
0.996796 0.072937 0.239502
0.996796 0.073181 0.241852
0.996796 0.073822 0.246735
0.996826 0.074371 0.250916
0.996826 0.074738 0.255005
0.996826 0.075165 0.258698
0.996826 0.075317 0.260803
0.000671 0.000641 0.000275
0.000641 0.000549 0.000244
0.000610 0.000427 0.000214
0.003479 0.000671 0.000671
0.017700 0.003571 0.003510
0.037384 0.007385 0.007629
0.059448 0.011414 0.011475
0.087616 0.016479 0.016632
0.126892 0.023285 0.024628
0.157959 0.029846 0.031464
0.188843 0.034943 0.040527
0.218414 0.039276 0.050842
0.246399 0.044647 0.063293
0.271027 0.048889 0.073456
0.296875 0.055115 0.083740
0.324585 0.058167 0.092194
0.351959 0.059845 0.098602
0.379272 0.060730 0.105316
0.407013 0.062286 0.112885
0.435608 0.063721 0.120850
0.463409 0.065643 0.129547
0.490692 0.070282 0.140930
0.516541 0.075867 0.151947
0.542755 0.080261 0.158447
0.568665 0.083282 0.162689
0.594208 0.084259 0.166168
0.619537 0.085571 0.168701
0.644958 0.085968 0.172180
0.670441 0.083862 0.174561
0.694366 0.079834 0.175507
0.717163 0.075165 0.176056
0.736267 0.070129 0.176392
0.754730 0.067841 0.178009
0.772003 0.070618 0.181366
0.789581 0.072632 0.184875
0.806580 0.077545 0.188110
0.824127 0.081268 0.191895
0.841919 0.084106 0.196320
0.858856 0.085724 0.198822
0.875458 0.086395 0.200317
0.892334 0.085968 0.200256
0.908783 0.084961 0.201874
0.925568 0.078827 0.200531
0.941376 0.070679 0.199677
0.955658 0.061615 0.201965
0.968384 0.053741 0.207581
0.978912 0.047821 0.212830
0.982422 0.057007 0.219543
0.985779 0.062500 0.223969
0.988983 0.066620 0.228210
0.992035 0.069733 0.232361
0.994904 0.072327 0.236542
0.996796 0.072906 0.239288
0.996796 0.073090 0.240814
0.996796 0.072876 0.239044
0.996796 0.072540 0.237091
0.996796 0.072418 0.235626
0.996796 0.072632 0.238007
0.996796 0.073151 0.241272
0.996796 0.073730 0.246216
0.996796 0.074310 0.250397
0.996826 0.074799 0.254211
0.996826 0.075104 0.257935
0.996826 0.075134 0.259796
0.002228 0.002197 0.000946
0.002350 0.002136 0.000946
0.002838 0.002350 0.001068
0.004089 0.002991 0.001434
0.008026 0.004059 0.002289
0.029144 0.006927 0.006073
0.051758 0.009979 0.009979
0.080963 0.015320 0.015381
0.120819 0.022247 0.023346
0.155457 0.029877 0.030548
0.183685 0.034821 0.037323
0.213257 0.039093 0.047668
0.241608 0.043701 0.060547
0.266418 0.048004 0.070801
0.293396 0.054352 0.081329
0.321289 0.057831 0.090088
0.348938 0.059570 0.096771
0.377106 0.060730 0.104675
0.405548 0.062286 0.112518
0.434265 0.063660 0.120483
0.462128 0.065521 0.129120
0.489655 0.070129 0.140411
0.515350 0.075623 0.151154
0.541443 0.079987 0.157532
0.567413 0.083221 0.161377
0.592987 0.083984 0.164429
0.618500 0.085327 0.167114
0.644104 0.085754 0.170624
0.669678 0.083893 0.173828
0.694763 0.079742 0.175110
0.716339 0.075256 0.175568
0.735474 0.070374 0.175934
0.753906 0.067627 0.177307
0.771210 0.070496 0.180603
0.788574 0.072510 0.184174
0.805847 0.077332 0.187378
0.823486 0.081024 0.190948
0.841187 0.083832 0.195343
0.858398 0.085571 0.197937
0.875183 0.086243 0.198639
0.892059 0.085968 0.199188
0.908478 0.084839 0.200562
0.925323 0.078705 0.199158
0.941162 0.070496 0.198059
0.955139 0.061829 0.201111
0.967865 0.053680 0.206726
0.978668 0.047272 0.211914
0.982330 0.056549 0.218842
0.985718 0.062317 0.223663
0.988861 0.066376 0.227722
0.991943 0.069611 0.231903
0.994843 0.072174 0.236053
0.996796 0.072845 0.238800
0.996796 0.072937 0.239624
0.996796 0.072571 0.237640
0.996796 0.072418 0.235687
0.996796 0.072113 0.233978
0.996796 0.072540 0.236389
0.996796 0.073090 0.240814
0.996796 0.073792 0.245667
0.996796 0.074219 0.249847
0.996826 0.074646 0.253418
0.996826 0.074860 0.257141
0.996826 0.075165 0.258606
0.008942 0.008606 0.003693
0.010437 0.009521 0.004150
0.011932 0.010345 0.004608
0.013580 0.011017 0.005035
0.015808 0.011749 0.005554
0.020721 0.012695 0.006500
0.046265 0.013672 0.010315
0.073975 0.014893 0.014313
0.113495 0.023560 0.022125
0.148590 0.030396 0.029327
0.179474 0.038177 0.036285
0.206238 0.041473 0.045929
0.234100 0.045197 0.058563
0.259979 0.048798 0.068848
0.288025 0.054321 0.078888
0.318451 0.057709 0.089172
0.346405 0.059479 0.096313
0.374725 0.060669 0.103973
0.404022 0.062195 0.112061
0.432495 0.063599 0.119965
0.460205 0.065399 0.128510
0.487549 0.069733 0.139282
0.513855 0.075348 0.150116
0.540039 0.079803 0.156464
0.566071 0.082947 0.159760
0.591858 0.083679 0.162476
0.617371 0.085083 0.165619
0.642914 0.085724 0.169556
0.668549 0.084015 0.172729
0.694489 0.079773 0.174194
0.715271 0.075500 0.174927
0.734314 0.070648 0.175232
0.752808 0.067474 0.176361
0.770111 0.070160 0.179596
0.787598 0.072327 0.183289
0.804932 0.076935 0.186401
0.822388 0.080780 0.189758
0.840240 0.083649 0.194061
0.857758 0.085541 0.196686
0.874878 0.086090 0.196472
0.891693 0.085815 0.197784
0.908051 0.084686 0.198883
0.924866 0.078705 0.197388
0.940796 0.070282 0.196106
0.954468 0.061981 0.200104
0.967346 0.053741 0.205902
0.978394 0.047028 0.211090
0.982178 0.055908 0.217957
0.985626 0.062042 0.223206
0.988800 0.066254 0.227295
0.991821 0.069427 0.231323
0.994720 0.071991 0.235352
0.996796 0.072662 0.238068
0.996796 0.072723 0.238220
0.996796 0.072510 0.235931
0.996796 0.072266 0.233765
0.996796 0.071930 0.231964
0.996796 0.072235 0.234344
0.996796 0.072845 0.240082
0.996796 0.073639 0.244995
0.996826 0.074066 0.249207
0.996826 0.074524 0.252563
0.996826 0.074982 0.256134
0.996826 0.074921 0.257324
0.020905 0.021088 0.008881
0.022369 0.021973 0.009338
0.023926 0.022675 0.009735
0.025452 0.023285 0.010132
0.029907 0.025391 0.011353
0.036041 0.028076 0.012939
0.045044 0.030396 0.014832
0.073792 0.031250 0.018951
0.104034 0.029083 0.022217
0.141022 0.041962 0.031342
0.171265 0.047394 0.038025
0.197144 0.046326 0.044403
0.223755 0.049164 0.054718
0.251129 0.052307 0.064148
0.280487 0.056702 0.074188
0.311615 0.060608 0.084320
0.342896 0.062042 0.093414
0.372528 0.062927 0.102631
0.401703 0.062469 0.111328
0.430115 0.063812 0.119202
0.457336 0.065216 0.127655
0.484436 0.069214 0.137695
0.511505 0.074982 0.148438
0.538208 0.079529 0.154968
0.564301 0.082703 0.157654
0.590485 0.083496 0.161255
0.615875 0.084961 0.164612
0.641541 0.085571 0.168213
0.667114 0.084076 0.171326
0.692017 0.080170 0.172699
0.713531 0.075836 0.173950
0.732880 0.071075 0.174377
0.751556 0.067139 0.175262
0.768646 0.070007 0.178314
0.786407 0.072113 0.182190
0.803772 0.076569 0.185181
0.821381 0.080566 0.188446
0.839081 0.083374 0.192383
0.856567 0.085297 0.194916
0.874481 0.085999 0.195129
0.891266 0.085663 0.196014
0.907562 0.084473 0.196777
0.924377 0.078583 0.195068
0.940002 0.070435 0.194641
0.953796 0.062286 0.198914
0.966614 0.053711 0.204834
0.978058 0.046936 0.210052
0.981995 0.055176 0.216888
0.985443 0.061737 0.222321
0.988708 0.065948 0.226685
0.991669 0.069183 0.230560
0.994598 0.071808 0.234528
0.996796 0.072571 0.237183
0.996796 0.072540 0.236389
0.996796 0.072266 0.233856
0.996796 0.071838 0.231354
0.996765 0.071594 0.229370
0.996796 0.071869 0.231842
0.996796 0.072815 0.238647
0.996796 0.073486 0.244293
0.996826 0.074097 0.248352
0.996826 0.074371 0.251709
0.996826 0.074768 0.254944
0.996826 0.074799 0.255585
0.042480 0.042236 0.017731
0.044525 0.044281 0.018585
0.046326 0.046021 0.019318
0.047913 0.047485 0.019928
0.049530 0.048981 0.020538
0.052185 0.050476 0.021332
0.058136 0.051666 0.022491
0.069366 0.054443 0.024780
0.102386 0.057220 0.029907
0.130707 0.058777 0.034760
0.161377 0.061737 0.041412
0.190918 0.061523 0.048065
0.218170 0.059479 0.053619
0.241821 0.059906 0.058472
0.271423 0.064331 0.067535
0.304932 0.065277 0.078522
0.338165 0.066742 0.090546
0.369690 0.067200 0.100311
0.399048 0.067017 0.108917
0.426666 0.065948 0.117401
0.453369 0.067963 0.125702
0.480743 0.073944 0.136780
0.507721 0.078918 0.146271
0.535187 0.082428 0.151886
0.562531 0.083984 0.155762
0.588745 0.083405 0.160339
0.614258 0.084747 0.163361
0.639618 0.085419 0.166595
0.665253 0.084320 0.169586
0.688385 0.080658 0.171021
0.710022 0.076630 0.172363
0.731049 0.071564 0.173370
0.750061 0.066803 0.174347
0.767242 0.069641 0.177002
0.785034 0.071960 0.180756
0.802490 0.075989 0.183777
0.819946 0.080200 0.186859
0.837646 0.082947 0.190460
0.855347 0.084961 0.191772
0.873413 0.085754 0.193146
0.890778 0.085571 0.193848
0.907074 0.084167 0.194092
0.923767 0.078491 0.192078
0.939087 0.070709 0.193085
0.952881 0.062592 0.197571
0.965851 0.053741 0.203674
0.977631 0.046875 0.208832
0.981781 0.054260 0.215698
0.985229 0.060944 0.221130
0.988525 0.065613 0.225830
0.991547 0.068848 0.229706
0.994446 0.071533 0.233521
0.996796 0.072540 0.236176
0.996796 0.072113 0.233978
0.996796 0.071808 0.231201
0.996735 0.071503 0.228363
0.996613 0.071350 0.226227
0.996735 0.071594 0.228638
0.996796 0.072662 0.236816
0.996796 0.073334 0.243347
0.996796 0.073944 0.247498
0.996826 0.074310 0.250793
0.996826 0.074646 0.253601
0.996826 0.074646 0.253540
0.067932 0.065521 0.028351
0.069885 0.067078 0.029083
0.071960 0.068787 0.030060
0.073944 0.070404 0.031067
0.075256 0.071472 0.031738
0.076599 0.072418 0.032257
0.078827 0.073456 0.032745
0.084229 0.074005 0.033813
0.093964 0.073853 0.035706
0.124786 0.076324 0.040466
0.155640 0.077423 0.045929
0.188049 0.078857 0.052246
0.217010 0.079559 0.057770
0.244751 0.079895 0.063538
0.273071 0.082794 0.070221
0.299652 0.077179 0.075104
0.333344 0.074493 0.086426
0.365845 0.074188 0.096649
0.395630 0.073792 0.105347
0.423218 0.074036 0.113159
0.449890 0.077454 0.123322
0.476654 0.080322 0.134796
0.503632 0.085602 0.143768
0.531281 0.088928 0.148621
0.558899 0.089813 0.153473
0.585907 0.089142 0.157928
0.611877 0.086731 0.162140
0.637329 0.085358 0.165527
0.661591 0.084595 0.167847
0.684326 0.081299 0.169342
0.706207 0.077301 0.170654
0.727386 0.072449 0.171631
0.748108 0.066711 0.174225
0.765656 0.069366 0.175385
0.783295 0.071533 0.179016
0.800781 0.075348 0.181946
0.818237 0.079712 0.184906
0.835968 0.082520 0.188232
0.854095 0.084656 0.190155
0.872070 0.085571 0.190826
0.889679 0.085297 0.190918
0.906372 0.083862 0.190582
0.923096 0.078217 0.188354
0.937927 0.071045 0.191376
0.951965 0.062805 0.196167
0.964935 0.053894 0.202362
0.977020 0.046875 0.207581
0.981537 0.053223 0.214355
0.984924 0.060089 0.219604
0.988251 0.064972 0.224304
0.991364 0.068665 0.228516
0.994232 0.071350 0.232239
0.996796 0.072174 0.234070
0.996796 0.071777 0.231049
0.996704 0.071411 0.227844
0.996521 0.071075 0.224579
0.996399 0.070862 0.222260
0.996613 0.071381 0.226288
0.996796 0.072296 0.234894
0.996796 0.073212 0.241669
0.996796 0.073730 0.246307
0.996796 0.074219 0.249695
0.996826 0.074341 0.251678
0.996826 0.074432 0.251495
0.096985 0.086670 0.040710
0.098877 0.087860 0.041382
0.100891 0.089050 0.042053
0.102478 0.089996 0.042633
0.104675 0.091522 0.043457
0.106995 0.093140 0.044342
0.107605 0.093536 0.044617
0.109528 0.093445 0.044769
0.115417 0.094391 0.045197
0.132538 0.096222 0.047028
0.163666 0.097290 0.052002
0.189148 0.097687 0.056519
0.220337 0.100677 0.062408
0.250366 0.104950 0.069366
0.278442 0.103638 0.075958
0.305206 0.097839 0.080872
0.331482 0.089325 0.083954
0.359924 0.084564 0.090332
0.390686 0.084259 0.099335
0.418518 0.086609 0.108582
0.445831 0.089081 0.119141
0.472504 0.091919 0.129700
0.499420 0.093903 0.140442
0.527008 0.095306 0.145935
0.554291 0.096527 0.150238
0.581329 0.096313 0.154236
0.608093 0.094543 0.158020
0.633636 0.090912 0.162506
0.656647 0.088196 0.164764
0.679474 0.084625 0.165955
0.701508 0.080139 0.167236
0.723053 0.075195 0.169739
0.744171 0.069458 0.173126
0.763092 0.071533 0.173553
0.780640 0.076141 0.176300
0.798248 0.079956 0.179352
0.816040 0.082947 0.183197
0.833984 0.085602 0.186676
0.852325 0.085907 0.188232
0.870483 0.085327 0.188232
0.888062 0.084991 0.187592
0.905243 0.083557 0.186371
0.921783 0.078491 0.186310
0.936676 0.071411 0.189606
0.950745 0.063416 0.194702
0.963898 0.053955 0.200958
0.976105 0.046936 0.206268
0.981232 0.051880 0.212555
0.984619 0.059113 0.217865
0.987915 0.064148 0.222534
0.991089 0.068085 0.226959
0.993927 0.071289 0.230682
0.996704 0.072327 0.230621
0.996674 0.071533 0.227295
0.996460 0.071106 0.223602
0.996277 0.070740 0.219849
0.996155 0.070435 0.217346
0.996460 0.071106 0.223877
0.996796 0.072021 0.232727
0.996796 0.072937 0.239746
0.996796 0.073639 0.245056
0.996826 0.074097 0.248352
0.996796 0.074219 0.249695
0.996826 0.074066 0.249298
0.135956 0.114899 0.054596
0.138092 0.116516 0.055267
0.140289 0.118134 0.056000
0.142242 0.119568 0.056732
0.144806 0.121460 0.057678
0.147858 0.123810 0.058807
0.150787 0.126068 0.059875
0.150055 0.125397 0.059479
0.151062 0.124359 0.058411
0.155396 0.123322 0.057220
0.171753 0.119934 0.056946
0.201569 0.122375 0.062744
0.229614 0.125885 0.068848
0.256927 0.128357 0.075378
0.284790 0.127319 0.081482
0.312866 0.121490 0.085663
0.338684 0.113678 0.089539
0.362518 0.106842 0.093140
0.385681 0.100189 0.096222
0.412262 0.097992 0.102722
0.440643 0.099426 0.113220
0.468079 0.101471 0.123474
0.494720 0.103455 0.132385
0.521667 0.104095 0.140106
0.549225 0.103668 0.145996
0.575928 0.103882 0.149414
0.602539 0.102814 0.152466
0.627136 0.099792 0.155243
0.650757 0.095612 0.158447
0.673950 0.090332 0.161591
0.696289 0.086945 0.163605
0.717896 0.082703 0.166779
0.737976 0.083435 0.167938
0.757080 0.085846 0.168304
0.776306 0.087616 0.172455
0.794556 0.090210 0.176453
0.812714 0.091736 0.180664
0.831696 0.090912 0.184387
0.850067 0.090942 0.185425
0.868317 0.089600 0.185974
0.886139 0.086975 0.186218
0.903564 0.083801 0.186432
0.920135 0.079102 0.185242
0.935364 0.071808 0.187958
0.949615 0.063843 0.193207
0.962738 0.054535 0.199554
0.975006 0.047180 0.204865
0.980896 0.050171 0.210602
0.984222 0.058044 0.215881
0.987213 0.065582 0.220825
0.990082 0.071503 0.225220
0.992920 0.076416 0.229095
0.996033 0.074371 0.225494
0.996216 0.072052 0.222198
0.996185 0.070435 0.218323
0.995941 0.070160 0.213837
0.995850 0.069824 0.211639
0.996338 0.070709 0.221313
0.996796 0.071716 0.230438
0.996796 0.072632 0.237732
0.996796 0.073334 0.243164
0.996796 0.073761 0.246918
0.996796 0.075104 0.246918
0.996796 0.075043 0.246338
0.186157 0.155579 0.071808
0.186798 0.156189 0.072021
0.187592 0.156891 0.072235
0.188507 0.157684 0.072510
0.189392 0.158447 0.072784
0.190552 0.159485 0.073120
0.191711 0.160553 0.073547
0.192932 0.161713 0.073975
0.192078 0.160736 0.073273
0.192657 0.159119 0.071960
0.196381 0.156769 0.070618
0.212585 0.150848 0.069519
0.239655 0.151031 0.075073
0.266937 0.153992 0.080322
0.295471 0.154388 0.085114
0.320679 0.147644 0.090057
0.344727 0.138092 0.094086
0.368347 0.129822 0.098175
0.392212 0.124298 0.101318
0.415588 0.119659 0.104309
0.437622 0.114685 0.108093
0.461212 0.110901 0.114502
0.488800 0.112457 0.123077
0.515686 0.113647 0.130676
0.542755 0.113708 0.137360
0.569763 0.112335 0.142426
0.595367 0.110046 0.144623
0.620087 0.107727 0.147064
0.644409 0.104462 0.150116
0.667816 0.100403 0.154358
0.690521 0.095337 0.159698
0.711700 0.093872 0.162048
0.731537 0.095947 0.162567
0.751160 0.097961 0.165558
0.770996 0.099182 0.169739
0.790375 0.099915 0.173553
0.809448 0.100342 0.177155
0.828644 0.099487 0.181091
0.847565 0.097260 0.183807
0.866058 0.095612 0.185303
0.884033 0.092896 0.185303
0.901001 0.089722 0.185394
0.917908 0.082245 0.183319
0.933838 0.074097 0.184753
0.948334 0.066162 0.190338
0.961578 0.057495 0.196289
0.973907 0.047028 0.201538
0.979187 0.056519 0.209198
0.982422 0.065582 0.214600
0.985626 0.072388 0.219269
0.988708 0.078003 0.223328
0.991821 0.081055 0.225159
0.995270 0.076752 0.218872
0.995514 0.074463 0.214447
0.995575 0.071503 0.210907
0.995697 0.069550 0.208679
0.995667 0.069550 0.208862
0.996216 0.070496 0.218658
0.996674 0.071442 0.228088
0.996796 0.072418 0.235504
0.996796 0.074707 0.240509
0.996796 0.077484 0.243073
0.996796 0.077423 0.242950
0.996796 0.077576 0.242035
0.227325 0.194397 0.084473
0.227966 0.195007 0.084656
0.228668 0.195709 0.084839
0.229401 0.196350 0.085052
0.230164 0.197113 0.085236
0.231201 0.198120 0.085541
0.232117 0.199005 0.085754
0.233093 0.199951 0.086029
0.233337 0.200623 0.086121
0.229675 0.198914 0.085358
0.230042 0.196289 0.083801
0.233765 0.192535 0.082458
0.248962 0.182129 0.081512
0.273163 0.179657 0.085754
0.302765 0.178040 0.089355
0.329803 0.172089 0.092255
0.354187 0.164886 0.096283
0.378265 0.156433 0.099304
0.401520 0.148651 0.102173
0.423004 0.143097 0.106689
0.444885 0.139465 0.110992
0.466400 0.134857 0.114960
0.488251 0.129608 0.118652
0.510864 0.125153 0.121796
0.535583 0.122894 0.125488
0.561951 0.121368 0.130096
0.587830 0.118774 0.134155
0.613190 0.115295 0.138000
0.637665 0.112793 0.141510
0.661621 0.109619 0.147125
0.683624 0.108459 0.151245
0.704529 0.108337 0.154724
0.725311 0.107941 0.158661
0.745697 0.108276 0.162933
0.765808 0.109253 0.167114
0.785522 0.109741 0.170746
0.805756 0.109314 0.174377
0.825317 0.108093 0.178070
0.844330 0.106140 0.180603
0.863251 0.102814 0.182953
0.881439 0.099731 0.184021
0.898773 0.093964 0.181366
0.915894 0.087097 0.179138
0.931946 0.079529 0.178558
0.947205 0.071289 0.184906
0.960693 0.063110 0.190857
0.971802 0.060089 0.196350
0.976715 0.068115 0.205505
0.980469 0.074097 0.211487
0.984039 0.079437 0.216217
0.987305 0.084808 0.219971
0.990875 0.084320 0.217560
0.994171 0.080292 0.209869
0.994690 0.077515 0.206055
0.994659 0.074951 0.203644
0.994934 0.071381 0.201965
0.995331 0.070709 0.206207
0.995758 0.072174 0.214630
0.996124 0.074463 0.224060
0.996307 0.076935 0.230896
0.996490 0.079742 0.235809
0.996521 0.080994 0.237762
0.996582 0.080231 0.237854
0.996490 0.080261 0.236877
0.269012 0.232697 0.094818
0.269714 0.233276 0.094971
0.270294 0.233765 0.095093
0.270905 0.234283 0.095276
0.271332 0.234650 0.095337
0.271851 0.235077 0.095490
0.272217 0.235413 0.095581
0.272675 0.235779 0.095673
0.271942 0.235840 0.095581
0.269165 0.235352 0.095398
0.262695 0.231018 0.095154
0.262665 0.226532 0.094543
0.267273 0.221008 0.094147
0.282166 0.210419 0.093842
0.304626 0.204132 0.095459
0.336700 0.198425 0.096863
0.364410 0.189575 0.097076
0.390381 0.184814 0.098694
0.413300 0.176483 0.101227
0.435242 0.172638 0.106476
0.453217 0.164703 0.112610
0.473480 0.159180 0.117249
0.495636 0.155090 0.120697
0.518463 0.149780 0.123108
0.541443 0.144379 0.124451
0.564575 0.139923 0.125031
0.585938 0.133820 0.125366
0.605957 0.125519 0.125641
0.631073 0.121704 0.132507
0.654510 0.120605 0.136688
0.676727 0.120483 0.141022
0.698181 0.120636 0.146454
0.718842 0.120728 0.151703
0.739716 0.120575 0.158173
0.760101 0.119934 0.163269
0.780212 0.119293 0.167633
0.800354 0.118866 0.171021
0.820801 0.117554 0.174194
0.840790 0.115295 0.176819
0.859680 0.112305 0.178894
0.878601 0.106293 0.178680
0.896881 0.098602 0.176575
0.914185 0.092407 0.174225
0.930420 0.085388 0.172791
0.945709 0.077728 0.178009
0.959656 0.069580 0.183289
0.969482 0.074097 0.192047
0.974091 0.080292 0.200562
0.978088 0.084869 0.206482
0.981934 0.089142 0.211426
0.985840 0.091309 0.213654
0.989807 0.087738 0.207336
0.993103 0.084320 0.201233
0.993958 0.081482 0.197693
0.993866 0.078613 0.194885
0.993896 0.076080 0.193451
0.994354 0.076935 0.200592
0.994781 0.078125 0.207794
0.995300 0.080170 0.217804
0.995758 0.082397 0.225311
0.996063 0.085083 0.230408
0.996094 0.084686 0.231018
0.996063 0.084198 0.230957
0.996033 0.083527 0.230286
0.301147 0.260498 0.104431
0.301300 0.260651 0.104492
0.301575 0.260895 0.104584
0.301880 0.261200 0.104736
0.302277 0.261536 0.104919
0.302704 0.261932 0.105072
0.303070 0.262329 0.105255
0.303497 0.262695 0.105408
0.303131 0.262665 0.105560
0.298828 0.260315 0.105804
0.295593 0.258606 0.106140
0.294189 0.255951 0.106171
0.295441 0.251862 0.105621
0.301605 0.246185 0.105225
0.315704 0.235992 0.104767
0.334717 0.227966 0.105042
0.366730 0.218994 0.105560
0.392975 0.204010 0.103607
0.419708 0.201202 0.104401
0.441925 0.197510 0.108185
0.462036 0.191284 0.112793
0.481964 0.184174 0.117371
0.502411 0.177002 0.121338
0.526062 0.173065 0.123291
0.550171 0.169586 0.124146
0.573669 0.165192 0.124756
0.595154 0.158936 0.125946
0.614990 0.151642 0.127075
0.634094 0.144501 0.128052
0.652222 0.137299 0.129700
0.670044 0.131256 0.131714
0.691803 0.131317 0.136841
0.712860 0.131500 0.142029
0.733429 0.131775 0.149628
0.753235 0.131927 0.156189
0.773499 0.130951 0.162109
0.794159 0.129242 0.166626
0.814789 0.127380 0.169312
0.835571 0.125122 0.171967
0.855957 0.120026 0.171936
0.875092 0.113678 0.170898
0.894318 0.106293 0.169861
0.912659 0.098511 0.168365
0.929260 0.091522 0.167023
0.944580 0.084534 0.169708
0.957031 0.084076 0.177551
0.967072 0.087219 0.187653
0.971588 0.091187 0.195251
