LUTs/Dive Vivid.cube
#Created by: Adobe Photoshop Export Color Lookup Plugin
#Copyright: (C) Copyright 2018 ©Sergey Zhmakin
TITLE "Dive Vivid"
#LUT size
LUT_3D_SIZE 4
#data domain
DOMAIN_MIN 0.0 0.0 0.0
DOMAIN_MAX 1.0 1.0 1.0
#LUT data points
0.000000 0.000000 0.000000
0.492737 0.070679 0.141907
0.926178 0.078827 0.202942
0.996826 0.075470 0.261871
0.527252 0.459503 0.164124
0.532928 0.449066 0.170776
0.931183 0.234100 0.138062
0.998871 0.180817 0.137329
0.929901 0.808899 0.177979
0.933258 0.812744 0.179199
0.949188 0.813629 0.160217
0.997284 0.700958 0.329346
0.998810 0.951752 0.274414
0.998657 0.952362 0.274445
0.996552 0.948364 0.254547
0.998871 0.936615 0.273987
0.072021 0.035431 0.488129
0.530823 0.092621 0.516937
0.943481 0.077423 0.514374
0.996643 0.079620 0.532990
0.337036 0.295563 0.330597
0.380768 0.296539 0.379089
0.918457 0.190948 0.457031
0.998535 0.164948 0.500061
0.896484 0.792297 0.250671
0.901215 0.798279 0.251770
0.924835 0.807159 0.206512
0.997742 0.665039 0.326599
0.997559 0.956635 0.284698
0.997223 0.957886 0.291168
0.995667 0.952576 0.282806
0.998871 0.937225 0.296570
0.163330 0.044495 0.831573
0.438416 0.086121 0.897827
0.887726 0.064789 0.861908
0.996582 0.054932 0.874603
0.230865 0.207977 0.892822
0.423981 0.219879 0.900818
0.902069 0.185394 0.867004
0.998993 0.116608 0.862030
0.741272 0.699097 0.677216
0.721161 0.690979 0.717987
0.780548 0.684723 0.777100
0.989349 0.625397 0.783295
0.984772 0.964294 0.457428
0.983368 0.964447 0.473572
0.976074 0.955994 0.526947
0.998688 0.936707 0.470734
0.222198 0.069000 0.792694
0.339844 0.096375 0.966003
0.738373 0.106812 0.996979
0.981171 0.032715 0.982208
0.216949 0.173767 0.991455
0.344666 0.201477 0.997314
0.764099 0.222961 0.996948
0.983765 0.167450 0.987335
0.558594 0.628296 0.990967
0.565582 0.634949 0.990631
0.737244 0.606049 0.997559
0.975739 0.599091 0.985138
0.935913 0.976257 0.901123
0.933685 0.976959 0.923889
0.919342 0.973602 0.966370
1.000000 1.000000 0.999969
