LUTs/Green Waters Fix.cube
#Created by: Adobe Photoshop Export Color Lookup Plugin
#Copyright: (C) Copyright 2018 ©Sergey Zhmakin
TITLE "Green Waters Fix"
#LUT size
LUT_3D_SIZE 4
#data domain
DOMAIN_MIN 0.0 0.0 0.0
DOMAIN_MAX 1.0 1.0 1.0
#LUT data points
0.000000 0.000000 0.000000
0.613312 0.000000 0.245636
1.000000 0.000000 0.158508
1.000000 0.000000 0.191437
0.467682 0.356934 0.507233
0.515472 0.336670 0.510590
1.000000 0.082733 0.232117
1.000000 0.096436 0.184814
0.845642 0.818695 0.490875
0.844269 0.817810 0.483459
0.890381 0.806641 0.472137
1.000000 0.765594 0.309845
1.000000 0.998932 0.455139
1.000000 0.998444 0.457916
1.000000 0.997009 0.472229
1.000000 0.997375 0.469696
0.067413 0.000000 0.662109
0.468750 0.000000 0.604340
1.000000 0.000000 0.375854
1.000000 0.000000 0.217041
0.220245 0.264954 0.582367
0.274261 0.246155 0.568298
1.000000 0.000000 0.379974
1.000000 0.000000 0.220825
0.750122 0.802155 0.576813
0.752838 0.800934 0.576416
0.839661 0.786438 0.548157
1.000000 0.733276 0.371429
1.000000 1.000000 0.506348
1.000000 1.000000 0.507538
0.996674 0.998352 0.510620
1.000000 0.999023 0.507843
0.224091 0.103638 0.694733
0.274231 0.113983 0.792664
0.965088 0.000000 0.911743
1.000000 0.000000 0.878540
0.221161 0.113770 0.768250
0.228973 0.113220 0.765289
0.943024 0.000000 0.899506
1.000000 0.000000 0.862793
0.554413 0.660675 0.953705
0.554474 0.659515 0.952240
0.679291 0.651886 0.913269
1.000000 0.527679 0.742554
0.975372 1.000000 0.609253
0.971954 1.000000 0.610016
0.965027 1.000000 0.611145
0.982758 1.000000 0.609039
0.257416 0.124573 0.741425
0.299683 0.131592 0.818726
0.846649 0.020538 0.979095
1.000000 0.016571 0.971924
0.243561 0.127106 0.746033
0.288727 0.135590 0.829803
0.849884 0.026733 0.981934
1.000000 0.057739 0.973267
0.444427 0.588837 1.000000
0.449371 0.590271 1.000000
0.672241 0.557861 1.000000
1.000000 0.461304 1.000000
0.832886 0.995209 0.976715
0.830933 0.993713 0.976318
0.829712 0.988800 0.971741
1.000000 0.999817 0.999725
