LUTs/Green Waters Fix.cube
#Created by: Adobe Photoshop Export Color Lookup Plugin
#Copyright: (C) Copyright 2018 ©Sergey Zhmakin
TITLE "Green Waters Fix"
#LUT size
LUT_3D_SIZE 64
#data domain
DOMAIN_MIN 0.0 0.0 0.0
DOMAIN_MAX 1.0 1.0 1.0
#LUT data points
0.000000 0.000000 0.000000
0.011139 0.000397 0.002716
0.024445 0.000916 0.005768
0.040070 0.001495 0.009583
0.060608 0.002472 0.015564
0.081970 0.003784 0.022919
0.105774 0.005585 0.033691
0.132660 0.008240 0.044464
0.171173 0.007935 0.056976
0.213013 0.000000 0.069427
0.255402 0.000000 0.084137
0.302429 0.000000 0.097809
0.342133 0.000000 0.109589
0.379822 0.000000 0.118774
0.409302 0.000000 0.123627
0.440735 0.000000 0.130676
0.473145 0.000000 0.141968
0.503357 0.000000 0.158356
0.532684 0.000000 0.177307
0.560944 0.000000 0.201111
0.587860 0.000000 0.225800
0.613312 0.000000 0.245636
0.639618 0.000000 0.264130
0.669495 0.000000 0.279236
0.700104 0.000000 0.286835
0.732513 0.000000 0.288818
0.764557 0.000000 0.292053
0.799744 0.000000 0.269836
0.835327 0.000000 0.251038
0.871643 0.000000 0.226105
0.906769 0.000000 0.199188
0.938721 0.000000 0.190125
0.968384 0.000000 0.184113
0.996338 0.000000 0.180511
1.000000 0.000000 0.181915
1.000000 0.000000 0.173828
1.000000 0.000000 0.163391
1.000000 0.000000 0.151978
1.000000 0.000000 0.151794
1.000000 0.000000 0.152008
1.000000 0.000000 0.153564
1.000000 0.000000 0.156097
1.000000 0.000000 0.158508
1.000000 0.000000 0.161072
1.000000 0.000000 0.163483
1.000000 0.000000 0.165497
1.000000 0.000000 0.167694
1.000000 0.000000 0.169617
1.000000 0.000000 0.171600
1.000000 0.000000 0.173492
1.000000 0.000000 0.175385
1.000000 0.000000 0.177185
1.000000 0.000000 0.178925
1.000000 0.000000 0.180573
1.000000 0.000000 0.181824
1.000000 0.000000 0.183044
1.000000 0.000000 0.184174
1.000000 0.000000 0.185486
1.000000 0.000000 0.186584
1.000000 0.000000 0.187592
1.000000 0.000000 0.188629
1.000000 0.000000 0.189758
1.000000 0.000000 0.190674
1.000000 0.000000 0.191437
0.000458 0.000153 0.000214
0.000427 0.000092 0.000092
0.011444 0.000488 0.002838
0.030457 0.001160 0.007324
0.055237 0.002228 0.014099
0.080139 0.003662 0.022247
0.106598 0.005707 0.033997
0.135376 0.008575 0.045654
0.172089 0.007751 0.057159
0.215057 0.000000 0.070190
0.258179 0.000000 0.085052
0.304047 0.000000 0.098297
0.342346 0.000000 0.109680
0.378204 0.000000 0.118408
0.407684 0.000000 0.123383
0.439240 0.000000 0.130280
0.471924 0.000000 0.141327
0.502441 0.000000 0.157898
0.532074 0.000000 0.177216
0.560364 0.000000 0.201233
0.587463 0.000000 0.225800
0.612915 0.000000 0.245697
0.639709 0.000000 0.264130
0.669556 0.000000 0.278992
0.700195 0.000000 0.286469
0.732819 0.000000 0.288269
0.764832 0.000000 0.291840
0.799530 0.000000 0.269928
0.835052 0.000000 0.251190
0.871490 0.000000 0.226318
0.906769 0.000000 0.199158
0.939240 0.000000 0.190125
0.968842 0.000000 0.184052
0.996429 0.000000 0.180603
1.000000 0.000000 0.181824
1.000000 0.000000 0.173767
1.000000 0.000000 0.163208
1.000000 0.000000 0.151917
1.000000 0.000000 0.151764
1.000000 0.000000 0.151947
1.000000 0.000000 0.153503
1.000000 0.000000 0.156067
1.000000 0.000000 0.158508
1.000000 0.000000 0.161041
1.000000 0.000000 0.163422
1.000000 0.000000 0.165314
1.000000 0.000000 0.167542
1.000000 0.000000 0.169647
1.000000 0.000000 0.171509
1.000000 0.000000 0.173492
1.000000 0.000000 0.175415
1.000000 0.000000 0.177216
1.000000 0.000000 0.178894
1.000000 0.000000 0.180573
1.000000 0.000000 0.181854
1.000000 0.000000 0.182953
1.000000 0.000000 0.184052
1.000000 0.000000 0.185394
1.000000 0.000000 0.186523
1.000000 0.000000 0.187592
1.000000 0.000000 0.188660
1.000000 0.000000 0.189728
1.000000 0.000000 0.190765
1.000000 0.000000 0.191437
0.001007 0.000488 0.000549
0.001892 0.000488 0.000702
0.002289 0.000336 0.000519
0.009705 0.000458 0.002441
0.039581 0.001526 0.009552
0.072845 0.003204 0.019867
0.102692 0.005341 0.032227
0.134491 0.008484 0.045349
0.172394 0.007660 0.057251
0.216339 0.000000 0.070679
0.258972 0.000000 0.085236
0.303833 0.000000 0.098236
0.339905 0.000000 0.109009
0.376038 0.000000 0.117981
0.406219 0.000000 0.123138
0.437958 0.000000 0.129883
0.470581 0.000000 0.140533
0.501587 0.000000 0.157410
0.532104 0.000000 0.177582
0.560303 0.000000 0.201660
0.587402 0.000000 0.226166
0.612671 0.000000 0.245789
0.640137 0.000000 0.264160
0.669708 0.000000 0.278687
0.700378 0.000000 0.285950
0.733154 0.000000 0.288177
0.764984 0.000000 0.291687
0.800049 0.000000 0.269653
0.834869 0.000000 0.251312
0.871368 0.000000 0.226318
0.907074 0.000000 0.198914
0.939911 0.000000 0.190186
0.969421 0.000000 0.183990
0.996735 0.000000 0.180725
1.000000 0.000000 0.181763
1.000000 0.000000 0.173767
1.000000 0.000000 0.163086
1.000000 0.000000 0.151825
1.000000 0.000000 0.151733
1.000000 0.000000 0.151917
1.000000 0.000000 0.153473
1.000000 0.000000 0.156006
1.000000 0.000000 0.158478
1.000000 0.000000 0.160980
1.000000 0.000000 0.163269
1.000000 0.000000 0.165283
1.000000 0.000000 0.167511
1.000000 0.000000 0.169556
1.000000 0.000000 0.171570
1.000000 0.000000 0.173523
1.000000 0.000000 0.175385
1.000000 0.000000 0.177155
1.000000 0.000000 0.178955
1.000000 0.000000 0.180481
1.000000 0.000000 0.181763
1.000000 0.000000 0.182892
1.000000 0.000000 0.184021
1.000000 0.000000 0.185272
1.000000 0.000000 0.186523
1.000000 0.000000 0.187531
1.000000 0.000000 0.188629
1.000000 0.000000 0.189697
1.000000 0.000000 0.190674
1.000000 0.000000 0.191315
0.001984 0.001160 0.001282
0.002808 0.001068 0.001282
0.004028 0.001007 0.001282
0.005432 0.000793 0.001282
0.011078 0.000702 0.002777
0.056580 0.002258 0.014587
0.094513 0.004639 0.028625
0.132874 0.008331 0.044830
0.173340 0.007477 0.057495
0.216003 0.000000 0.070526
0.258026 0.000000 0.084991
0.301086 0.000000 0.097412
0.335724 0.000000 0.107819
0.373932 0.000000 0.117462
0.404907 0.000000 0.123108
0.436646 0.000000 0.129486
0.469452 0.000000 0.139893
0.501282 0.000000 0.157227
0.532074 0.000000 0.178070
0.560242 0.000000 0.202026
0.587524 0.000000 0.226593
0.613068 0.000000 0.246094
0.640717 0.000000 0.264343
0.669983 0.000000 0.278381
0.700775 0.000000 0.285522
0.733673 0.000000 0.287994
0.765381 0.000000 0.291290
0.800568 0.000000 0.269257
0.835388 0.000000 0.251038
0.871338 0.000000 0.226349
0.907654 0.000000 0.198639
0.940552 0.000000 0.190125
0.970032 0.000000 0.183990
0.997040 0.000000 0.180664
1.000000 0.000000 0.181763
1.000000 0.000000 0.173676
1.000000 0.000000 0.162933
1.000000 0.000000 0.151672
1.000000 0.000000 0.151611
1.000000 0.000000 0.151794
1.000000 0.000000 0.153412
1.000000 0.000000 0.155945
1.000000 0.000000 0.158447
1.000000 0.000000 0.161011
1.000000 0.000000 0.163147
1.000000 0.000000 0.165192
1.000000 0.000000 0.167389
1.000000 0.000000 0.169586
1.000000 0.000000 0.171570
1.000000 0.000000 0.173462
1.000000 0.000000 0.175354
1.000000 0.000000 0.177185
1.000000 0.000000 0.178955
1.000000 0.000000 0.180450
1.000000 0.000000 0.181702
1.000000 0.000000 0.182861
1.000000 0.000000 0.183929
1.000000 0.000000 0.185211
1.000000 0.000000 0.186462
1.000000 0.000000 0.187500
1.000000 0.000000 0.188660
1.000000 0.000000 0.189697
1.000000 0.000000 0.190674
1.000000 0.000000 0.191254
0.003662 0.002289 0.002472
0.003998 0.002075 0.002319
0.005554 0.001923 0.002380
0.007843 0.001831 0.002472
0.013733 0.002045 0.003296
0.022339 0.002350 0.005249
0.079712 0.004791 0.022186
0.126312 0.007935 0.042297
0.171509 0.007904 0.057098
0.214630 0.000000 0.070068
0.252228 0.000000 0.083038
0.295227 0.000000 0.095734
0.331818 0.000000 0.106689
0.370636 0.000000 0.116852
0.402832 0.000000 0.123901
0.435272 0.000000 0.128998
0.468353 0.000000 0.139343
0.501007 0.000000 0.157501
0.531830 0.000000 0.178680
0.559906 0.000000 0.202209
0.587463 0.000000 0.226929
0.613953 0.000000 0.246643
0.641571 0.000000 0.264587
0.671021 0.000000 0.278046
0.701385 0.000000 0.284973
0.734314 0.000000 0.288055
0.766266 0.000000 0.290649
0.801453 0.000000 0.268707
0.836365 0.000000 0.250488
0.871704 0.000000 0.225952
0.908234 0.000000 0.198547
0.941284 0.000000 0.190155
0.970581 0.000000 0.183868
0.996948 0.000000 0.180664
1.000000 0.000000 0.181732
1.000000 0.000000 0.173615
1.000000 0.000000 0.162872
1.000000 0.000000 0.151550
1.000000 0.000000 0.151489
1.000000 0.000000 0.151733
1.000000 0.000000 0.153320
1.000000 0.000000 0.155914
1.000000 0.000000 0.158417
1.000000 0.000000 0.160919
1.000000 0.000000 0.163025
1.000000 0.000000 0.165131
1.000000 0.000000 0.167328
1.000000 0.000000 0.169556
1.000000 0.000000 0.171570
1.000000 0.000000 0.173462
1.000000 0.000000 0.175385
1.000000 0.000000 0.177185
1.000000 0.000000 0.178894
1.000000 0.000000 0.180389
1.000000 0.000000 0.181610
1.000000 0.000000 0.182709
1.000000 0.000000 0.183807
1.000000 0.000000 0.185120
1.000000 0.000000 0.186371
1.000000 0.000000 0.187500
1.000000 0.000000 0.188629
1.000000 0.000000 0.189697
1.000000 0.000000 0.190674
1.000000 0.000000 0.191132
0.007385 0.004486 0.004822
0.008636 0.004669 0.005127
0.013672 0.004883 0.005798
0.018707 0.005096 0.006622
0.026093 0.005371 0.007660
0.035950 0.005676 0.009094
0.049500 0.005981 0.012329
0.103271 0.007782 0.032684
0.153687 0.010956 0.052002
0.205475 0.000000 0.066345
0.244263 0.000000 0.080536
0.289154 0.000000 0.094025
0.325714 0.000000 0.105255
0.366333 0.000000 0.117218
0.399689 0.000000 0.125000
0.432556 0.000000 0.130066
0.467346 0.000000 0.138702
0.500366 0.000000 0.158020
0.531738 0.000000 0.179199
0.559967 0.000000 0.202820
0.588104 0.000000 0.227753
0.615112 0.000000 0.247162
0.642517 0.000000 0.264862
0.672241 0.000000 0.277710
0.702209 0.000000 0.284790
0.735046 0.000000 0.288147
0.767487 0.000000 0.289856
0.802795 0.000000 0.267761
0.837830 0.000000 0.249817
0.873352 0.000000 0.224182
0.909180 0.000000 0.198303
0.942078 0.000000 0.190155
0.970764 0.000000 0.183929
0.997040 0.000000 0.180695
1.000000 0.000000 0.181702
1.000000 0.000000 0.173370
1.000000 0.000000 0.162506
1.000000 0.000000 0.151398
1.000000 0.000000 0.151276
1.000000 0.000000 0.151642
1.000000 0.000000 0.153290
1.000000 0.000000 0.155792
1.000000 0.000000 0.158356
1.000000 0.000000 0.160736
1.000000 0.000000 0.162842
1.000000 0.000000 0.165009
1.000000 0.000000 0.167297
1.000000 0.000000 0.169403
1.000000 0.000000 0.171539
1.000000 0.000000 0.173492
1.000000 0.000000 0.175385
1.000000 0.000000 0.177124
1.000000 0.000000 0.178864
1.000000 0.000000 0.180298
1.000000 0.000000 0.181488
1.000000 0.000000 0.182678
1.000000 0.000000 0.183655
1.000000 0.000000 0.184937
1.000000 0.000000 0.186218
1.000000 0.000000 0.187439
1.000000 0.000000 0.188629
1.000000 0.000000 0.189758
1.000000 0.000000 0.190704
1.000000 0.000000 0.191101
0.014160 0.008545 0.009064
0.014648 0.008514 0.009064
0.018280 0.008606 0.009613
0.024200 0.008881 0.010559
0.032928 0.009155 0.011871
0.044189 0.009491 0.013611
0.056641 0.009857 0.015656
0.070984 0.010254 0.018707
0.117218 0.011444 0.039093
0.177032 0.010101 0.060272
0.224213 0.000000 0.075623
0.278046 0.000000 0.092896
0.318298 0.000000 0.104156
0.360382 0.000000 0.117310
0.395599 0.000000 0.127747
0.430084 0.000000 0.135284
0.464966 0.000000 0.141663
0.499664 0.000000 0.158447
0.531403 0.000000 0.179688
0.560547 0.000000 0.203705
0.589142 0.000000 0.228699
0.616425 0.000000 0.247833
0.643646 0.000000 0.264954
0.673615 0.000000 0.277161
0.703522 0.000000 0.284851
0.736450 0.000000 0.288361
0.769440 0.000000 0.288422
0.804749 0.000000 0.266510
0.839874 0.000000 0.248901
0.875549 0.000000 0.222504
0.910980 0.000000 0.197388
0.942963 0.000000 0.189972
0.971039 0.000000 0.183929
0.997131 0.000000 0.180695
1.000000 0.000000 0.181702
1.000000 0.000000 0.173279
1.000000 0.000000 0.162354
1.000000 0.000000 0.151154
1.000000 0.000000 0.151093
1.000000 0.000000 0.151428
1.000000 0.000000 0.153198
1.000000 0.000000 0.155731
1.000000 0.000000 0.158264
1.000000 0.000000 0.160583
1.000000 0.000000 0.162689
1.000000 0.000000 0.164978
1.000000 0.000000 0.167206
1.000000 0.000000 0.169373
1.000000 0.000000 0.171478
1.000000 0.000000 0.173431
1.000000 0.000000 0.175323
1.000000 0.000000 0.177124
1.000000 0.000000 0.178864
1.000000 0.000000 0.180206
1.000000 0.000000 0.181488
1.000000 0.000000 0.182526
1.000000 0.000000 0.183563
1.000000 0.000000 0.184814
1.000000 0.000000 0.186157
1.000000 0.000000 0.187500
1.000000 0.000000 0.188629
1.000000 0.000000 0.189758
1.000000 0.000000 0.190765
1.000000 0.000000 0.190948
0.026184 0.014069 0.015076
0.024780 0.014038 0.014862
0.024078 0.013855 0.014618
0.023621 0.013916 0.014648
0.032562 0.014801 0.016449
0.048859 0.015594 0.019318
0.064606 0.016174 0.022430
0.078766 0.016632 0.025818
0.092407 0.017059 0.030731
0.127991 0.017700 0.046509
0.196198 0.006683 0.067841
0.249390 0.000000 0.086914
0.308167 0.000000 0.104523
0.349884 0.000000 0.118347
0.389709 0.000000 0.131775
0.428711 0.000000 0.142487
0.464813 0.000000 0.148315
0.500458 0.000000 0.161255
0.533691 0.000000 0.181976
0.562439 0.000000 0.205475
0.591248 0.000000 0.230469
0.617767 0.000000 0.248291
0.644653 0.000000 0.265045
0.674316 0.000000 0.277100
0.704834 0.000000 0.284698
0.738892 0.000000 0.288269
0.772034 0.000000 0.286591
0.807556 0.000000 0.264832
0.842133 0.000000 0.247742
0.877411 0.000000 0.221283
0.912384 0.000000 0.196777
0.944183 0.000000 0.189850
0.971710 0.000000 0.183807
0.997223 0.000000 0.180725
1.000000 0.000000 0.181610
1.000000 0.000000 0.173096
1.000000 0.000000 0.162079
1.000000 0.000000 0.150940
1.000000 0.000000 0.150879
1.000000 0.000000 0.151184
1.000000 0.000000 0.153015
1.000000 0.000000 0.155670
1.000000 0.000000 0.158203
1.000000 0.000000 0.160431
1.000000 0.000000 0.162628
1.000000 0.000000 0.164917
1.000000 0.000000 0.167206
1.000000 0.000000 0.169373
1.000000 0.000000 0.171356
1.000000 0.000000 0.173462
1.000000 0.000000 0.175293
1.000000 0.000000 0.177124
1.000000 0.000000 0.178833
1.000000 0.000000 0.180054
1.000000 0.000000 0.181335
1.000000 0.000000 0.182373
1.000000 0.000000 0.183380
1.000000 0.000000 0.184692
1.000000 0.000000 0.186127
1.000000 0.000000 0.187469
1.000000 0.000000 0.188629
1.000000 0.000000 0.189758
1.000000 0.000000 0.190613
1.000000 0.000000 0.190765
0.066040 0.029175 0.034821
0.067017 0.029480 0.035339
0.067993 0.029816 0.035858
0.068634 0.029999 0.036224
0.069550 0.030029 0.036438
0.070679 0.030151 0.036804
0.081360 0.030029 0.039459
0.092712 0.029938 0.043579
0.106293 0.029877 0.049805
0.120605 0.030060 0.055786
0.150299 0.029968 0.068115
0.220367 0.006989 0.089813
0.289642 0.000000 0.112244
0.343109 0.000000 0.129730
0.390472 0.000000 0.141510
0.430664 0.000000 0.153534
0.466156 0.000000 0.156219
0.502319 0.000000 0.167816
0.536713 0.000000 0.185242
0.565979 0.000000 0.208801
0.594421 0.000000 0.232605
0.620789 0.000000 0.249847
0.646240 0.000000 0.265594
0.675629 0.000000 0.277283
0.706055 0.000000 0.284637
0.740570 0.000000 0.288025
0.775513 0.000000 0.284180
0.810760 0.000000 0.262909
0.844818 0.000000 0.247101
0.879303 0.000000 0.220032
0.913635 0.000000 0.196289
0.944641 0.000000 0.189880
0.971436 0.000000 0.183838
0.996704 0.000000 0.180725
1.000000 0.000000 0.181580
1.000000 0.000000 0.173065
1.000000 0.000000 0.161713
1.000000 0.000000 0.150726
1.000000 0.000000 0.150543
1.000000 0.000000 0.150818
1.000000 0.000000 0.152863
1.000000 0.000000 0.155640
1.000000 0.000000 0.158020
1.000000 0.000000 0.160278
1.000000 0.000000 0.162537
1.000000 0.000000 0.164886
1.000000 0.000000 0.167114
1.000000 0.000000 0.169250
1.000000 0.000000 0.171326
1.000000 0.000000 0.173370
1.000000 0.000000 0.175293
1.000000 0.000000 0.177124
1.000000 0.000000 0.178650
1.000000 0.000000 0.180023
1.000000 0.000000 0.181152
1.000000 0.000000 0.182190
1.000000 0.000000 0.183258
1.000000 0.000000 0.184570
1.000000 0.000000 0.185974
1.000000 0.000000 0.187347
1.000000 0.000000 0.188721
1.000000 0.000000 0.189819
1.000000 0.000000 0.190460
1.000000 0.000000 0.190613
0.097382 0.047394 0.061737
0.097656 0.047363 0.061646
0.097900 0.047394 0.061371
0.097687 0.046967 0.060730
0.097687 0.046448 0.060303
0.097412 0.045929 0.059723
0.098480 0.045990 0.060333
0.112732 0.047211 0.067261
0.127747 0.048431 0.074341
0.143585 0.048218 0.081757
0.161774 0.045624 0.089233
0.190735 0.035278 0.099274
0.263519 0.000000 0.124298
0.327728 0.000000 0.150299
0.387817 0.000000 0.164734
0.436371 0.000000 0.170776
0.472473 0.000000 0.172485
0.505035 0.000000 0.179443
0.538605 0.000000 0.195831
0.566711 0.000000 0.212830
0.594757 0.000000 0.236755
0.622070 0.000000 0.251495
0.646576 0.000000 0.267517
0.677246 0.000000 0.277527
0.707642 0.000000 0.284424
0.742126 0.000000 0.287872
0.777100 0.000000 0.283051
0.813232 0.000000 0.261932
0.846680 0.000000 0.247009
0.880615 0.000000 0.219055
0.913177 0.000000 0.196594
0.944000 0.000000 0.190155
0.970398 0.000000 0.184204
0.995667 0.000000 0.180634
1.000000 0.000000 0.181641
1.000000 0.000000 0.172638
1.000000 0.000000 0.161194
1.000000 0.000000 0.150452
1.000000 0.000000 0.150330
1.000000 0.000000 0.150543
1.000000 0.000000 0.152679
1.000000 0.000000 0.155396
1.000000 0.000000 0.157806
1.000000 0.000000 0.160095
1.000000 0.000000 0.162506
1.000000 0.000000 0.164795
1.000000 0.000000 0.167084
1.000000 0.000000 0.169220
1.000000 0.000000 0.171295
1.000000 0.000000 0.173279
1.000000 0.000000 0.175201
1.000000 0.000000 0.177032
1.000000 0.000000 0.178528
1.000000 0.000000 0.179810
1.000000 0.000000 0.180969
1.000000 0.000000 0.182007
1.000000 0.000000 0.183167
1.000000 0.000000 0.184540
1.000000 0.000000 0.186005
1.000000 0.000000 0.187347
1.000000 0.000000 0.188721
1.000000 0.000000 0.189850
1.000000 0.000000 0.190308
1.000000 0.000000 0.190491
0.141479 0.067749 0.102570
0.141693 0.067902 0.102814
0.142792 0.067902 0.103394
0.144379 0.067810 0.103943
0.146454 0.067627 0.104828
0.149628 0.067474 0.106567
0.153564 0.067230 0.108612
0.158539 0.066895 0.111206
0.174866 0.062744 0.117188
0.193878 0.055969 0.124023
0.214844 0.045471 0.131500
0.233215 0.032501 0.137482
0.248322 0.021576 0.143616
0.307373 0.000000 0.168793
0.374664 0.000000 0.189270
0.435608 0.000000 0.202362
0.483521 0.000000 0.201233
0.514069 0.000000 0.203766
0.542267 0.000000 0.213257
0.569763 0.000000 0.227539
0.593506 0.000000 0.242126
0.619446 0.000000 0.256958
0.646484 0.000000 0.269867
0.678497 0.000000 0.278534
0.709930 0.000000 0.284546
0.744141 0.000000 0.287262
0.777527 0.000000 0.283356
0.812622 0.000000 0.263367
0.847870 0.000000 0.247223
0.881287 0.000000 0.218811
0.913513 0.000000 0.196411
0.943298 0.000000 0.190430
0.969025 0.000000 0.184540
0.994202 0.000000 0.180481
1.000000 0.000000 0.181641
1.000000 0.000000 0.172485
1.000000 0.000000 0.160645
1.000000 0.000000 0.150116
1.000000 0.000000 0.149994
1.000000 0.000000 0.150208
1.000000 0.000000 0.152588
1.000000 0.000000 0.155151
1.000000 0.000000 0.157593
1.000000 0.000000 0.160034
1.000000 0.000000 0.162476
1.000000 0.000000 0.164795
1.000000 0.000000 0.166962
1.000000 0.000000 0.169159
1.000000 0.000000 0.171204
1.000000 0.000000 0.173218
1.000000 0.000000 0.175110
1.000000 0.000000 0.176880
1.000000 0.000000 0.178406
1.000000 0.000000 0.179626
1.000000 0.000000 0.180756
1.000000 0.000000 0.181824
1.000000 0.000000 0.182953
1.000000 0.000000 0.184479
1.000000 0.000000 0.185913
1.000000 0.000000 0.187439
1.000000 0.000000 0.188751
1.000000 0.000000 0.189850
1.000000 0.000000 0.190186
1.000000 0.000000 0.190369
0.209686 0.076996 0.157654
0.209503 0.077148 0.157715
0.210022 0.077148 0.157928
0.211609 0.076508 0.158325
0.213257 0.075958 0.158997
0.215668 0.075104 0.159821
0.218536 0.074158 0.161041
0.222565 0.072815 0.162964
0.227203 0.071442 0.164978
0.239807 0.064972 0.169067
0.254242 0.056793 0.173523
0.268524 0.047180 0.178467
0.280640 0.038116 0.183563
0.293579 0.024597 0.187866
0.355133 0.000000 0.206177
0.415253 0.000000 0.226349
0.475098 0.000000 0.232971
0.519226 0.000000 0.235016
0.545105 0.000000 0.238953
0.570526 0.000000 0.250153
0.592651 0.000000 0.260406
0.618347 0.000000 0.275116
0.642639 0.000000 0.289032
0.675873 0.000000 0.295837
0.709137 0.000000 0.296844
0.742462 0.000000 0.297943
0.777344 0.000000 0.285553
0.812225 0.000000 0.264404
0.846252 0.000000 0.248657
0.880768 0.000000 0.219635
0.910980 0.000000 0.197937
0.940125 0.000000 0.191284
0.966370 0.000000 0.185425
0.991699 0.000000 0.180237
1.000000 0.000000 0.181671
1.000000 0.000000 0.172394
1.000000 0.000000 0.159851
1.000000 0.000000 0.149841
1.000000 0.000000 0.149658
1.000000 0.000000 0.149933
1.000000 0.000000 0.152374
1.000000 0.000000 0.154938
1.000000 0.000000 0.157440
1.000000 0.000000 0.159882
1.000000 0.000000 0.162354
1.000000 0.000000 0.164703
1.000000 0.000000 0.166962
1.000000 0.000000 0.169128
1.000000 0.000000 0.171173
1.000000 0.000000 0.173187
1.000000 0.000000 0.175079
1.000000 0.000000 0.176666
1.000000 0.000000 0.178131
1.000000 0.000000 0.179443
1.000000 0.000000 0.180634
1.000000 0.000000 0.181610
1.000000 0.000000 0.182892
1.000000 0.000000 0.184540
1.000000 0.000000 0.186035
1.000000 0.000000 0.187439
1.000000 0.000000 0.188782
1.000000 0.000000 0.189575
1.000000 0.000000 0.190002
1.000000 0.000000 0.190155
0.246674 0.102264 0.201050
0.246674 0.102142 0.200958
0.246887 0.101929 0.200806
0.247192 0.101929 0.201050
0.248871 0.101410 0.201355
0.251038 0.100830 0.202087
0.253662 0.100372 0.203003
0.256500 0.100067 0.204102
0.260223 0.099854 0.205719
0.264587 0.099609 0.207489
0.276764 0.094666 0.210419
0.294220 0.084015 0.213348
0.307404 0.073059 0.216522
0.319397 0.060852 0.219849
0.335724 0.037964 0.224335
0.392212 0.000000 0.241913
0.441040 0.000000 0.259003
0.494141 0.000000 0.266022
0.539215 0.000000 0.272705
0.566467 0.000000 0.278961
0.591095 0.000000 0.288269
0.617371 0.000000 0.301178
0.643494 0.000000 0.313934
0.673950 0.000000 0.323334
0.703766 0.000000 0.327881
0.737274 0.000000 0.322083
0.772614 0.000000 0.306885
0.810425 0.000000 0.268524
0.844635 0.000000 0.251312
0.878204 0.000000 0.222260
0.908905 0.000000 0.199005
0.937225 0.000000 0.192108
0.963409 0.000000 0.186218
0.989349 0.000000 0.180328
1.000000 0.000000 0.182129
1.000000 0.000000 0.171997
1.000000 0.000000 0.159363
1.000000 0.000000 0.149475
1.000000 0.000000 0.149323
1.000000 0.000000 0.149689
1.000000 0.000000 0.152130
1.000000 0.000000 0.154694
1.000000 0.000000 0.157257
1.000000 0.000000 0.159729
1.000000 0.000000 0.162354
1.000000 0.000000 0.164612
1.000000 0.000000 0.166840
1.000000 0.000000 0.169037
1.000000 0.000000 0.171112
1.000000 0.000000 0.173096
1.000000 0.000000 0.174896
1.000000 0.000000 0.176422
1.000000 0.000000 0.177887
1.000000 0.000000 0.179230
1.000000 0.000000 0.180389
1.000000 0.000000 0.181488
1.000000 0.000000 0.182922
1.000000 0.000000 0.184540
1.000000 0.000000 0.186096
1.000000 0.000000 0.187592
1.000000 0.000000 0.188873
1.000000 0.000000 0.189331
1.000000 0.000000 0.189819
1.000000 0.000000 0.190002
0.277802 0.133484 0.240814
0.278015 0.133453 0.240753
0.278107 0.133484 0.240753
0.278564 0.133392 0.240845
0.278778 0.133636 0.241058
0.280426 0.133087 0.241333
0.283051 0.132141 0.241608
0.286255 0.131073 0.242035
0.289520 0.130157 0.242615
0.293457 0.128998 0.243378
0.296722 0.128693 0.244324
0.307678 0.123413 0.245453
0.323853 0.113770 0.246979
0.334442 0.103638 0.249695
0.345428 0.092377 0.252563
0.365387 0.065308 0.257996
0.411926 0.000000 0.272339
0.459442 0.000000 0.288910
0.508789 0.000000 0.297333
0.550140 0.000000 0.308014
0.580658 0.000000 0.316498
0.613678 0.000000 0.328278
0.641418 0.000000 0.338837
0.671631 0.000000 0.349243
0.702942 0.000000 0.354309
0.733276 0.000000 0.353882
0.765198 0.000000 0.340027
0.802277 0.000000 0.303040
0.836853 0.000000 0.272980
0.869080 0.000000 0.254852
0.901489 0.000000 0.216919
0.930634 0.000000 0.202301
0.957092 0.000000 0.197876
0.982605 0.000000 0.192780
1.000000 0.000000 0.189484
1.000000 0.000000 0.183319
1.000000 0.000000 0.166687
1.000000 0.000000 0.150787
1.000000 0.000000 0.148956
1.000000 0.000000 0.149384
1.000000 0.000000 0.151978
1.000000 0.000000 0.154633
1.000000 0.000000 0.157196
1.000000 0.000000 0.159637
1.000000 0.000000 0.162170
1.000000 0.000000 0.164520
1.000000 0.000000 0.166809
1.000000 0.000000 0.168976
