LUTs/Green Waters Fix.cube
#Created by: Adobe Photoshop Export Color Lookup Plugin
#Copyright: (C) Copyright 2018 ©Sergey Zhmakin
TITLE "Green Waters Fix"
#LUT size
LUT_3D_SIZE 8
#data domain
DOMAIN_MIN 0.0 0.0 0.0
DOMAIN_MAX 1.0 1.0 1.0
#LUT data points
0.000000 0.000000 0.000000
0.213013 0.000000 0.069427
0.532684 0.000000 0.177307
0.799744 0.000000 0.269836
1.000000 0.000000 0.163391
1.000000 0.000000 0.165497
1.000000 0.000000 0.181824
1.000000 0.000000 0.191437
0.097382 0.047394 0.061737
0.143585 0.048218 0.081757
0.538605 0.000000 0.195831
0.813232 0.000000 0.261932
1.000000 0.000000 0.161194
1.000000 0.000000 0.164795
1.000000 0.000000 0.180969
1.000000 0.000000 0.190491
0.406036 0.290405 0.424103
0.393738 0.288971 0.420441
0.446289 0.265717 0.425354
0.746246 0.000000 0.465881
1.000000 0.000000 0.285004
1.000000 0.000000 0.164490
1.000000 0.000000 0.180237
1.000000 0.000000 0.184418
0.591492 0.497711 0.640564
0.584808 0.496613 0.643890
0.580902 0.495178 0.647003
0.651001 0.478394 0.622192
0.892792 0.434540 0.469055
1.000000 0.376343 0.284576
1.000000 0.356659 0.196808
1.000000 0.350403 0.201447
0.761871 0.696350 0.524780
0.760040 0.695923 0.529724
0.757690 0.695618 0.539124
0.762756 0.695953 0.536011
0.795959 0.687592 0.515442
1.000000 0.660278 0.392242
1.000000 0.633362 0.269501
1.000000 0.618317 0.256287
0.896088 0.866058 0.476563
0.895111 0.865417 0.476807
0.893494 0.864441 0.478302
0.892670 0.864258 0.481812
0.892853 0.865051 0.481873
0.923950 0.858002 0.463074
1.000000 0.822937 0.330963
1.000000 0.819000 0.332458
0.974396 0.981384 0.470032
0.974365 0.981567 0.470551
0.974243 0.981842 0.471985
0.974091 0.981659 0.473663
0.973389 0.981750 0.477417
0.973297 0.981842 0.478882
0.977173 0.981018 0.467926
1.000000 0.975616 0.442627
1.000000 0.998932 0.455139
1.000000 0.998901 0.455688
1.000000 0.998657 0.457001
1.000000 0.997955 0.459900
1.000000 0.997314 0.465240
1.000000 0.996796 0.475372
1.000000 0.996613 0.480377
1.000000 0.997375 0.469696
0.065613 0.000000 0.253296
0.185272 0.000000 0.259918
0.539337 0.000000 0.223633
0.803497 0.000000 0.288239
1.000000 0.000000 0.171051
1.000000 0.000000 0.168182
1.000000 0.000000 0.186310
1.000000 0.000000 0.196075
0.043030 0.016205 0.079559
0.028809 0.021912 0.037079
0.540985 0.000000 0.222015
0.815216 0.000000 0.280090
1.000000 0.000000 0.170776
1.000000 0.000000 0.167786
1.000000 0.000000 0.185577
1.000000 0.000000 0.195465
0.362732 0.279633 0.416107
0.368408 0.278961 0.417084
0.424622 0.260315 0.421112
0.742493 0.000000 0.477509
1.000000 0.000000 0.289856
1.000000 0.000000 0.167603
1.000000 0.000000 0.184204
1.000000 0.000000 0.188904
0.562531 0.493683 0.662659
0.555420 0.493713 0.665436
0.559601 0.491730 0.665466
0.637726 0.475250 0.642090
0.892426 0.424744 0.485077
1.000000 0.369629 0.303345
1.000000 0.343872 0.219696
1.000000 0.341827 0.218109
0.751160 0.693481 0.550110
0.749329 0.692841 0.554474
0.744598 0.691772 0.565369
0.749969 0.692902 0.560516
0.787231 0.686584 0.542023
1.000000 0.658295 0.427155
1.000000 0.631714 0.286346
1.000000 0.612793 0.281982
0.885101 0.863739 0.495026
0.884491 0.863647 0.495728
0.883453 0.863434 0.497467
0.883301 0.863434 0.498810
0.884338 0.864471 0.497284
0.908173 0.859192 0.481873
1.000000 0.820251 0.345612
1.000000 0.816772 0.344910
0.972137 0.981659 0.481567
0.972107 0.981812 0.482452
0.972076 0.981995 0.484406
0.971985 0.981934 0.486633
0.971649 0.981964 0.487701
0.971771 0.982117 0.487549
0.975189 0.981293 0.480865
1.000000 0.974609 0.454437
1.000000 0.999359 0.465271
1.000000 0.999390 0.466248
1.000000 0.999115 0.468567
1.000000 0.998444 0.472321
1.000000 0.997742 0.476898
1.000000 0.997040 0.482574
1.000000 0.996826 0.486542
1.000000 0.997772 0.479218
0.128357 0.000000 0.579803
0.168823 0.000000 0.574585
0.389618 0.000000 0.524811
0.723175 0.000000 0.533630
1.000000 0.000000 0.321533
1.000000 0.000000 0.179169
1.000000 0.000000 0.194366
1.000000 0.000000 0.204956
0.115784 0.000000 0.571167
0.127411 0.000000 0.562958
0.376556 0.000000 0.510864
0.725159 0.000000 0.533569
1.000000 0.000000 0.318512
1.000000 0.000000 0.177185
1.000000 0.000000 0.194031
1.000000 0.000000 0.204803
0.155121 0.204285 0.478607
0.164368 0.198425 0.476593
0.195435 0.187561 0.467468
0.662689 0.000000 0.518188
0.991425 0.000000 0.335083
1.000000 0.000000 0.178162
1.000000 0.000000 0.192657
1.000000 0.000000 0.204071
0.462067 0.473755 0.671661
0.466278 0.473846 0.671692
0.482544 0.474884 0.675873
0.574219 0.453674 0.683502
0.874451 0.391296 0.525970
1.000000 0.319702 0.341858
1.000000 0.289520 0.244843
1.000000 0.276123 0.244690
0.681091 0.680695 0.649475
0.680939 0.680298 0.649963
0.682312 0.678131 0.650757
0.689941 0.678070 0.647491
0.753113 0.668854 0.616608
1.000000 0.643036 0.488831
1.000000 0.610687 0.325165
1.000000 0.590881 0.319794
0.843506 0.855682 0.541962
0.843353 0.855896 0.542023
0.842743 0.855530 0.542450
0.842041 0.855316 0.542694
0.841522 0.855713 0.543030
0.862671 0.855133 0.534973
1.000000 0.810974 0.375854
1.000000 0.806213 0.376434
0.964447 0.980774 0.510406
0.964478 0.980804 0.510498
0.964874 0.980713 0.510345
0.965546 0.980652 0.510254
0.965057 0.980774 0.511261
0.965363 0.980957 0.511536
0.970612 0.980103 0.507599
1.000000 0.969696 0.474915
1.000000 1.000000 0.495331
1.000000 1.000000 0.495453
1.000000 1.000000 0.496216
1.000000 0.999451 0.497803
1.000000 0.998505 0.498932
0.998352 0.997711 0.501556
0.997803 0.997528 0.505157
1.000000 0.998596 0.499268
0.177612 0.000000 0.771027
0.177795 0.000000 0.770081
0.242340 0.000000 0.772522
0.635742 0.000000 0.744476
0.909393 0.000000 0.667114
1.000000 0.000000 0.561066
1.000000 0.000000 0.467102
1.000000 0.000000 0.421082
0.177856 0.001678 0.773956
0.179718 0.001740 0.774323
0.251221 0.005493 0.775574
0.637085 0.000000 0.750824
0.900269 0.000000 0.669952
1.000000 0.000000 0.558716
1.000000 0.000000 0.471893
1.000000 0.000000 0.417877
0.194916 0.049744 0.762573
0.195007 0.044617 0.761810
0.238373 0.026398 0.754852
0.581360 0.000000 0.715149
0.884247 0.000000 0.648956
1.000000 0.000000 0.534393
1.000000 0.000000 0.442596
1.000000 0.000000 0.401062
0.325104 0.374329 0.737915
0.324463 0.374237 0.735870
0.336823 0.371124 0.730499
0.392365 0.355072 0.721191
0.811005 0.239288 0.681427
1.000000 0.085907 0.535767
1.000000 0.085968 0.444519
1.000000 0.086853 0.421021
0.593018 0.613983 0.792480
0.592926 0.614105 0.791840
0.594421 0.615204 0.791260
0.604645 0.614594 0.792480
0.700439 0.609131 0.756653
0.975983 0.566711 0.636230
1.000000 0.530823 0.484772
1.000000 0.513184 0.476349
0.755585 0.836304 0.598816
0.755615 0.835999 0.599030
0.756195 0.835327 0.599487
0.757050 0.835480 0.599487
0.757599 0.836273 0.599548
0.826996 0.826538 0.601166
1.000000 0.779816 0.475250
1.000000 0.772034 0.445740
0.922424 0.974518 0.535156
0.923035 0.974457 0.535065
0.924530 0.974487 0.534973
0.925354 0.974518 0.535004
0.924469 0.974762 0.535309
0.925903 0.975128 0.535492
0.934296 0.973267 0.535675
1.000000 0.953339 0.494537
0.997925 1.000000 0.523438
0.997681 1.000000 0.523529
0.996643 1.000000 0.524078
0.994965 1.000000 0.525055
0.993134 0.999481 0.526093
0.991516 0.998627 0.527222
0.992554 0.998413 0.527222
1.000000 0.999817 0.522522
0.210876 0.093262 0.704071
0.210541 0.092926 0.711212
0.216827 0.088074 0.794037
0.520782 0.095947 0.881622
0.844757 0.036774 0.850525
1.000000 0.000000 0.809937
1.000000 0.000000 0.750336
1.000000 0.000000 0.729034
0.208801 0.093414 0.725250
0.208832 0.093262 0.728027
0.212341 0.088654 0.784821
0.511047 0.099396 0.880768
0.848755 0.043457 0.848358
1.000000 0.000000 0.809601
1.000000 0.000000 0.743408
1.000000 0.000000 0.725098
0.200623 0.090485 0.767731
0.199280 0.089233 0.769257
0.190979 0.079468 0.790527
0.453766 0.102417 0.869965
0.816772 0.047394 0.842621
1.000000 0.000000 0.801819
1.000000 0.000000 0.734131
1.000000 0.000000 0.712036
0.207428 0.309692 0.912964
0.205688 0.310944 0.913208
0.219788 0.308014 0.911255
0.383942 0.285309 0.900757
0.729492 0.209747 0.846741
0.972168 0.000000 0.788452
1.000000 0.000000 0.713013
1.000000 0.000000 0.683655
0.478607 0.532806 0.914124
0.480042 0.532532 0.913971
0.483643 0.532166 0.913574
0.488922 0.532349 0.915497
0.562164 0.527191 0.904419
0.971527 0.407928 0.785675
1.000000 0.337372 0.680145
1.000000 0.352661 0.669037
0.657410 0.793335 0.762604
0.656342 0.793854 0.762115
0.653870 0.795410 0.761200
0.655151 0.798187 0.760895
0.680115 0.793671 0.770081
0.827698 0.763947 0.785156
1.000000 0.724457 0.692291
1.000000 0.709320 0.662964
0.845856 0.962006 0.611328
0.845978 0.961945 0.611511
0.846893 0.962097 0.611633
0.847656 0.962463 0.611603
0.847961 0.962891 0.611450
0.849365 0.962830 0.611267
0.895935 0.954773 0.613556
1.000000 0.923309 0.565582
0.984009 1.000000 0.578552
0.983704 1.000000 0.578491
0.983124 1.000000 0.578156
0.981995 1.000000 0.578369
0.980988 1.000000 0.578613
0.979980 1.000000 0.578827
0.982025 1.000000 0.579315
0.989349 1.000000 0.576599
0.226929 0.107056 0.697723
0.227539 0.107178 0.699402
0.236420 0.109558 0.723846
0.419678 0.137817 0.909058
0.751282 0.132599 0.948181
0.995087 0.096069 0.943054
1.000000 0.032959 0.927490
1.000000 0.000000 0.924469
0.225861 0.107819 0.701904
0.226471 0.107788 0.702881
0.229431 0.109375 0.715179
0.418945 0.139954 0.911621
0.746948 0.135651 0.948669
0.992645 0.100159 0.942993
1.000000 0.045532 0.929047
1.000000 0.000671 0.922668
0.225555 0.112671 0.735870
0.225769 0.112823 0.736542
0.230042 0.114105 0.745941
0.385254 0.140045 0.900635
0.729309 0.140289 0.950134
0.979767 0.106781 0.941101
1.000000 0.052917 0.923676
1.000000 0.002899 0.915466
0.197052 0.231903 0.949554
0.196533 0.232910 0.950104
0.221161 0.222504 0.946045
0.334198 0.200806 0.948334
0.645172 0.184814 0.955872
0.951019 0.049011 0.920349
1.000000 0.054260 0.909851
1.000000 0.023773 0.908295
0.349701 0.508026 1.000000
0.350800 0.508728 1.000000
0.355286 0.509735 1.000000
0.360901 0.511688 1.000000
0.547943 0.493073 1.000000
0.881409 0.435699 0.952972
1.000000 0.314026 0.904633
1.000000 0.274017 0.878021
0.593384 0.723846 0.942932
0.593964 0.723511 0.943207
0.595673 0.723663 0.942200
0.596283 0.723938 0.939117
0.606171 0.722961 0.936340
0.730774 0.708038 0.910370
1.000000 0.624329 0.804535
1.000000 0.626556 0.777161
0.774078 0.948334 0.693481
0.774445 0.947998 0.693817
0.775146 0.947388 0.694580
0.776276 0.946655 0.695587
0.777435 0.947052 0.696320
0.785309 0.946228 0.695831
0.946259 0.907562 0.687286
1.000000 0.887543 0.668182
0.969025 1.000000 0.613281
0.968048 1.000000 0.613739
0.964172 1.000000 0.615967
0.959564 1.000000 0.618164
0.954071 1.000000 0.621277
0.949188 1.000000 0.623657
0.960632 1.000000 0.619781
0.981934 1.000000 0.613525
0.239655 0.117126 0.710510
0.240814 0.117554 0.715332
0.256805 0.121582 0.759583
0.388275 0.138092 0.888794
0.701202 0.143280 0.962555
0.951324 0.095734 0.959686
1.000000 0.053253 0.965271
1.000000 0.024017 0.966553
0.240326 0.118958 0.725006
0.242920 0.119843 0.734039
0.260559 0.123779 0.775391
0.382202 0.138885 0.888153
0.698334 0.145477 0.962982
0.948853 0.093414 0.959839
1.000000 0.065033 0.965820
1.000000 0.028503 0.966858
0.234619 0.121124 0.735504
0.234619 0.121155 0.735809
0.237091 0.121735 0.743317
0.334991 0.136719 0.864227
0.676178 0.149292 0.965240
0.946808 0.099396 0.960358
1.000000 0.076752 0.967041
1.000000 0.043488 0.967407
0.234375 0.175537 0.906219
0.234802 0.174347 0.903931
0.251251 0.170868 0.901917
0.314911 0.168884 0.920349
0.597931 0.161560 0.965271
0.897858 0.057587 0.967438
1.000000 0.095642 0.968079
1.000000 0.078644 0.968353
0.221344 0.456696 1.000000
0.216766 0.457306 1.000000
0.203064 0.458221 1.000000
0.257782 0.453094 1.000000
0.543549 0.414063 1.000000
0.824158 0.381836 1.000000
1.000000 0.323059 0.990540
1.000000 0.277466 0.982666
0.449493 0.690613 1.000000
0.449524 0.690430 1.000000
0.449677 0.690063 1.000000
0.448578 0.689331 1.000000
0.456909 0.689911 1.000000
0.697784 0.656982 1.000000
1.000000 0.597412 1.000000
1.000000 0.556335 0.997162
0.711334 0.897827 0.941559
0.711334 0.897827 0.943024
0.711212 0.896576 0.949219
0.710449 0.894836 0.960785
0.712067 0.894073 0.960114
0.730835 0.892303 0.951141
0.878937 0.867004 0.927643
1.000000 0.832733 0.880768
0.888000 1.000000 0.764923
0.887115 1.000000 0.765015
0.885101 1.000000 0.765594
0.881042 1.000000 0.768463
0.875580 1.000000 0.773682
0.878204 1.000000 0.774475
0.895020 1.000000 0.765869
0.939240 1.000000 0.746857
0.257416 0.124573 0.741425
0.261444 0.125305 0.751465
0.281708 0.128876 0.790924
0.377594 0.139343 0.879517
0.660553 0.154449 0.967377
0.930481 0.084900 0.970428
1.000000 0.063599 0.971527
1.000000 0.016571 0.971924
0.253876 0.125153 0.741547
0.257629 0.125885 0.750214
0.272644 0.128418 0.779205
0.369507 0.140015 0.878021
0.660583 0.155609 0.967621
0.932617 0.094940 0.971222
1.000000 0.067474 0.971710
1.000000 0.024567 0.972412
0.244446 0.126343 0.735565
0.244781 0.126312 0.737061
0.247131 0.126587 0.744202
0.367035 0.142944 0.885345
0.662903 0.161224 0.969482
0.938995 0.114044 0.969421
1.000000 0.076935 0.973236
1.000000 0.045929 0.973114
0.237183 0.168549 0.893677
0.235229 0.169098 0.894318
0.238159 0.168762 0.894653
0.303833 0.161438 0.904785
0.590210 0.168304 0.969025
0.869934 0.053284 0.982513
1.000000 0.097656 0.974731
1.000000 0.077576 0.973999
0.000000 0.459137 1.000000
0.000000 0.458954 1.000000
0.052032 0.453522 1.000000
0.176392 0.444153 1.000000
0.483917 0.411926 1.000000
0.790344 0.370850 1.000000
1.000000 0.308044 0.997742
1.000000 0.261322 0.990967
0.479187 0.666077 1.000000
0.481323 0.665527 1.000000
0.486877 0.664124 1.000000
0.490631 0.662872 1.000000
0.504089 0.662506 1.000000
0.726563 0.629913 1.000000
1.000000 0.588959 1.000000
1.000000 0.555511 1.000000
0.638794 0.871613 1.000000
0.639343 0.871399 1.000000
0.640045 0.870728 1.000000
0.639130 0.869019 1.000000
0.637390 0.867188 1.000000
0.638214 0.866516 1.000000
0.865723 0.832001 1.000000
1.000000 0.783386 1.000000
0.832886 0.995209 0.976715
0.832489 0.994812 0.976563
0.831604 0.994049 0.976471
0.828278 0.991974 0.975159
0.824707 0.989563 0.973694
0.833740 0.988953 0.971588
0.857666 0.991364 0.977600
1.000000 0.999817 0.999725
