LUTs/Muddy Removal.cube
#Created by: Adobe Photoshop Export Color Lookup Plugin
#Copyright: (C) Copyright 2018 ©Sergey Zhmakin
TITLE "Muddy Removal"
#LUT size
LUT_3D_SIZE 8
#data domain
DOMAIN_MIN 0.0 0.0 0.0
DOMAIN_MAX 1.0 1.0 1.0
#LUT data points
0.000000 0.000000 0.000000
0.122223 0.006744 0.011200
0.263611 0.016907 0.006714
0.420044 0.029968 0.006042
0.572601 0.040131 0.002869
0.771301 0.091095 0.003204
0.878326 0.100372 0.003204
0.879974 0.097992 0.004578
0.052887 0.045837 0.000580
0.061279 0.049957 0.000671
0.237335 0.057739 0.004425
0.397491 0.066254 0.004913
0.561401 0.085266 0.003815
0.763000 0.102417 0.003296
0.874939 0.128967 0.001343
0.881195 0.123566 0.003418
0.144836 0.136169 0.002258
0.147949 0.139038 0.002228
0.151794 0.139587 0.002136
0.323883 0.175720 0.002716
0.531586 0.217590 0.005585
0.740570 0.226135 0.001038
0.896667 0.246857 0.002075
0.910400 0.243469 0.001831
0.315735 0.304901 0.005188
0.317291 0.306396 0.004974
0.326294 0.314514 0.003510
0.342865 0.320709 0.001617
0.505035 0.343719 0.001617
0.715698 0.385406 0.002594
0.878876 0.411438 0.003052
0.900116 0.421448 0.003387
0.480225 0.468658 0.002747
0.482330 0.470703 0.002838
0.487915 0.476471 0.002930
0.500671 0.485535 0.003021
0.514435 0.491669 0.003143
0.677643 0.512939 0.003784
0.888214 0.557343 0.005280
0.943268 0.572052 0.006378
0.684509 0.673767 0.006775
0.684845 0.674194 0.006989
0.687012 0.676514 0.007080
0.694458 0.682404 0.007141
0.709320 0.697205 0.007629
0.720032 0.700409 0.007568
0.864868 0.702606 0.008331
0.922241 0.715088 0.008667
0.877563 0.873688 0.013641
0.877960 0.874298 0.013611
0.879120 0.876129 0.014008
0.880005 0.878632 0.013977
0.883087 0.882751 0.014008
0.893158 0.890869 0.014496
0.894531 0.884338 0.013977
0.966431 0.876740 0.013611
0.981415 0.979919 0.017975
0.981415 0.979919 0.017975
0.981049 0.979797 0.018036
0.963379 0.968140 0.017303
0.951233 0.958191 0.016968
0.947021 0.953400 0.016510
0.952545 0.952942 0.016663
0.969086 0.963776 0.017334
0.047760 0.003296 0.162659
0.125427 0.002808 0.111115
0.316406 0.004333 0.071045
0.434570 0.013336 0.036346
0.585724 0.026093 0.022827
0.775879 0.053314 0.013794
0.885559 0.059631 0.009552
0.886566 0.058899 0.018036
0.042511 0.028870 0.020111
0.048584 0.024689 0.023163
0.268890 0.022339 0.022614
0.414154 0.026581 0.021576
0.579041 0.057617 0.018402
0.770905 0.069214 0.003265
0.884918 0.076172 0.009033
0.887177 0.082214 0.010010
0.139282 0.134644 0.002289
0.142639 0.137421 0.002228
0.153412 0.138123 0.002197
0.336121 0.172638 0.002930
0.547607 0.206177 0.005646
0.755341 0.202393 0.000885
0.902802 0.208923 0.002899
0.909668 0.207062 0.003571
0.317139 0.307159 0.004791
0.318573 0.308380 0.004608
0.327911 0.316498 0.003204
0.342865 0.319061 0.001862
0.514648 0.343628 0.001709
0.723328 0.383392 0.002716
0.886749 0.404419 0.003296
0.901703 0.412292 0.003540
0.480957 0.470184 0.002716
0.482758 0.472076 0.002808
0.487915 0.477631 0.002899
0.500580 0.485443 0.003021
0.513855 0.491302 0.003082
0.689606 0.513428 0.003845
0.893341 0.556732 0.005341
0.944153 0.567505 0.006317
0.682556 0.673309 0.006836
0.683319 0.674225 0.006958
0.686188 0.677094 0.006989
0.693695 0.682434 0.007263
0.707947 0.696045 0.007568
0.721161 0.702362 0.007599
0.867340 0.702423 0.008362
0.921631 0.713226 0.008575
0.875275 0.874786 0.013641
0.875458 0.875153 0.013916
0.876221 0.876709 0.013947
0.877350 0.879456 0.014008
0.881195 0.883026 0.014099
0.891388 0.890839 0.014465
0.894012 0.884155 0.014008
0.966614 0.876373 0.013519
0.981171 0.979797 0.017761
0.980896 0.979706 0.018005
0.979828 0.979279 0.018036
0.961945 0.968628 0.017395
0.950012 0.958374 0.017029
0.945923 0.953430 0.016724
0.952057 0.953064 0.016693
0.968872 0.963654 0.017151
0.089050 0.008575 0.309204
0.154694 0.000275 0.308685
0.281586 0.000427 0.277283
0.460114 0.000793 0.241638
0.659393 0.002563 0.206696
0.853577 0.006836 0.197388
0.907227 0.007935 0.198517
0.908447 0.007843 0.214539
0.047150 0.023804 0.327484
0.094574 0.018951 0.309937
0.274170 0.000336 0.261261
0.457428 0.000793 0.224915
0.640625 0.002289 0.195648
0.835052 0.006500 0.190796
0.906830 0.008453 0.191315
0.908722 0.008636 0.199799
0.093323 0.096497 0.068024
0.093811 0.096985 0.070129
0.100769 0.061554 0.054413
0.392212 0.070526 0.109039
0.589844 0.042816 0.102448
0.800354 0.064728 0.106964
0.926422 0.042297 0.118500
0.928101 0.023041 0.141449
0.301056 0.309418 0.007904
0.304321 0.311707 0.006134
0.309235 0.314850 0.003082
0.332855 0.310730 0.002502
0.540039 0.324768 0.003510
0.758667 0.350677 0.013031
0.913635 0.347565 0.003815
0.920074 0.342529 0.004303
0.470703 0.474731 0.002838
0.472473 0.476318 0.002899
0.476105 0.479279 0.002960
0.481384 0.485016 0.002991
0.504211 0.484955 0.002991
0.718506 0.510590 0.004059
0.920197 0.549255 0.005524
0.966553 0.556396 0.006531
0.670135 0.673248 0.007019
0.671448 0.674652 0.006897
0.674652 0.677765 0.007111
0.679962 0.680878 0.007233
0.690674 0.694519 0.007538
0.714081 0.704742 0.007751
0.874725 0.698547 0.008087
0.921814 0.706635 0.008606
0.864929 0.877167 0.014008
0.865753 0.878235 0.014038
0.866943 0.879883 0.014038
0.868896 0.882446 0.014038
0.871613 0.883881 0.014252
0.882690 0.889984 0.014435
0.887329 0.883331 0.013855
0.967010 0.875153 0.013336
0.971191 0.977722 0.017792
0.970795 0.977631 0.017975
0.969421 0.977417 0.017609
0.956879 0.970764 0.017517
0.945740 0.958893 0.016693
0.942261 0.953461 0.016815
0.949188 0.952789 0.016693
0.968658 0.963593 0.017090
0.149139 0.000000 0.441010
0.186005 0.000000 0.449738
0.299927 0.000000 0.464752
0.442627 0.000763 0.436890
0.639313 0.002930 0.431488
0.847504 0.006073 0.447449
0.915497 0.008057 0.450806
0.915802 0.007813 0.459534
0.094940 0.000000 0.478851
0.151733 0.000000 0.467926
0.302704 0.000061 0.456238
0.440674 0.000610 0.429840
0.648773 0.003204 0.428589
0.849792 0.006134 0.437256
0.915131 0.008301 0.439758
0.915955 0.008148 0.451965
0.116241 0.096558 0.419830
0.119293 0.095306 0.435211
0.186066 0.058624 0.422363
0.429108 0.000580 0.413574
0.669312 0.003021 0.389404
0.859222 0.007477 0.389282
0.934357 0.007263 0.390442
0.934784 0.007690 0.409760
0.225342 0.244324 0.196747
0.226196 0.245209 0.197205
0.224426 0.241364 0.198517
0.250305 0.180969 0.158813
0.617310 0.186737 0.248138
0.836456 0.090881 0.227020
0.957733 0.093567 0.238129
0.962036 0.052002 0.250732
0.443420 0.475494 0.067627
0.444885 0.476685 0.065399
0.448273 0.479675 0.059967
0.449921 0.483978 0.045258
0.504883 0.474854 0.002655
0.754791 0.491974 0.044250
0.958527 0.485596 0.099060
0.969025 0.471375 0.113495
0.654022 0.680115 0.007904
0.655457 0.681366 0.007874
0.658600 0.683960 0.007477
0.663422 0.686127 0.007019
0.657471 0.684814 0.007111
0.690308 0.695801 0.007233
0.889587 0.690308 0.007690
0.929413 0.693298 0.008453
0.847717 0.882172 0.013794
0.848450 0.882904 0.014099
0.849945 0.884521 0.014404
0.852295 0.886292 0.014923
0.852936 0.886414 0.014496
0.859650 0.890839 0.014008
0.869049 0.889160 0.014130
0.970459 0.871918 0.013458
0.958679 0.976288 0.017365
0.958282 0.976257 0.017639
0.957367 0.976166 0.017395
0.950256 0.973053 0.017181
0.937897 0.962219 0.016937
0.933411 0.953888 0.016357
0.943726 0.952667 0.016907
0.970581 0.965210 0.017487
0.180237 0.000000 0.566467
0.218475 0.000000 0.579712
0.324646 0.000000 0.617126
0.463104 0.002136 0.662872
0.637207 0.003845 0.631622
0.832794 0.007599 0.643555
0.927795 0.008667 0.660095
0.928284 0.008636 0.665649
0.145569 0.000153 0.616119
0.208252 0.000000 0.609467
0.333191 0.000000 0.615845
0.474701 0.001343 0.637787
0.642365 0.004028 0.642822
0.835358 0.007935 0.642944
0.927826 0.008392 0.659760
0.927917 0.008575 0.660889
0.111450 0.082550 0.662933
0.104645 0.079834 0.650391
0.251923 0.015961 0.628326
0.472595 0.004089 0.628571
0.654877 0.002716 0.638580
0.864777 0.006866 0.635376
0.943024 0.009186 0.631927
0.941956 0.009033 0.633789
0.172089 0.282623 0.577454
0.170593 0.282074 0.583038
0.163361 0.276062 0.610352
0.349457 0.219025 0.615295
0.640503 0.096161 0.614410
0.886841 0.010406 0.578522
0.975708 0.009613 0.562408
0.977081 0.009003 0.567596
0.402863 0.459351 0.400421
0.403259 0.459869 0.402557
0.402924 0.460236 0.411682
0.398193 0.457397 0.428314
0.470062 0.418549 0.404388
0.834076 0.384277 0.422302
0.973541 0.333130 0.413330
0.972595 0.305389 0.426392
0.623291 0.691254 0.229950
0.624298 0.692688 0.233398
0.626892 0.695984 0.240417
0.630035 0.698456 0.246246
0.638397 0.702057 0.225250
0.712341 0.689026 0.137543
0.918976 0.668518 0.228363
0.952209 0.654663 0.255127
0.824524 0.886169 0.123840
0.825409 0.886932 0.126038
0.827667 0.888824 0.131226
0.830383 0.890961 0.137543
0.832733 0.890930 0.131195
0.831848 0.892151 0.074036
0.853912 0.884705 0.030182
0.980591 0.866913 0.065826
0.945465 0.975037 0.096222
0.945068 0.975037 0.099762
0.944397 0.975067 0.108124
0.942902 0.974579 0.117401
0.928619 0.965424 0.125397
0.921082 0.955505 0.119598
0.936310 0.953308 0.094666
0.973419 0.968079 0.017120
0.227783 0.000000 0.694031
0.263092 0.000000 0.704254
0.362518 0.000214 0.732147
0.475769 0.001465 0.796478
0.627563 0.003326 0.814728
0.820313 0.006805 0.812927
0.945465 0.010162 0.830627
0.947784 0.010590 0.845093
0.209564 0.000000 0.742737
0.254578 0.000000 0.738403
0.350769 0.000427 0.768250
0.490479 0.001556 0.794067
0.635803 0.003937 0.825714
0.826630 0.007263 0.813721
0.946747 0.010132 0.834259
0.950409 0.010406 0.845825
0.126312 0.036743 0.825714
0.151031 0.032440 0.818237
0.297028 0.014740 0.793884
0.514862 0.001678 0.783081
0.661285 0.003021 0.817474
0.849396 0.008453 0.848663
0.982910 0.010803 0.835358
0.977692 0.010773 0.840881
0.159210 0.232697 0.839661
0.153778 0.229462 0.844543
0.149780 0.217743 0.837585
0.396423 0.153748 0.810913
0.636688 0.082642 0.835327
0.857208 0.009918 0.827759
0.955780 0.010712 0.821045
0.958374 0.010773 0.811523
0.324738 0.465210 0.741180
0.324219 0.465546 0.742950
0.315704 0.463501 0.754852
0.300232 0.451599 0.784515
0.512695 0.410553 0.816528
0.835785 0.346405 0.810394
0.981934 0.233398 0.753265
0.973175 0.206665 0.736359
0.597168 0.697998 0.619781
0.597565 0.698608 0.622406
0.598480 0.700531 0.631897
0.597473 0.701935 0.653046
0.589172 0.698364 0.660767
0.698730 0.669281 0.659576
0.955933 0.630676 0.659302
0.965607 0.623138 0.668243
0.802338 0.890900 0.485168
0.803162 0.891815 0.489197
0.805359 0.893921 0.498688
0.808411 0.896881 0.512848
0.809784 0.895935 0.528473
0.804138 0.892151 0.518188
0.875763 0.872375 0.455566
0.971069 0.855255 0.483002
0.928345 0.972626 0.345551
0.928070 0.972595 0.350616
0.926788 0.972351 0.369263
0.924835 0.972076 0.394928
0.912781 0.964691 0.421265
0.900818 0.956696 0.426575
0.914520 0.955383 0.380402
0.957367 0.967072 0.230347
0.239563 0.000000 0.714600
0.270721 0.000000 0.738617
0.357239 0.000336 0.801636
0.478699 0.000946 0.888611
0.598969 0.003571 0.919830
0.787201 0.007446 0.923309
0.929535 0.010162 0.921295
0.954559 0.011169 0.935089
0.226593 0.000488 0.847900
0.261902 0.000153 0.851044
0.348816 0.000458 0.877350
0.504456 0.001831 0.890686
0.623627 0.003387 0.921295
0.791473 0.007385 0.919556
0.939697 0.010590 0.928375
0.960022 0.011322 0.939941
0.157043 0.025543 0.942902
0.169067 0.024567 0.938934
0.294800 0.004303 0.905640
0.492645 0.001221 0.920135
0.647980 0.004425 0.924011
0.810852 0.007050 0.938385
0.978241 0.012177 0.949280
0.982635 0.012726 0.948334
0.180817 0.204437 0.946960
0.180237 0.202881 0.948303
0.221405 0.187408 0.935394
0.414124 0.132599 0.929443
0.635437 0.040894 0.933289
0.818726 0.015778 0.953674
0.946381 0.011139 0.939148
0.953522 0.011292 0.936737
0.318604 0.442596 0.949615
0.318207 0.442444 0.951080
0.311768 0.433258 0.956360
0.292084 0.403961 0.953705
0.572510 0.364899 0.925354
0.820129 0.337952 0.936951
0.984039 0.262665 0.967896
0.975586 0.215179 0.959137
0.561493 0.700256 0.906097
0.561523 0.700531 0.907776
0.561340 0.700745 0.912415
0.555542 0.695618 0.922821
0.535461 0.676025 0.939850
0.714478 0.649231 0.936127
0.941986 0.614044 0.936157
0.962097 0.575897 0.926788
0.789368 0.895294 0.828827
0.790222 0.895966 0.832062
0.791626 0.897430 0.845306
0.793945 0.900116 0.872528
0.789001 0.898529 0.888611
0.770935 0.891479 0.887146
0.881989 0.870453 0.864563
0.979828 0.849731 0.870270
0.894165 0.970825 0.709045
0.893555 0.970825 0.714264
0.892212 0.970886 0.727661
0.889557 0.971008 0.750885
0.881104 0.967316 0.779114
0.869781 0.958252 0.790222
0.883942 0.959045 0.773682
0.935242 0.975159 0.669678
0.246704 0.000000 0.714386
0.275726 0.000000 0.750671
0.352234 0.000214 0.830414
0.485382 0.001923 0.866180
0.592102 0.003510 0.929291
0.730621 0.006226 0.964447
0.908447 0.010071 0.938843
0.956909 0.011841 0.943390
0.243713 0.000732 0.875305
0.265808 0.001160 0.892609
0.343323 0.001251 0.922089
0.505341 0.000488 0.925537
0.603638 0.003326 0.947266
0.727112 0.005341 0.959625
0.919617 0.010315 0.941345
0.962677 0.011810 0.947021
0.107513 0.011383 0.972046
0.110077 0.007721 0.971619
0.272614 0.006287 0.945557
0.449097 0.004852 0.945923
0.656372 0.003784 0.950256
0.785309 0.007202 0.941254
0.958618 0.011322 0.952209
0.985413 0.012604 0.952759
0.177002 0.195709 0.954407
0.176514 0.194855 0.954926
0.184509 0.185028 0.953522
0.378876 0.136292 0.937134
0.611603 0.047852 0.949402
0.802887 0.016571 0.954468
0.926361 0.020294 0.940063
0.952240 0.011322 0.939972
0.305298 0.426758 0.957794
0.302704 0.424133 0.958069
0.292328 0.414398 0.959534
0.275848 0.386322 0.955597
0.555786 0.347931 0.943481
0.826050 0.319275 0.944000
0.977203 0.272369 0.967590
0.980469 0.252167 0.967590
0.546143 0.688843 0.959656
0.545776 0.688446 0.959778
0.544159 0.686798 0.960175
0.538147 0.678253 0.963074
0.510925 0.657837 0.969971
0.776031 0.618958 0.950195
0.940796 0.606995 0.942749
0.961243 0.587677 0.944458
0.778381 0.891907 0.949951
0.778656 0.892151 0.950073
0.779114 0.892517 0.950714
0.778961 0.892365 0.950775
0.769470 0.886810 0.962128
0.746643 0.872986 0.984222
0.874908 0.854126 0.979919
0.963318 0.835144 0.969696
0.887177 0.973206 0.943939
0.887238 0.973297 0.946747
0.887573 0.973450 0.954407
0.887665 0.973602 0.964325
0.883545 0.971832 0.964844
0.868835 0.963196 0.955963
0.889832 0.966461 0.962402
0.999939 1.000000 0.999817
