LUTs/Muddy Removal.cube
#Created by: Adobe Photoshop Export Color Lookup Plugin
#Copyright: (C) Copyright 2018 ©Sergey Zhmakin
TITLE "Muddy Removal"
#LUT size
LUT_3D_SIZE 4
#data domain
DOMAIN_MIN 0.0 0.0 0.0
DOMAIN_MAX 1.0 1.0 1.0
#LUT data points
0.000000 0.000000 0.000000
0.316223 0.019409 0.002747
0.701263 0.078308 0.005676
0.879974 0.097992 0.004578
0.187592 0.175415 0.004639
0.200195 0.183105 0.006775
0.666016 0.275116 0.001282
0.917816 0.312775 0.002258
0.619995 0.607452 0.005341
0.620239 0.608795 0.005402
0.647369 0.631531 0.005951
0.919098 0.668060 0.007965
0.981415 0.979919 0.017975
0.978027 0.977356 0.017914
0.948425 0.955261 0.016815
0.969086 0.963776 0.017334
0.114807 0.003204 0.353455
0.332062 0.000305 0.326385
0.811737 0.004944 0.286774
0.912964 0.007202 0.300903
0.127625 0.129669 0.095032
0.153259 0.100739 0.090149
0.747559 0.069244 0.140930
0.960541 0.028168 0.190125
0.600739 0.611908 0.005493
0.604767 0.615265 0.005493
0.624451 0.626373 0.005737
0.926758 0.651215 0.007507
0.965729 0.976898 0.017548
0.964172 0.976715 0.017548
0.941040 0.956024 0.016541
0.968933 0.963837 0.017212
0.209808 0.000000 0.661469
0.396088 0.000000 0.716278
0.765961 0.005920 0.759216
0.942444 0.009277 0.790588
0.158936 0.116333 0.791138
0.316345 0.035126 0.748016
0.801758 0.006165 0.784119
0.978607 0.011810 0.766479
0.530823 0.617004 0.531128
0.529266 0.619659 0.561157
0.617706 0.577789 0.564911
0.978546 0.530792 0.591339
0.935272 0.974182 0.200745
0.933838 0.973816 0.239349
0.916840 0.959717 0.299683
0.963135 0.967010 0.149536
0.246704 0.000000 0.714386
0.389771 0.000305 0.847778
0.694366 0.006561 0.971985
0.956909 0.011841 0.943390
0.185089 0.080139 0.935028
0.298309 0.041321 0.947388
0.746338 0.007141 0.945221
0.978638 0.012482 0.949982
0.458588 0.612244 0.954895
0.450989 0.604279 0.951385
0.685394 0.541870 0.967529
0.958069 0.489166 0.944733
0.887177 0.973206 0.943939
0.887756 0.973511 0.958099
0.872589 0.965851 0.958923
0.999939 1.000000 0.999817
