LUTs/Muddy Removal.cube
#Created by: Adobe Photoshop Export Color Lookup Plugin
#Copyright: (C) Copyright 2018 ©Sergey Zhmakin
TITLE "Muddy Removal"
#LUT size
LUT_3D_SIZE 64
#data domain
DOMAIN_MIN 0.0 0.0 0.0
DOMAIN_MAX 1.0 1.0 1.0
#LUT data points
0.000000 0.000000 0.000000
0.002899 0.000000 0.000031
0.007629 0.000031 0.000061
0.014496 0.000122 0.000244
0.025421 0.000397 0.000671
0.044495 0.001007 0.001770
0.066345 0.002106 0.003815
0.089386 0.003937 0.006989
0.105347 0.005341 0.009064
0.122223 0.006744 0.011200
0.139923 0.008453 0.012146
0.156860 0.009155 0.010864
0.171417 0.007599 0.007263
0.185547 0.003571 0.005096
0.200562 0.004425 0.006348
0.216248 0.008240 0.007599
0.232117 0.011261 0.008148
0.248138 0.014313 0.007843
0.263611 0.016907 0.006714
0.280151 0.019104 0.005432
0.298340 0.020477 0.003235
0.316223 0.019409 0.002747
0.334381 0.018036 0.002594
0.351746 0.015503 0.002441
0.368896 0.015015 0.003357
0.386200 0.015747 0.004639
0.402802 0.021790 0.005463
0.420044 0.029968 0.006042
0.437347 0.037964 0.006165
0.455200 0.045013 0.005829
0.473511 0.049591 0.004730
0.490387 0.051514 0.003326
0.505920 0.049957 0.002472
0.521545 0.045441 0.002075
0.536621 0.041321 0.001617
0.551605 0.038025 0.001190
0.572601 0.040131 0.002869
0.592896 0.044281 0.004303
0.613708 0.047607 0.005310
0.634796 0.050323 0.006073
0.656464 0.059479 0.006378
0.678650 0.069763 0.006256
0.701263 0.078308 0.005676
0.724579 0.085999 0.004761
0.748779 0.090393 0.003967
0.771301 0.091095 0.003204
0.792969 0.089935 0.002563
0.813293 0.087463 0.002014
0.833374 0.084198 0.001465
0.845154 0.086182 0.001495
0.852905 0.089722 0.001709
0.859192 0.094818 0.002167
0.865417 0.099518 0.002655
0.871460 0.103119 0.003235
0.878326 0.100372 0.003204
0.878967 0.096954 0.003021
0.878723 0.098419 0.002716
0.878693 0.098572 0.002686
0.878693 0.098358 0.002686
0.879181 0.095917 0.003235
0.879608 0.093719 0.003662
0.880035 0.091766 0.004120
0.879883 0.094482 0.004395
0.879974 0.097992 0.004578
0.000000 0.000000 0.000000
0.000000 0.000000 0.000000
0.002838 0.000031 0.000031
0.008667 0.000061 0.000122
0.018494 0.000214 0.000366
0.034210 0.000671 0.001190
0.056915 0.001556 0.002777
0.080688 0.003235 0.005554
0.101898 0.005157 0.008545
0.119781 0.006805 0.010590
0.138214 0.008484 0.011841
0.154785 0.009186 0.010559
0.169373 0.008148 0.006805
0.183655 0.004333 0.004974
0.197937 0.003448 0.006012
0.213470 0.007813 0.007324
0.229675 0.010864 0.007904
0.245850 0.014099 0.007629
0.262512 0.016754 0.006805
0.280212 0.019165 0.005371
0.298096 0.020447 0.003174
0.315887 0.019470 0.002777
0.333496 0.018127 0.002594
0.350708 0.015778 0.002411
0.367889 0.015045 0.003326
0.385040 0.015808 0.004486
0.401947 0.021484 0.005432
0.419922 0.029938 0.005981
0.437592 0.038177 0.006165
0.455322 0.045227 0.005676
0.473663 0.049805 0.004639
0.489502 0.051605 0.003296
0.505066 0.050201 0.002472
0.520630 0.045807 0.002136
0.535797 0.041412 0.001678
0.550690 0.037933 0.001129
0.571747 0.039734 0.002869
0.592438 0.044250 0.004272
0.613251 0.047577 0.005310
0.634277 0.050354 0.006104
0.655914 0.059692 0.006348
0.677948 0.069702 0.006226
0.700684 0.078430 0.005646
0.723999 0.086121 0.004822
0.747620 0.090332 0.003937
0.770172 0.091095 0.003204
0.792023 0.090088 0.002594
0.812988 0.087555 0.002014
0.833038 0.084229 0.001526
0.844971 0.086029 0.001465
0.852295 0.090759 0.001709
0.858551 0.096436 0.002167
0.864838 0.101288 0.002625
0.871094 0.104828 0.003143
0.878052 0.101898 0.003052
0.878693 0.098755 0.002899
0.878632 0.098846 0.002655
0.878632 0.098846 0.002655
0.878693 0.098572 0.002686
0.879150 0.096039 0.003235
0.879578 0.093872 0.003662
0.879852 0.092712 0.004120
0.879761 0.096313 0.004364
0.879913 0.099518 0.004517
0.000000 0.000000 0.000000
0.000000 0.000000 0.000000
0.000000 0.000000 0.000000
0.001923 0.000000 0.000031
0.011017 0.000092 0.000153
0.025909 0.000427 0.000732
0.047424 0.001160 0.001984
0.072327 0.002686 0.004333
0.098846 0.005096 0.007904
0.118591 0.006958 0.010284
0.135559 0.008667 0.011230
0.150818 0.009735 0.010376
0.167145 0.008636 0.006622
0.181793 0.005005 0.004852
0.195557 0.002502 0.005646
0.211151 0.007385 0.006989
0.227356 0.010529 0.007660
0.243713 0.013824 0.007385
0.261169 0.016541 0.006836
0.279663 0.019073 0.005463
0.297913 0.020447 0.003204
0.315338 0.019501 0.002716
0.332581 0.018311 0.002655
0.349823 0.016022 0.002472
0.366882 0.015045 0.003174
0.383972 0.015900 0.004395
0.401245 0.021179 0.005341
0.419098 0.029785 0.005920
0.437622 0.038361 0.006073
0.455475 0.045441 0.005676
0.473358 0.049805 0.004608
0.488708 0.051636 0.003326
0.504272 0.050385 0.002533
0.519775 0.046173 0.002167
0.534912 0.041687 0.001740
0.549957 0.038025 0.001190
0.570770 0.039764 0.002747
0.591919 0.044098 0.004242
0.612671 0.047729 0.005249
0.633698 0.050934 0.006012
0.655396 0.059784 0.006439
0.677307 0.069763 0.006256
0.699921 0.078613 0.005676
0.723114 0.086273 0.004791
0.746613 0.090332 0.003998
0.769135 0.091217 0.003235
0.791138 0.090149 0.002563
0.812592 0.087494 0.002014
0.832642 0.084381 0.001556
0.844849 0.086060 0.001465
0.851501 0.092072 0.001709
0.857910 0.097992 0.002197
0.864349 0.103058 0.002655
0.870819 0.106293 0.003113
0.877777 0.103394 0.002930
0.878418 0.100281 0.002747
0.878510 0.099457 0.002502
0.878510 0.099457 0.002502
0.878693 0.098572 0.002686
0.879150 0.096039 0.003235
0.879578 0.093872 0.003662
0.879608 0.094635 0.003998
0.879669 0.098267 0.004272
0.879913 0.101105 0.004456
0.000000 0.000000 0.000000
0.000000 0.000000 0.000000
0.000000 0.000000 0.000000
0.000336 0.000000 0.000031
0.001740 0.000061 0.000000
0.016876 0.000275 0.000397
0.039154 0.000824 0.001404
0.066864 0.002289 0.003754
0.094177 0.004669 0.007294
0.116425 0.006897 0.009979
0.132080 0.008881 0.010803
0.146912 0.011078 0.009521
0.162659 0.010193 0.007141
0.177917 0.006805 0.004700
0.193207 0.002472 0.005432
0.208984 0.007111 0.006775
0.225433 0.010162 0.007538
0.242462 0.013611 0.007385
0.260284 0.016418 0.006897
0.278748 0.018982 0.005554
0.297211 0.020416 0.003387
0.314667 0.019562 0.002747
0.331604 0.018402 0.002655
0.348633 0.016541 0.002441
0.365662 0.015686 0.003113
0.382813 0.016296 0.004303
0.400360 0.020874 0.005280
0.418213 0.029541 0.005829
0.436829 0.038361 0.005951
0.455627 0.045624 0.005585
0.472534 0.049774 0.004669
0.488007 0.051605 0.003387
0.503448 0.050537 0.002563
0.518982 0.046417 0.002167
0.534088 0.041748 0.001770
0.549286 0.038330 0.001160
0.569977 0.040955 0.002747
0.591125 0.045074 0.004211
0.612213 0.049164 0.005310
0.633362 0.053192 0.006012
0.654846 0.060394 0.006439
0.676514 0.069702 0.006226
0.699097 0.078552 0.005676
0.722290 0.086395 0.004883
0.745453 0.090454 0.004059
0.768188 0.091339 0.003265
0.790192 0.090302 0.002625
0.811676 0.087646 0.002075
0.832184 0.084381 0.001556
0.844269 0.086517 0.001495
0.850647 0.093597 0.001770
0.857239 0.099640 0.002197
0.863770 0.104919 0.002625
0.870605 0.107635 0.003021
0.877533 0.105103 0.002930
0.878143 0.102234 0.002625
0.878418 0.099884 0.002319
0.878418 0.099884 0.002319
0.878662 0.098694 0.002655
0.879120 0.096191 0.003204
0.879547 0.094025 0.003632
0.879456 0.096405 0.003967
0.879669 0.100281 0.004364
0.879883 0.102722 0.004425
0.000214 0.000183 0.000031
0.000214 0.000183 0.000031
0.000305 0.000214 0.000000
0.000336 0.000244 0.000031
0.001526 0.000305 0.000061
0.003693 0.000366 0.000092
0.026489 0.000916 0.001038
0.057678 0.002258 0.003143
0.085938 0.004456 0.006348
0.109619 0.007385 0.009308
0.127777 0.010284 0.010162
0.141968 0.012756 0.009430
0.156250 0.013397 0.007019
0.172150 0.010406 0.004364
0.189178 0.005249 0.005096
0.206757 0.007324 0.006653
0.223389 0.010925 0.007324
0.240692 0.014435 0.007324
0.259125 0.017212 0.006836
0.277283 0.019012 0.005615
0.295654 0.020416 0.003510
0.313049 0.019745 0.002747
0.330078 0.020203 0.002594
0.346985 0.019287 0.002350
0.363922 0.019318 0.003021
0.381073 0.019836 0.004242
0.399048 0.021149 0.005157
0.417114 0.029144 0.005737
0.435669 0.038116 0.005829
0.455109 0.045624 0.005554
0.471558 0.049683 0.004669
0.486847 0.051727 0.003387
0.502289 0.050812 0.002594
0.517822 0.046875 0.002197
0.532867 0.044006 0.001740
0.547882 0.042633 0.001129
0.568939 0.046204 0.002808
0.590271 0.048370 0.004211
0.611633 0.051697 0.005341
0.632782 0.056396 0.006073
0.654114 0.061218 0.006409
0.675720 0.070770 0.006287
0.698151 0.078796 0.005768
0.721161 0.086578 0.004883
0.744293 0.090393 0.004089
0.767059 0.091339 0.003265
0.789185 0.090515 0.002686
0.810699 0.087799 0.002014
0.831665 0.084473 0.001556
0.843109 0.088257 0.001434
0.849731 0.095459 0.001801
0.856476 0.101837 0.002136
0.863220 0.107269 0.002655
0.870392 0.109375 0.002930
0.877136 0.107361 0.002747
0.877869 0.104492 0.002533
0.878265 0.100647 0.002258
0.878265 0.100647 0.002258
0.878632 0.098846 0.002655
0.879089 0.096313 0.003082
0.879333 0.095367 0.003540
0.879303 0.098846 0.003937
0.879608 0.102844 0.004242
0.879883 0.104828 0.004303
0.001160 0.001038 0.000092
0.001251 0.001099 0.000122
0.001404 0.001129 0.000092
0.001556 0.001129 0.000061
0.001923 0.001343 0.000031
0.004089 0.001678 0.000061
0.009003 0.002258 0.000366
0.039551 0.003662 0.002197
0.073425 0.005402 0.005096
0.097229 0.009338 0.007813
0.116150 0.013702 0.008942
0.133606 0.015930 0.008698
0.148956 0.017303 0.006287
0.164948 0.015930 0.003876
0.182587 0.012421 0.004761
0.202789 0.009796 0.006348
0.221588 0.012207 0.007080
0.239441 0.015930 0.007233
0.257629 0.019104 0.006683
0.275665 0.021118 0.005463
0.293152 0.021545 0.003693
0.310425 0.022858 0.002686
0.327698 0.023743 0.002533
0.344879 0.023193 0.002258
0.361664 0.024261 0.003052
0.378906 0.024506 0.004150
0.397156 0.022430 0.005127
0.415466 0.029877 0.005646
0.433990 0.037598 0.005768
0.452759 0.045105 0.005524
0.470032 0.049500 0.004669
0.485687 0.051788 0.003510
0.501068 0.051086 0.002625
0.516327 0.048859 0.002197
0.531219 0.048492 0.001678
0.546661 0.048279 0.001160
0.567902 0.052124 0.002960
0.589081 0.054962 0.004303
0.610565 0.056335 0.005371
0.631927 0.060181 0.006042
0.653107 0.063324 0.006470
0.674683 0.072174 0.006348
0.697021 0.080597 0.005798
0.719788 0.086975 0.004944
0.742920 0.090302 0.004089
0.765686 0.091461 0.003357
0.787872 0.090576 0.002655
0.809540 0.088165 0.002075
0.830933 0.084869 0.001587
0.841827 0.090302 0.001495
0.848663 0.097778 0.001831
0.855591 0.104340 0.002228
0.862640 0.110199 0.002655
0.869965 0.111847 0.002838
0.876709 0.110107 0.002563
0.877502 0.107544 0.002289
0.877808 0.103638 0.002045
0.878174 0.101257 0.002106
0.878632 0.099030 0.002563
0.879120 0.096375 0.003113
0.878998 0.098297 0.003479
0.879150 0.101807 0.003845
0.879761 0.105804 0.004242
0.879913 0.107239 0.004211
0.004517 0.003937 0.000397
0.005066 0.004425 0.000427
0.005615 0.004913 0.000458
0.006165 0.005341 0.000519
0.006744 0.005829 0.000488
0.007751 0.006317 0.000458
0.009125 0.006500 0.000244
0.016327 0.007629 0.000397
0.048584 0.010223 0.002563
0.079132 0.013702 0.005249
0.102203 0.017212 0.007263
0.120758 0.022491 0.006439
0.139008 0.025330 0.003021
0.156189 0.023193 0.003174
0.175446 0.022339 0.004547
0.196381 0.020325 0.005890
0.218018 0.015045 0.006989
0.237976 0.018311 0.007080
0.256134 0.021973 0.006409
0.273743 0.024719 0.005066
0.290771 0.027496 0.002930
0.307709 0.029205 0.002594
0.324829 0.029205 0.002441
0.342194 0.028870 0.002075
0.358887 0.030457 0.002960
0.376129 0.031158 0.004089
0.394196 0.029907 0.004974
0.412781 0.032379 0.005615
0.431915 0.038910 0.005676
0.449646 0.045563 0.005524
0.467010 0.050079 0.004761
0.484070 0.052673 0.003510
0.499359 0.053253 0.002594
0.514618 0.051727 0.002258
0.529236 0.053711 0.001587
0.545258 0.054840 0.001373
0.566528 0.059204 0.003113
0.587769 0.062256 0.004395
0.609131 0.064697 0.005402
0.630554 0.065643 0.006073
0.651978 0.068420 0.006439
0.673523 0.074066 0.006378
0.695709 0.082825 0.005829
0.718353 0.089417 0.004974
0.741882 0.092377 0.004150
0.764862 0.093475 0.003357
0.787231 0.092865 0.002686
0.809021 0.090637 0.002106
0.829315 0.087830 0.001526
0.840302 0.092712 0.001495
0.847443 0.100555 0.001770
0.854706 0.107574 0.002228
0.861969 0.113617 0.002625
0.869659 0.114685 0.002625
0.876312 0.113495 0.002319
0.877106 0.111237 0.001953
0.877197 0.107422 0.001770
0.877991 0.102356 0.001923
0.878571 0.099304 0.002502
0.878815 0.098358 0.003052
0.878723 0.101685 0.003448
0.879181 0.105194 0.003784
0.880035 0.109314 0.004059
0.880066 0.110291 0.004028
0.013641 0.011963 0.000824
0.014557 0.012878 0.000885
0.015656 0.013733 0.000946
0.016479 0.014496 0.000916
0.017883 0.015564 0.001099
0.019958 0.016907 0.001343
0.022125 0.018188 0.001587
0.025726 0.018951 0.001556
0.033234 0.019440 0.001770
0.060699 0.022247 0.003448
0.088165 0.026398 0.004211
0.109161 0.030609 0.002869
0.126984 0.034546 0.001923
0.146484 0.036072 0.003052
0.168091 0.035339 0.004486
0.190186 0.032501 0.005676
0.211975 0.027985 0.006531
0.233948 0.023376 0.006714
0.254089 0.026489 0.005951
0.271484 0.030945 0.004364
0.287842 0.036163 0.002625
0.304352 0.038849 0.002319
0.321289 0.040039 0.002045
0.338593 0.039459 0.001831
0.355499 0.039368 0.003021
0.372223 0.040710 0.004028
0.390106 0.040527 0.004883
0.409088 0.037994 0.005463
0.427765 0.043823 0.005615
0.446014 0.048950 0.005371
0.463684 0.052979 0.004578
0.480652 0.056305 0.003296
0.497253 0.056061 0.002716
0.512360 0.057068 0.002228
0.527008 0.059814 0.001556
0.543823 0.062286 0.001587
0.564911 0.066833 0.003265
0.586182 0.070557 0.004578
0.607391 0.073792 0.005493
0.628784 0.075287 0.006104
0.650299 0.075409 0.006409
0.671997 0.076965 0.006409
0.693939 0.085327 0.005859
0.717407 0.091797 0.004974
0.740997 0.094910 0.004150
0.763977 0.095978 0.003357
0.786560 0.095612 0.002625
0.808594 0.093567 0.002045
0.826660 0.093872 0.001495
0.837494 0.098938 0.001465
0.845703 0.105469 0.001770
0.853455 0.112305 0.002258
0.861359 0.117401 0.002594
0.869202 0.118408 0.002502
0.875793 0.117584 0.002014
0.876709 0.115875 0.001678
0.876648 0.111786 0.001556
0.877289 0.106262 0.001678
0.877838 0.104218 0.002380
0.878235 0.103577 0.002960
0.878571 0.105743 0.003387
0.879303 0.109467 0.003754
0.880249 0.113037 0.003967
0.880280 0.113953 0.003937
0.034790 0.028564 0.002716
0.035980 0.029419 0.002747
0.036957 0.030273 0.002747
0.037994 0.031158 0.002716
0.039185 0.032104 0.002655
0.040314 0.033112 0.002625
0.041290 0.033722 0.002533
0.043182 0.034454 0.002472
0.046844 0.035675 0.002014
0.054047 0.036255 0.001404
0.074921 0.038147 0.000824
0.098022 0.040100 0.001007
0.118408 0.042908 0.001953
0.137482 0.048309 0.003296
0.159668 0.050262 0.004456
0.182770 0.047485 0.005371
0.205261 0.043335 0.005829
0.226563 0.040405 0.005737
0.247223 0.038788 0.005035
0.266388 0.042175 0.003815
0.284027 0.046387 0.002228
0.300385 0.049774 0.001984
0.317108 0.051697 0.001617
0.334076 0.052673 0.002106
0.350922 0.053253 0.003052
0.367828 0.053497 0.003967
0.384705 0.053406 0.004700
0.403534 0.052094 0.005249
0.422974 0.049591 0.005493
0.441345 0.055389 0.005096
0.459320 0.059387 0.004272
0.476868 0.061371 0.003113
0.493683 0.060760 0.002716
0.509613 0.063568 0.002106
0.524323 0.066711 0.001434
0.542023 0.070587 0.001923
0.563232 0.075531 0.003510
0.584412 0.080048 0.004761
0.605255 0.083588 0.005554
0.626587 0.085785 0.006073
0.647980 0.086548 0.006317
0.669739 0.085419 0.006317
0.692444 0.088165 0.005920
0.716492 0.094452 0.005035
0.740173 0.097717 0.004181
0.763428 0.099060 0.003326
0.786041 0.098877 0.002625
0.808105 0.097229 0.002014
0.823883 0.100433 0.001404
0.834351 0.106110 0.001465
0.843445 0.111938 0.001770
0.851807 0.118561 0.002197
0.860565 0.122437 0.002502
0.868835 0.122894 0.002258
0.875275 0.122986 0.001678
0.876495 0.120911 0.001343
0.876282 0.116760 0.001282
0.876587 0.112976 0.001556
0.877228 0.110931 0.002136
0.877899 0.110168 0.002777
0.878693 0.110687 0.003265
0.879730 0.114349 0.003571
0.880585 0.117126 0.003784
0.880615 0.118408 0.003662
0.052887 0.045837 0.000580
0.053467 0.046509 0.000397
0.053986 0.047119 0.000244
0.054504 0.047577 0.000244
0.055054 0.048157 0.000275
0.055695 0.048767 0.000366
0.056396 0.049500 0.000458
0.057007 0.049866 0.000580
0.058655 0.049988 0.000641
0.061279 0.049957 0.000671
0.068481 0.048706 0.000824
0.085815 0.049347 0.001465
0.108978 0.052612 0.002533
0.129425 0.057007 0.003448
0.150238 0.061493 0.004303
0.173187 0.061829 0.004883
0.195557 0.059998 0.005096
0.217041 0.057739 0.005157
0.237335 0.057739 0.004425
0.257324 0.058868 0.002991
0.276703 0.060822 0.001831
0.295105 0.062195 0.001587
0.312134 0.064270 0.001282
0.329010 0.066010 0.002258
0.345764 0.067230 0.003174
0.362579 0.068176 0.003906
0.379608 0.068298 0.004517
0.397491 0.066254 0.004913
0.417389 0.062775 0.005127
0.436462 0.062836 0.004944
0.454529 0.067322 0.004150
0.472046 0.069397 0.003235
0.488708 0.071960 0.002716
0.505096 0.073456 0.001984
0.521088 0.074646 0.001251
0.540222 0.079590 0.002319
0.561401 0.085266 0.003815
0.581970 0.090424 0.004913
0.602814 0.094299 0.005676
0.624023 0.096893 0.006134
0.645386 0.098236 0.006226
0.667267 0.098083 0.006134
0.691650 0.092133 0.005890
0.715820 0.097717 0.004974
0.739746 0.100952 0.004059
0.763000 0.102417 0.003296
0.785736 0.102356 0.002563
0.805573 0.103485 0.001923
0.821136 0.107605 0.001312
0.831268 0.114014 0.001556
0.840912 0.119934 0.001892
0.850159 0.125763 0.002197
0.859650 0.128723 0.002258
0.868256 0.129272 0.001953
0.874939 0.128967 0.001343
0.876740 0.126190 0.001251
0.876251 0.122070 0.001312
0.876495 0.120392 0.001404
0.877228 0.118408 0.001953
0.878113 0.117157 0.002533
0.879211 0.117462 0.003143
0.880615 0.119934 0.003510
0.881134 0.122131 0.003479
0.881195 0.123566 0.003418
0.066864 0.059631 0.002075
0.067047 0.059814 0.002136
0.067169 0.059967 0.002136
0.067413 0.060150 0.002197
0.067596 0.060364 0.002228
0.067932 0.060608 0.002197
0.068237 0.060913 0.002289
0.068634 0.061218 0.002258
0.069336 0.061432 0.002258
0.070557 0.061462 0.002197
0.073029 0.061218 0.002167
0.080566 0.059784 0.002197
0.096680 0.060425 0.002625
0.118805 0.064484 0.003265
0.138977 0.069092 0.003693
0.160492 0.072083 0.004333
0.183075 0.073822 0.004517
0.205627 0.073730 0.004150
0.226807 0.073669 0.003174
0.247040 0.075073 0.001556
0.266510 0.076508 0.001160
0.286163 0.078400 0.000854
0.305389 0.079224 0.001678
0.323090 0.079712 0.002472
0.340118 0.081085 0.003235
0.357239 0.082031 0.003845
0.374817 0.081512 0.004364
0.392822 0.080322 0.004639
0.411255 0.078369 0.004700
0.431122 0.074615 0.004669
0.449646 0.075226 0.004150
0.466522 0.080933 0.003235
0.483093 0.084229 0.002563
0.499603 0.086365 0.001862
0.516327 0.087860 0.001160
0.538086 0.091492 0.002838
0.558838 0.096161 0.004181
0.579315 0.101593 0.005188
0.600067 0.105927 0.005859
0.621185 0.109009 0.006165
0.642487 0.110901 0.006134
0.665558 0.108704 0.005951
0.690308 0.102875 0.005615
0.715149 0.101990 0.005005
0.739441 0.104706 0.004059
0.762817 0.106323 0.003265
0.785431 0.106750 0.002472
0.802612 0.111023 0.001801
0.817352 0.116150 0.001343
0.828217 0.122528 0.001648
0.838531 0.128693 0.001953
0.848541 0.134033 0.002136
0.858673 0.136444 0.002014
0.867157 0.138275 0.001556
0.874878 0.135529 0.001221
0.877472 0.132416 0.001251
0.876953 0.129242 0.001251
0.877075 0.128143 0.001282
0.877838 0.126617 0.001617
0.879059 0.125092 0.002350
0.880402 0.125244 0.002899
0.881805 0.127014 0.003296
0.881775 0.128571 0.003113
0.881714 0.130646 0.002991
0.078308 0.070679 0.002777
0.078400 0.070801 0.002808
0.078583 0.070953 0.002808
0.078735 0.071045 0.002747
0.078888 0.071228 0.002777
0.079224 0.071503 0.002808
0.079468 0.071747 0.002777
0.079498 0.071930 0.002747
0.079407 0.072235 0.002747
0.079529 0.072327 0.002716
0.080566 0.072083 0.002625
0.083160 0.071503 0.002533
0.090973 0.069519 0.002594
0.104095 0.069824 0.002960
0.125000 0.074249 0.003326
0.146576 0.078217 0.003693
0.168884 0.082092 0.003662
0.192047 0.086334 0.003082
0.214844 0.088165 0.001617
0.235382 0.089294 0.000885
0.255859 0.090302 0.000702
0.275970 0.091827 0.001343
0.295837 0.093323 0.001984
0.315613 0.095154 0.002686
0.333893 0.095581 0.003265
0.351563 0.095184 0.003723
0.369202 0.095306 0.004089
0.387299 0.094849 0.004272
0.405853 0.093506 0.004303
0.424561 0.091553 0.004150
0.442963 0.091309 0.003723
0.460602 0.092926 0.003143
0.477356 0.096497 0.002411
0.493988 0.099426 0.001526
0.513580 0.102509 0.002167
0.534668 0.106964 0.003632
0.555450 0.111450 0.004761
0.576050 0.115509 0.005524
0.596893 0.118591 0.005981
0.617889 0.122101 0.006165
0.639587 0.122864 0.005981
0.663757 0.119415 0.005707
0.688385 0.114441 0.005310
0.713348 0.108582 0.004944
0.738953 0.109833 0.004028
0.763092 0.110596 0.003204
0.783264 0.113983 0.002441
0.799957 0.119263 0.001678
0.813934 0.125244 0.001434
0.825470 0.131897 0.001678
0.836517 0.138306 0.001923
0.847687 0.143097 0.001984
0.857880 0.146423 0.001740
0.866547 0.147919 0.001190
0.874512 0.144958 0.001190
0.878448 0.141144 0.001282
0.878357 0.138428 0.001282
0.878632 0.136505 0.001282
0.879120 0.135925 0.001373
0.880371 0.134613 0.002014
0.881653 0.135315 0.002686
0.882385 0.136749 0.002869
0.882263 0.137726 0.002747
0.882233 0.139618 0.002502
0.090057 0.081360 0.002228
0.090240 0.081482 0.002136
0.090363 0.081635 0.002136
0.090515 0.081757 0.002136
0.090576 0.081818 0.002136
0.090668 0.081909 0.002075
0.090790 0.082031 0.002106
0.090607 0.082062 0.002136
0.089874 0.082062 0.002075
0.088776 0.082092 0.002136
0.088867 0.081512 0.002319
0.090118 0.080902 0.002380
0.093170 0.079987 0.002441
0.100281 0.078094 0.002502
0.111328 0.078583 0.002716
0.130371 0.082672 0.002777
0.152710 0.087158 0.002563
0.175476 0.092285 0.001862
0.199066 0.097870 0.000854
0.222839 0.101318 0.001007
0.244629 0.102783 0.001465
0.265503 0.104034 0.001892
0.285797 0.105621 0.002380
0.305481 0.107056 0.002808
0.325104 0.108582 0.003204
0.344086 0.109650 0.003632
0.362305 0.109802 0.003845
0.380646 0.109680 0.003967
0.399017 0.109314 0.003906
0.417114 0.109344 0.003632
0.435059 0.109650 0.003235
0.453003 0.110321 0.002563
0.471100 0.110168 0.002014
0.488953 0.112671 0.001587
0.510284 0.117249 0.003204
0.530914 0.122101 0.004456
0.551605 0.126892 0.005402
0.572113 0.131561 0.005981
0.592957 0.135406 0.006195
0.613922 0.136780 0.006134
0.637451 0.134003 0.005859
0.661499 0.131134 0.005493
0.686005 0.126984 0.005035
0.711121 0.121368 0.004639
0.736694 0.117798 0.003937
0.761292 0.118652 0.003113
0.780548 0.122528 0.002228
0.797577 0.128143 0.001434
0.810913 0.135162 0.001495
0.823273 0.141907 0.001648
0.835205 0.148651 0.001892
0.847229 0.153717 0.001770
0.857483 0.157776 0.001404
0.866699 0.158142 0.001282
0.874817 0.156158 0.001190
0.880157 0.152618 0.001251
0.879944 0.150421 0.001282
0.880066 0.148407 0.001251
0.880493 0.147827 0.001282
0.881775 0.146576 0.001740
0.883423 0.147034 0.002319
0.883545 0.147919 0.002289
0.883423 0.149048 0.002136
0.883209 0.150238 0.001953
0.099518 0.089966 0.000916
0.099548 0.090027 0.000946
0.099640 0.090118 0.000916
0.099701 0.090149 0.000946
0.099792 0.090271 0.000916
0.099884 0.090393 0.000885
0.100006 0.090485 0.000885
0.100098 0.090576 0.000854
0.098694 0.090118 0.001160
0.097565 0.089813 0.001465
0.096832 0.089661 0.001648
0.098083 0.089233 0.001740
0.099609 0.088745 0.001770
0.102875 0.087921 0.001831
0.109039 0.086365 0.001740
0.117462 0.086487 0.001801
0.134125 0.090057 0.001587
0.156769 0.095642 0.000702
0.181976 0.101990 0.001190
0.207458 0.108246 0.001678
0.232544 0.113586 0.002075
0.254425 0.115265 0.002380
0.274567 0.116302 0.002594
0.294556 0.117432 0.002899
0.314148 0.119476 0.003174
0.333801 0.121796 0.003448
0.353546 0.124237 0.003601
0.372162 0.124481 0.003601
0.390991 0.124237 0.003510
0.409180 0.124512 0.003235
0.427094 0.125214 0.002655
0.445129 0.126160 0.001862
0.463287 0.126740 0.001099
0.484985 0.128998 0.002625
0.505981 0.132568 0.004211
0.526733 0.137299 0.005402
0.547302 0.142273 0.006042
0.567871 0.147095 0.006348
0.588623 0.150909 0.006378
0.611115 0.150818 0.006073
0.634827 0.147705 0.005646
0.658752 0.143677 0.005188
0.683167 0.140259 0.004669
0.708252 0.135468 0.004181
0.733643 0.128601 0.003845
0.755219 0.131317 0.002960
0.775574 0.134827 0.002045
0.793610 0.139587 0.001465
