LUTs/Ocean B&W Purple Filter.cube
#Created by: Adobe Photoshop Export Color Lookup Plugin
#Copyright: (C) Copyright 2018 ©Sergey Zhmakin
TITLE "Ocean B&W Purple Filter"
#LUT size
LUT_3D_SIZE 64
#data domain
DOMAIN_MIN 0.0 0.0 0.0
DOMAIN_MAX 1.0 1.0 1.0
#LUT data points
0.000824 0.000824 0.000824
0.000916 0.000916 0.000916
0.001038 0.001038 0.001038
0.001160 0.001160 0.001160
0.001373 0.001373 0.001373
0.001678 0.001678 0.001678
0.002075 0.002075 0.002075
0.002594 0.002594 0.002594
0.003418 0.003418 0.003418
0.004639 0.004639 0.004639
0.005829 0.005829 0.005829
0.006958 0.006958 0.006958
0.008057 0.008057 0.008057
0.009033 0.009033 0.009033
0.009979 0.009979 0.009979
0.011017 0.011017 0.011017
0.011932 0.011932 0.011932
0.013214 0.013214 0.013214
0.015137 0.015137 0.015137
0.017212 0.017212 0.017212
0.019257 0.019257 0.019257
0.022583 0.022583 0.022583
0.028717 0.028717 0.028717
0.035522 0.035522 0.035522
0.041809 0.041809 0.041809
0.047028 0.047028 0.047028
0.056061 0.056061 0.056061
0.063751 0.063751 0.063751
0.071533 0.071533 0.071533
0.079498 0.079498 0.079498
0.087677 0.087677 0.087677
0.098267 0.098267 0.098267
0.109741 0.109741 0.109741
0.121552 0.121552 0.121552
0.137726 0.137726 0.137726
0.152863 0.152863 0.152863
0.167389 0.167389 0.167389
0.181549 0.181549 0.181549
0.194977 0.194977 0.194977
0.208923 0.208923 0.208923
0.224121 0.224121 0.224121
0.239716 0.239716 0.239716
0.257294 0.257294 0.257294
0.279205 0.279205 0.279205
0.302979 0.302979 0.302979
0.326447 0.326447 0.326447
0.351593 0.351593 0.351593
0.378021 0.378021 0.378021
0.405701 0.405701 0.405701
0.433502 0.433502 0.433502
0.458069 0.458069 0.458069
0.477844 0.477844 0.477844
0.497620 0.497620 0.497620
0.518555 0.518555 0.518555
0.544922 0.544922 0.544922
0.574707 0.574707 0.574707
0.606812 0.606812 0.606812
0.635376 0.635376 0.635376
0.659180 0.659180 0.659180
0.665009 0.665009 0.665009
0.668060 0.668060 0.668060
0.671173 0.671173 0.671173
0.674225 0.674225 0.674225
0.677185 0.677185 0.677185
0.000824 0.000824 0.000824
0.000824 0.000824 0.000824
0.000916 0.000916 0.000916
0.001068 0.001068 0.001068
0.001343 0.001343 0.001343
0.001648 0.001648 0.001648
0.002075 0.002075 0.002075
0.002655 0.002655 0.002655
0.003448 0.003448 0.003448
0.004669 0.004669 0.004669
0.005890 0.005890 0.005890
0.007019 0.007019 0.007019
0.008057 0.008057 0.008057
0.009003 0.009003 0.009003
0.009949 0.009949 0.009949
0.010956 0.010956 0.010956
0.011932 0.011932 0.011932
0.013184 0.013184 0.013184
0.015045 0.015045 0.015045
0.017151 0.017151 0.017151
0.019196 0.019196 0.019196
0.022522 0.022522 0.022522
0.028717 0.028717 0.028717
0.035553 0.035553 0.035553
0.041840 0.041840 0.041840
0.047150 0.047150 0.047150
0.056183 0.056183 0.056183
0.063782 0.063782 0.063782
0.071411 0.071411 0.071411
0.079498 0.079498 0.079498
0.087677 0.087677 0.087677
0.098328 0.098328 0.098328
0.109802 0.109802 0.109802
0.122009 0.122009 0.122009
0.138123 0.138123 0.138123
0.153229 0.153229 0.153229
0.167755 0.167755 0.167755
0.181763 0.181763 0.181763
0.195190 0.195190 0.195190
0.209106 0.209106 0.209106
0.224121 0.224121 0.224121
0.239716 0.239716 0.239716
0.257355 0.257355 0.257355
0.279236 0.279236 0.279236
0.302643 0.302643 0.302643
0.326111 0.326111 0.326111
0.351410 0.351410 0.351410
0.378174 0.378174 0.378174
0.405670 0.405670 0.405670
0.433441 0.433441 0.433441
0.458221 0.458221 0.458221
0.477844 0.477844 0.477844
0.497528 0.497528 0.497528
0.518646 0.518646 0.518646
0.545197 0.545197 0.545197
0.575256 0.575256 0.575256
0.607147 0.607147 0.607147
0.635651 0.635651 0.635651
0.658875 0.658875 0.658875
0.664520 0.664520 0.664520
0.667664 0.667664 0.667664
0.670837 0.670837 0.670837
0.674011 0.674011 0.674011
0.677002 0.677002 0.677002
0.000854 0.000854 0.000854
0.000854 0.000854 0.000854
0.000854 0.000854 0.000854
0.000916 0.000916 0.000916
0.001160 0.001160 0.001160
0.001556 0.001556 0.001556
0.002045 0.002045 0.002045
0.002655 0.002655 0.002655
0.003448 0.003448 0.003448
0.004730 0.004730 0.004730
0.005920 0.005920 0.005920
0.007019 0.007019 0.007019
0.007965 0.007965 0.007965
0.008972 0.008972 0.008972
0.009888 0.009888 0.009888
0.010925 0.010925 0.010925
0.011871 0.011871 0.011871
0.013153 0.013153 0.013153
0.014984 0.014984 0.014984
0.017120 0.017120 0.017120
0.019196 0.019196 0.019196
0.022430 0.022430 0.022430
0.028839 0.028839 0.028839
0.035583 0.035583 0.035583
0.041931 0.041931 0.041931
0.047302 0.047302 0.047302
0.056396 0.056396 0.056396
0.064026 0.064026 0.064026
0.071411 0.071411 0.071411
0.079498 0.079498 0.079498
0.087677 0.087677 0.087677
0.098389 0.098389 0.098389
0.109863 0.109863 0.109863
0.122498 0.122498 0.122498
0.138519 0.138519 0.138519
0.153564 0.153564 0.153564
0.168152 0.168152 0.168152
0.182068 0.182068 0.182068
0.195496 0.195496 0.195496
0.209198 0.209198 0.209198
0.224274 0.224274 0.224274
0.239777 0.239777 0.239777
0.257355 0.257355 0.257355
0.279205 0.279205 0.279205
0.302307 0.302307 0.302307
0.325836 0.325836 0.325836
0.351288 0.351288 0.351288
0.378174 0.378174 0.378174
0.405670 0.405670 0.405670
0.433563 0.433563 0.433563
0.458344 0.458344 0.458344
0.477661 0.477661 0.477661
0.497498 0.497498 0.497498
0.518829 0.518829 0.518829
0.545532 0.545532 0.545532
0.575745 0.575745 0.575745
0.607758 0.607758 0.607758
0.635925 0.635925 0.635925
0.658508 0.658508 0.658508
0.664032 0.664032 0.664032
0.667297 0.667297 0.667297
0.670532 0.670532 0.670532
0.673798 0.673798 0.673798
0.676880 0.676880 0.676880
0.000946 0.000946 0.000946
0.000946 0.000946 0.000946
0.000916 0.000916 0.000916
0.000916 0.000916 0.000916
0.000916 0.000916 0.000916
0.001343 0.001343 0.001343
0.001892 0.001892 0.001892
0.002594 0.002594 0.002594
0.003448 0.003448 0.003448
0.004730 0.004730 0.004730
0.005890 0.005890 0.005890
0.006927 0.006927 0.006927
0.007874 0.007874 0.007874
0.008911 0.008911 0.008911
0.009857 0.009857 0.009857
0.010864 0.010864 0.010864
0.011841 0.011841 0.011841
0.013092 0.013092 0.013092
0.014984 0.014984 0.014984
0.017090 0.017090 0.017090
0.019165 0.019165 0.019165
0.022522 0.022522 0.022522
0.029022 0.029022 0.029022
0.035736 0.035736 0.035736
0.042053 0.042053 0.042053
0.047424 0.047424 0.047424
0.056580 0.056580 0.056580
0.064240 0.064240 0.064240
0.071564 0.071564 0.071564
0.079498 0.079498 0.079498
0.087769 0.087769 0.087769
0.098511 0.098511 0.098511
0.110016 0.110016 0.110016
0.122986 0.122986 0.122986
0.139008 0.139008 0.139008
0.153961 0.153961 0.153961
0.168518 0.168518 0.168518
0.182434 0.182434 0.182434
0.195709 0.195709 0.195709
0.209351 0.209351 0.209351
0.224335 0.224335 0.224335
0.239685 0.239685 0.239685
0.257263 0.257263 0.257263
0.279114 0.279114 0.279114
0.302063 0.302063 0.302063
0.325653 0.325653 0.325653
0.351044 0.351044 0.351044
0.378174 0.378174 0.378174
0.405762 0.405762 0.405762
0.433563 0.433563 0.433563
0.458496 0.458496 0.458496
0.477722 0.477722 0.477722
0.497406 0.497406 0.497406
0.519165 0.519165 0.519165
0.545868 0.545868 0.545868
0.576355 0.576355 0.576355
0.608276 0.608276 0.608276
0.636292 0.636292 0.636292
0.658264 0.658264 0.658264
0.663635 0.663635 0.663635
0.666870 0.666870 0.666870
0.670288 0.670288 0.670288
0.673615 0.673615 0.673615
0.676758 0.676758 0.676758
0.001068 0.001068 0.001068
0.001038 0.001038 0.001038
0.001038 0.001038 0.001038
0.001007 0.001007 0.001007
0.001038 0.001038 0.001038
0.001129 0.001129 0.001129
0.001740 0.001740 0.001740
0.002502 0.002502 0.002502
0.003418 0.003418 0.003418
0.004669 0.004669 0.004669
0.005768 0.005768 0.005768
0.006805 0.006805 0.006805
0.007751 0.007751 0.007751
0.008789 0.008789 0.008789
0.009796 0.009796 0.009796
0.010834 0.010834 0.010834
0.011841 0.011841 0.011841
0.013092 0.013092 0.013092
0.014954 0.014954 0.014954
0.017029 0.017029 0.017029
0.019104 0.019104 0.019104
0.022583 0.022583 0.022583
0.029236 0.029236 0.029236
0.035950 0.035950 0.035950
0.042297 0.042297 0.042297
0.047729 0.047729 0.047729
0.057037 0.057037 0.057037
0.064667 0.064667 0.064667
0.071716 0.071716 0.071716
0.079681 0.079681 0.079681
0.088074 0.088074 0.088074
0.098572 0.098572 0.098572
0.110107 0.110107 0.110107
0.123596 0.123596 0.123596
0.139496 0.139496 0.139496
0.154419 0.154419 0.154419
0.169006 0.169006 0.169006
0.182770 0.182770 0.182770
0.196106 0.196106 0.196106
0.209473 0.209473 0.209473
0.224426 0.224426 0.224426
0.239685 0.239685 0.239685
0.257294 0.257294 0.257294
0.279114 0.279114 0.279114
0.301758 0.301758 0.301758
0.325378 0.325378 0.325378
0.350891 0.350891 0.350891
0.378174 0.378174 0.378174
0.405884 0.405884 0.405884
0.433655 0.433655 0.433655
0.458527 0.458527 0.458527
0.477631 0.477631 0.477631
0.497314 0.497314 0.497314
0.519531 0.519531 0.519531
0.546326 0.546326 0.546326
0.576843 0.576843 0.576843
0.608978 0.608978 0.608978
0.636810 0.636810 0.636810
0.657867 0.657867 0.657867
0.663025 0.663025 0.663025
0.666443 0.666443 0.666443
0.669952 0.669952 0.669952
0.673370 0.673370 0.673370
0.676636 0.676636 0.676636
0.001343 0.001343 0.001343
0.001343 0.001343 0.001343
0.001343 0.001343 0.001343
0.001373 0.001373 0.001373
0.001373 0.001373 0.001373
0.001434 0.001434 0.001434
0.001556 0.001556 0.001556
0.002258 0.002258 0.002258
0.003204 0.003204 0.003204
0.004364 0.004364 0.004364
0.005554 0.005554 0.005554
0.006622 0.006622 0.006622
0.007629 0.007629 0.007629
0.008667 0.008667 0.008667
0.009705 0.009705 0.009705
0.010773 0.010773 0.010773
0.011780 0.011780 0.011780
0.013153 0.013153 0.013153
0.014923 0.014923 0.014923
0.016998 0.016998 0.016998
0.019104 0.019104 0.019104
0.022614 0.022614 0.022614
0.029633 0.029633 0.029633
0.036255 0.036255 0.036255
0.042572 0.042572 0.042572
0.048370 0.048370 0.048370
0.057587 0.057587 0.057587
0.065216 0.065216 0.065216
0.072083 0.072083 0.072083
0.080353 0.080353 0.080353
0.088562 0.088562 0.088562
0.098755 0.098755 0.098755
0.110229 0.110229 0.110229
0.124420 0.124420 0.124420
0.140137 0.140137 0.140137
0.155090 0.155090 0.155090
0.169617 0.169617 0.169617
0.183258 0.183258 0.183258
0.196655 0.196655 0.196655
0.209717 0.209717 0.209717
0.224487 0.224487 0.224487
0.239655 0.239655 0.239655
0.257263 0.257263 0.257263
0.278900 0.278900 0.278900
0.301331 0.301331 0.301331
0.325104 0.325104 0.325104
0.350677 0.350677 0.350677
0.378174 0.378174 0.378174
0.405945 0.405945 0.405945
0.433807 0.433807 0.433807
0.458496 0.458496 0.458496
0.477539 0.477539 0.477539
0.497162 0.497162 0.497162
0.519836 0.519836 0.519836
0.546844 0.546844 0.546844
0.577698 0.577698 0.577698
0.609802 0.609802 0.609802
0.637299 0.637299 0.637299
0.657318 0.657318 0.657318
0.662384 0.662384 0.662384
0.665924 0.665924 0.665924
0.669678 0.669678 0.669678
0.673157 0.673157 0.673157
0.676514 0.676514 0.676514
0.001770 0.001770 0.001770
0.001831 0.001831 0.001831
0.001831 0.001831 0.001831
0.001831 0.001831 0.001831
0.001831 0.001831 0.001831
0.001831 0.001831 0.001831
0.001892 0.001892 0.001892
0.002045 0.002045 0.002045
0.002808 0.002808 0.002808
0.004028 0.004028 0.004028
0.005310 0.005310 0.005310
0.006439 0.006439 0.006439
0.007477 0.007477 0.007477
0.008514 0.008514 0.008514
0.009613 0.009613 0.009613
0.010773 0.010773 0.010773
0.011841 0.011841 0.011841
0.013153 0.013153 0.013153
0.014984 0.014984 0.014984
0.016998 0.016998 0.016998
0.019196 0.019196 0.019196
0.023132 0.023132 0.023132
0.030182 0.030182 0.030182
0.036926 0.036926 0.036926
0.043060 0.043060 0.043060
0.049225 0.049225 0.049225
0.058472 0.058472 0.058472
0.065979 0.065979 0.065979
0.072571 0.072571 0.072571
0.081360 0.081360 0.081360
0.089447 0.089447 0.089447
0.099304 0.099304 0.099304
0.110474 0.110474 0.110474
0.125366 0.125366 0.125366
0.140930 0.140930 0.140930
0.155823 0.155823 0.155823
0.170380 0.170380 0.170380
0.183807 0.183807 0.183807
0.197144 0.197144 0.197144
0.210205 0.210205 0.210205
0.224670 0.224670 0.224670
0.239502 0.239502 0.239502
0.257263 0.257263 0.257263
0.278351 0.278351 0.278351
0.300690 0.300690 0.300690
0.324860 0.324860 0.324860
0.350677 0.350677 0.350677
0.378174 0.378174 0.378174
0.406189 0.406189 0.406189
0.433960 0.433960 0.433960
0.458252 0.458252 0.458252
0.477539 0.477539 0.477539
0.497070 0.497070 0.497070
0.520538 0.520538 0.520538
0.547546 0.547546 0.547546
0.578705 0.578705 0.578705
0.610809 0.610809 0.610809
0.637878 0.637878 0.637878
0.655945 0.655945 0.655945
0.661041 0.661041 0.661041
0.665222 0.665222 0.665222
0.669281 0.669281 0.669281
0.672913 0.672913 0.672913
0.676392 0.676392 0.676392
0.002411 0.002411 0.002411
0.002411 0.002411 0.002411
0.002411 0.002411 0.002411
0.002411 0.002411 0.002411
0.002472 0.002472 0.002472
0.002502 0.002502 0.002502
0.002594 0.002594 0.002594
0.002716 0.002716 0.002716
0.002991 0.002991 0.002991
0.003723 0.003723 0.003723
0.005035 0.005035 0.005035
0.006226 0.006226 0.006226
0.007416 0.007416 0.007416
0.008606 0.008606 0.008606
0.009705 0.009705 0.009705
0.010864 0.010864 0.010864
0.011932 0.011932 0.011932
0.013397 0.013397 0.013397
0.015167 0.015167 0.015167
0.017120 0.017120 0.017120
0.019287 0.019287 0.019287
0.023956 0.023956 0.023956
0.031158 0.031158 0.031158
0.037994 0.037994 0.037994
0.043671 0.043671 0.043671
0.050446 0.050446 0.050446
0.059509 0.059509 0.059509
0.066986 0.066986 0.066986
0.073944 0.073944 0.073944
0.082458 0.082458 0.082458
0.090607 0.090607 0.090607
0.100647 0.100647 0.100647
0.110718 0.110718 0.110718
0.126373 0.126373 0.126373
0.141937 0.141937 0.141937
0.156769 0.156769 0.156769
0.171204 0.171204 0.171204
0.184509 0.184509 0.184509
0.197693 0.197693 0.197693
0.210815 0.210815 0.210815
0.224701 0.224701 0.224701
0.239502 0.239502 0.239502
0.257233 0.257233 0.257233
0.277954 0.277954 0.277954
0.300079 0.300079 0.300079
0.324615 0.324615 0.324615
0.350739 0.350739 0.350739
0.378510 0.378510 0.378510
0.406555 0.406555 0.406555
0.434418 0.434418 0.434418
0.458038 0.458038 0.458038
0.477448 0.477448 0.477448
0.497314 0.497314 0.497314
0.521179 0.521179 0.521179
0.548462 0.548462 0.548462
0.579926 0.579926 0.579926
0.612091 0.612091 0.612091
0.637512 0.637512 0.637512
0.653534 0.653534 0.653534
0.659271 0.659271 0.659271
0.664154 0.664154 0.664154
0.668640 0.668640 0.668640
0.672760 0.672760 0.672760
0.676270 0.676270 0.676270
0.003387 0.003387 0.003387
0.003418 0.003418 0.003418
0.003448 0.003448 0.003448
0.003448 0.003448 0.003448
0.003448 0.003448 0.003448
0.003510 0.003510 0.003510
0.003540 0.003540 0.003540
0.003601 0.003601 0.003601
0.003723 0.003723 0.003723
0.004028 0.004028 0.004028
0.004761 0.004761 0.004761
0.006317 0.006317 0.006317
0.007843 0.007843 0.007843
0.009033 0.009033 0.009033
0.010040 0.010040 0.010040
0.011047 0.011047 0.011047
0.012207 0.012207 0.012207
0.013916 0.013916 0.013916
0.015656 0.015656 0.015656
0.017456 0.017456 0.017456
0.019531 0.019531 0.019531
0.025299 0.025299 0.025299
0.032684 0.032684 0.032684
0.039490 0.039490 0.039490
0.044922 0.044922 0.044922
0.051910 0.051910 0.051910
0.061035 0.061035 0.061035
0.068420 0.068420 0.068420
0.075928 0.075928 0.075928
0.083710 0.083710 0.083710
0.092102 0.092102 0.092102
0.102173 0.102173 0.102173
0.112885 0.112885 0.112885
0.127716 0.127716 0.127716
0.143066 0.143066 0.143066
0.157928 0.157928 0.157928
0.172302 0.172302 0.172302
0.185333 0.185333 0.185333
0.198456 0.198456 0.198456
0.211578 0.211578 0.211578
0.225067 0.225067 0.225067
0.239258 0.239258 0.239258
0.256805 0.256805 0.256805
0.277344 0.277344 0.277344
0.299164 0.299164 0.299164
0.324524 0.324524 0.324524
0.350922 0.350922 0.350922
0.378662 0.378662 0.378662
0.406952 0.406952 0.406952
0.435120 0.435120 0.435120
0.457886 0.457886 0.457886
0.477295 0.477295 0.477295
0.497833 0.497833 0.497833
0.522186 0.522186 0.522186
0.549408 0.549408 0.549408
0.581390 0.581390 0.581390
0.613739 0.613739 0.613739
0.636749 0.636749 0.636749
0.650879 0.650879 0.650879
0.657288 0.657288 0.657288
0.663177 0.663177 0.663177
0.667877 0.667877 0.667877
0.672546 0.672546 0.672546
0.676239 0.676239 0.676239
0.004883 0.004883 0.004883
0.004883 0.004883 0.004883
0.004883 0.004883 0.004883
0.004883 0.004883 0.004883
0.004852 0.004852 0.004852
0.004791 0.004791 0.004791
0.004852 0.004852 0.004852
0.005066 0.005066 0.005066
0.005310 0.005310 0.005310
0.005615 0.005615 0.005615
0.006104 0.006104 0.006104
0.006836 0.006836 0.006836
0.008514 0.008514 0.008514
0.009979 0.009979 0.009979
0.010925 0.010925 0.010925
0.011688 0.011688 0.011688
0.012878 0.012878 0.012878
0.014709 0.014709 0.014709
0.016510 0.016510 0.016510
0.018188 0.018188 0.018188
0.020294 0.020294 0.020294
0.027344 0.027344 0.027344
0.034882 0.034882 0.034882
0.041443 0.041443 0.041443
0.046539 0.046539 0.046539
0.054382 0.054382 0.054382
0.062744 0.062744 0.062744
0.070221 0.070221 0.070221
0.078094 0.078094 0.078094
0.085388 0.085388 0.085388
0.093842 0.093842 0.093842
0.103912 0.103912 0.103912
0.116180 0.116180 0.116180
0.130066 0.130066 0.130066
0.144592 0.144592 0.144592
0.159302 0.159302 0.159302
0.173676 0.173676 0.173676
0.186188 0.186188 0.186188
0.199341 0.199341 0.199341
0.212402 0.212402 0.212402
0.225372 0.225372 0.225372
0.238739 0.238739 0.238739
0.256226 0.256226 0.256226
0.276581 0.276581 0.276581
0.298218 0.298218 0.298218
0.324646 0.324646 0.324646
0.351196 0.351196 0.351196
0.379150 0.379150 0.379150
0.407654 0.407654 0.407654
0.435760 0.435760 0.435760
0.457794 0.457794 0.457794
0.476990 0.476990 0.476990
0.498566 0.498566 0.498566
0.523285 0.523285 0.523285
0.550751 0.550751 0.550751
0.583282 0.583282 0.583282
0.615387 0.615387 0.615387
0.636139 0.636139 0.636139
0.648407 0.648407 0.648407
0.655273 0.655273 0.655273
0.661621 0.661621 0.661621
0.667206 0.667206 0.667206
0.672333 0.672333 0.672333
0.676300 0.676300 0.676300
0.006836 0.006836 0.006836
0.006836 0.006836 0.006836
0.006836 0.006836 0.006836
0.006897 0.006897 0.006897
0.006927 0.006927 0.006927
0.007019 0.007019 0.007019
0.007111 0.007111 0.007111
0.007233 0.007233 0.007233
0.007538 0.007538 0.007538
0.007965 0.007965 0.007965
0.008484 0.008484 0.008484
0.009033 0.009033 0.009033
0.009705 0.009705 0.009705
0.011139 0.011139 0.011139
0.012299 0.012299 0.012299
0.013367 0.013367 0.013367
0.014404 0.014404 0.014404
0.015900 0.015900 0.015900
0.017670 0.017670 0.017670
0.019684 0.019684 0.019684
0.024139 0.024139 0.024139
0.030792 0.030792 0.030792
0.037842 0.037842 0.037842
0.043793 0.043793 0.043793
0.049896 0.049896 0.049896
0.058258 0.058258 0.058258
0.065430 0.065430 0.065430
0.073242 0.073242 0.073242
0.080719 0.080719 0.080719
0.087677 0.087677 0.087677
0.095856 0.095856 0.095856
0.105927 0.105927 0.105927
0.119720 0.119720 0.119720
0.133331 0.133331 0.133331
0.146667 0.146667 0.146667
0.161133 0.161133 0.161133
0.174835 0.174835 0.174835
0.187195 0.187195 0.187195
0.200439 0.200439 0.200439
0.213440 0.213440 0.213440
0.225769 0.225769 0.225769
0.237946 0.237946 0.237946
0.255127 0.255127 0.255127
0.275635 0.275635 0.275635
0.297577 0.297577 0.297577
0.324860 0.324860 0.324860
0.351685 0.351685 0.351685
0.379852 0.379852 0.379852
0.408447 0.408447 0.408447
0.436462 0.436462 0.436462
0.457703 0.457703 0.457703
0.477478 0.477478 0.477478
0.499390 0.499390 0.499390
0.524506 0.524506 0.524506
0.552399 0.552399 0.552399
0.585388 0.585388 0.585388
0.615417 0.615417 0.615417
0.635193 0.635193 0.635193
0.645782 0.645782 0.645782
0.653259 0.653259 0.653259
0.660095 0.660095 0.660095
0.666443 0.666443 0.666443
0.672150 0.672150 0.672150
0.676544 0.676544 0.676544
0.009979 0.009979 0.009979
0.009979 0.009979 0.009979
0.009979 0.009979 0.009979
0.010040 0.010040 0.010040
0.010071 0.010071 0.010071
0.010132 0.010132 0.010132
0.010223 0.010223 0.010223
0.010315 0.010315 0.010315
0.010437 0.010437 0.010437
0.010773 0.010773 0.010773
0.011292 0.011292 0.011292
0.011841 0.011841 0.011841
0.012299 0.012299 0.012299
0.013062 0.013062 0.013062
0.014618 0.014618 0.014618
0.016113 0.016113 0.016113
0.017029 0.017029 0.017029
0.017914 0.017914 0.017914
0.019531 0.019531 0.019531
0.023621 0.023621 0.023621
0.029877 0.029877 0.029877
0.035828 0.035828 0.035828
0.041443 0.041443 0.041443
0.046753 0.046753 0.046753
0.055420 0.055420 0.055420
0.063141 0.063141 0.063141
0.070496 0.070496 0.070496
0.077148 0.077148 0.077148
0.083893 0.083893 0.083893
0.090546 0.090546 0.090546
0.098969 0.098969 0.098969
0.110016 0.110016 0.110016
0.123474 0.123474 0.123474
0.136902 0.136902 0.136902
0.150024 0.150024 0.150024
0.163055 0.163055 0.163055
0.176117 0.176117 0.176117
0.188568 0.188568 0.188568
0.201691 0.201691 0.201691
0.214722 0.214722 0.214722
0.226288 0.226288 0.226288
0.237549 0.237549 0.237549
0.253998 0.253998 0.253998
0.273682 0.273682 0.273682
0.298004 0.298004 0.298004
0.325378 0.325378 0.325378
0.352570 0.352570 0.352570
0.380890 0.380890 0.380890
0.409515 0.409515 0.409515
0.437286 0.437286 0.437286
0.457642 0.457642 0.457642
0.478088 0.478088 0.478088
0.499634 0.499634 0.499634
0.526154 0.526154 0.526154
0.554962 0.554962 0.554962
0.588074 0.588074 0.588074
0.614349 0.614349 0.614349
0.634369 0.634369 0.634369
0.643219 0.643219 0.643219
0.651276 0.651276 0.651276
0.658569 0.658569 0.658569
0.665985 0.665985 0.665985
0.672119 0.672119 0.672119
0.676758 0.676758 0.676758
0.012878 0.012878 0.012878
0.012848 0.012848 0.012848
0.012878 0.012878 0.012878
0.012878 0.012878 0.012878
0.012970 0.012970 0.012970
0.013092 0.013092 0.013092
0.013275 0.013275 0.013275
0.013428 0.013428 0.013428
0.013702 0.013702 0.013702
0.014008 0.014008 0.014008
0.014709 0.014709 0.014709
0.015594 0.015594 0.015594
0.016571 0.016571 0.016571
0.017334 0.017334 0.017334
0.017853 0.017853 0.017853
0.018890 0.018890 0.018890
0.019897 0.019897 0.019897
0.021576 0.021576 0.021576
0.025085 0.025085 0.025085
0.030396 0.030396 0.030396
0.036224 0.036224 0.036224
0.041473 0.041473 0.041473
0.045929 0.045929 0.045929
0.052979 0.052979 0.052979
0.061584 0.061584 0.061584
0.069305 0.069305 0.069305
0.076294 0.076294 0.076294
0.082458 0.082458 0.082458
0.088074 0.088074 0.088074
0.095245 0.095245 0.095245
0.103760 0.103760 0.103760
0.115448 0.115448 0.115448
0.127747 0.127747 0.127747
0.140808 0.140808 0.140808
0.153625 0.153625 0.153625
0.165955 0.165955 0.165955
0.177948 0.177948 0.177948
0.190277 0.190277 0.190277
0.203247 0.203247 0.203247
0.216125 0.216125 0.216125
0.227142 0.227142 0.227142
0.239227 0.239227 0.239227
0.254669 0.254669 0.254669
0.271606 0.271606 0.271606
0.298584 0.298584 0.298584
0.325989 0.325989 0.325989
0.353607 0.353607 0.353607
0.382233 0.382233 0.382233
0.410858 0.410858 0.410858
0.438263 0.438263 0.438263
0.457977 0.457977 0.457977
0.478577 0.478577 0.478577
0.500153 0.500153 0.500153
0.527039 0.527039 0.527039
0.557983 0.557983 0.557983
0.589691 0.589691 0.589691
0.613434 0.613434 0.613434
0.631531 0.631531 0.631531
0.640930 0.640930 0.640930
0.649536 0.649536 0.649536
0.657501 0.657501 0.657501
0.665710 0.665710 0.665710
0.671967 0.671967 0.671967
0.677277 0.677277 0.677277
0.017120 0.017120 0.017120
0.017120 0.017120 0.017120
0.017151 0.017151 0.017151
0.017151 0.017151 0.017151
0.017212 0.017212 0.017212
0.017303 0.017303 0.017303
0.017426 0.017426 0.017426
0.017609 0.017609 0.017609
0.017761 0.017761 0.017761
0.018036 0.018036 0.018036
0.018280 0.018280 0.018280
0.018890 0.018890 0.018890
0.019775 0.019775 0.019775
0.020874 0.020874 0.020874
0.023041 0.023041 0.023041
0.024231 0.024231 0.024231
0.026917 0.026917 0.026917
0.030365 0.030365 0.030365
0.034088 0.034088 0.034088
0.038086 0.038086 0.038086
0.042664 0.042664 0.042664
0.047028 0.047028 0.047028
0.054688 0.054688 0.054688
0.061768 0.061768 0.061768
0.068329 0.068329 0.068329
0.075562 0.075562 0.075562
0.082031 0.082031 0.082031
0.087677 0.087677 0.087677
0.094116 0.094116 0.094116
0.101227 0.101227 0.101227
0.110962 0.110962 0.110962
0.121857 0.121857 0.121857
0.133270 0.133270 0.133270
0.145294 0.145294 0.145294
0.157471 0.157471 0.157471
0.169525 0.169525 0.169525
0.180542 0.180542 0.180542
0.192566 0.192566 0.192566
0.205353 0.205353 0.205353
0.217316 0.217316 0.217316
0.228088 0.228088 0.228088
0.241547 0.241547 0.241547
0.255981 0.255981 0.255981
0.274139 0.274139 0.274139
0.299713 0.299713 0.299713
0.327057 0.327057 0.327057
0.355225 0.355225 0.355225
0.384125 0.384125 0.384125
