LUTs/Ocean B&W Purple Filter.cube
#Created by: Adobe Photoshop Export Color Lookup Plugin
#Copyright: (C) Copyright 2018 ©Sergey Zhmakin
TITLE "Ocean B&W Purple Filter"
#LUT size
LUT_3D_SIZE 4
#data domain
DOMAIN_MIN 0.0 0.0 0.0
DOMAIN_MAX 1.0 1.0 1.0
#LUT data points
0.000824 0.000824 0.000824
0.022583 0.022583 0.022583
0.257294 0.257294 0.257294
0.677185 0.677185 0.677185
0.122406 0.122406 0.122406
0.131775 0.131775 0.131775
0.322723 0.322723 0.322723
0.719421 0.719421 0.719421
0.511841 0.511841 0.511841
0.508667 0.508667 0.508667
0.526917 0.526917 0.526917
0.778809 0.778809 0.778809
0.886078 0.886078 0.886078
0.881500 0.881500 0.881500
0.864380 0.864380 0.864380
0.874695 0.874695 0.874695
0.004517 0.004517 0.004517
0.020752 0.020752 0.020752
0.270599 0.270599 0.270599
0.675293 0.675293 0.675293
0.092407 0.092407 0.092407
0.101318 0.101318 0.101318
0.348907 0.348907 0.348907
0.734772 0.734772 0.734772
0.499908 0.499908 0.499908
0.499908 0.499908 0.499908
0.531647 0.531647 0.531647
0.796570 0.796570 0.796570
0.879395 0.879395 0.879395
0.874390 0.874390 0.874390
0.859253 0.859253 0.859253
0.879852 0.879852 0.879852
0.010254 0.010254 0.010254
0.015656 0.015656 0.015656
0.243683 0.243683 0.243683
0.669128 0.669128 0.669128
0.061859 0.061859 0.061859
0.082855 0.082855 0.082855
0.316986 0.316986 0.316986
0.717499 0.717499 0.717499
0.508545 0.508545 0.508545
0.507141 0.507141 0.507141
0.545471 0.545471 0.545471
0.765747 0.765747 0.765747
0.873383 0.873383 0.873383
0.866699 0.866699 0.866699
0.856384 0.856384 0.856384
0.894135 0.894135 0.894135
0.025482 0.025482 0.025482
0.044159 0.044159 0.044159
0.241974 0.241974 0.241974
0.658539 0.658539 0.658539
0.078217 0.078217 0.078217
0.101929 0.101929 0.101929
0.288239 0.288239 0.288239
0.689880 0.689880 0.689880
0.454987 0.454987 0.454987
0.456360 0.456360 0.456360
0.509460 0.509460 0.509460
0.788666 0.788666 0.788666
0.893494 0.893494 0.893494
0.890076 0.890076 0.890076
0.880066 0.880066 0.880066
0.967346 0.967346 0.967346
