LUTs/Ocean B&W Purple Filter.cube
#Created by: Adobe Photoshop Export Color Lookup Plugin
#Copyright: (C) Copyright 2018 ©Sergey Zhmakin
TITLE "Ocean B&W Purple Filter"
#LUT size
LUT_3D_SIZE 8
#data domain
DOMAIN_MIN 0.0 0.0 0.0
DOMAIN_MAX 1.0 1.0 1.0
#LUT data points
0.000824 0.000824 0.000824
0.004639 0.004639 0.004639
0.015137 0.015137 0.015137
0.063751 0.063751 0.063751
0.167389 0.167389 0.167389
0.326447 0.326447 0.326447
0.544922 0.544922 0.544922
0.677185 0.677185 0.677185
0.004883 0.004883 0.004883
0.005615 0.005615 0.005615
0.016510 0.016510 0.016510
0.070221 0.070221 0.070221
0.173676 0.173676 0.173676
0.324646 0.324646 0.324646
0.550751 0.550751 0.550751
0.676300 0.676300 0.676300
0.084442 0.084442 0.084442
0.081360 0.081360 0.081360
0.090637 0.090637 0.090637
0.127869 0.127869 0.127869
0.213684 0.213684 0.213684
0.353943 0.353943 0.353943
0.563293 0.563293 0.563293
0.694489 0.694489 0.694489
0.212982 0.212982 0.212982
0.211334 0.211334 0.211334
0.210205 0.210205 0.210205
0.222382 0.222382 0.222382
0.283661 0.283661 0.283661
0.419128 0.419128 0.419128
0.623535 0.623535 0.623535
0.737762 0.737762 0.737762
0.366394 0.366394 0.366394
0.365906 0.365906 0.365906
0.366180 0.366180 0.366180
0.370300 0.370300 0.370300
0.383148 0.383148 0.383148
0.492523 0.492523 0.492523
0.650421 0.650421 0.650421
0.742859 0.742859 0.742859
0.584351 0.584351 0.584351
0.582947 0.582947 0.582947
0.581299 0.581299 0.581299
0.581635 0.581635 0.581635
0.582458 0.582458 0.582458
0.594330 0.594330 0.594330
0.682495 0.682495 0.682495
0.768066 0.768066 0.768066
0.760956 0.760956 0.760956
0.761322 0.761322 0.761322
0.762085 0.762085 0.762085
0.761414 0.761414 0.761414
0.760223 0.760223 0.760223
0.760651 0.760651 0.760651
0.769989 0.769989 0.769989
0.844025 0.844025 0.844025
0.886078 0.886078 0.886078
0.885773 0.885773 0.885773
0.884125 0.884125 0.884125
0.875916 0.875916 0.875916
0.868256 0.868256 0.868256
0.862122 0.862122 0.862122
0.861542 0.861542 0.861542
0.874695 0.874695 0.874695
0.001648 0.001648 0.001648
0.004944 0.004944 0.004944
0.016571 0.016571 0.016571
0.066925 0.066925 0.066925
0.172119 0.172119 0.172119
0.322662 0.322662 0.322662
0.540771 0.540771 0.540771
0.675110 0.675110 0.675110
0.004028 0.004028 0.004028
0.004364 0.004364 0.004364
0.017426 0.017426 0.017426
0.073273 0.073273 0.073273
0.178650 0.178650 0.178650
0.324799 0.324799 0.324799
0.545105 0.545105 0.545105
0.675659 0.675659 0.675659
0.073242 0.073242 0.073242
0.074982 0.074982 0.074982
0.089874 0.089874 0.089874
0.131531 0.131531 0.131531
0.218231 0.218231 0.218231
0.356750 0.356750 0.356750
0.558807 0.558807 0.558807
0.695923 0.695923 0.695923
0.206146 0.206146 0.206146
0.204651 0.204651 0.204651
0.205292 0.205292 0.205292
0.220825 0.220825 0.220825
0.284515 0.284515 0.284515
0.424194 0.424194 0.424194
0.623779 0.623779 0.623779
0.739319 0.739319 0.739319
0.363770 0.363770 0.363770
0.363434 0.363434 0.363434
0.364227 0.364227 0.364227
0.367645 0.367645 0.367645
0.384033 0.384033 0.384033
0.494446 0.494446 0.494446
0.651459 0.651459 0.651459
0.743408 0.743408 0.743408
0.578705 0.578705 0.578705
0.578308 0.578308 0.578308
0.577881 0.577881 0.577881
0.578461 0.578461 0.578461
0.579468 0.579468 0.579468
0.590363 0.590363 0.590363
0.684662 0.684662 0.684662
0.769287 0.769287 0.769287
0.756683 0.756683 0.756683
0.757324 0.757324 0.757324
0.758301 0.758301 0.758301
0.758209 0.758209 0.758209
0.757477 0.757477 0.757477
0.758331 0.758331 0.758331
0.766479 0.766479 0.766479
0.842712 0.842712 0.842712
0.886536 0.886536 0.886536
0.886505 0.886505 0.886505
0.883026 0.883026 0.883026
0.874847 0.874847 0.874847
0.867126 0.867126 0.867126
0.861237 0.861237 0.861237
0.861115 0.861115 0.861115
0.875153 0.875153 0.875153
0.003693 0.003693 0.003693
0.005493 0.005493 0.005493
0.014954 0.014954 0.014954
0.069122 0.069122 0.069122
0.177979 0.177979 0.177979
0.331238 0.331238 0.331238
0.548187 0.548187 0.548187
0.673279 0.673279 0.673279
0.005035 0.005035 0.005035
0.005676 0.005676 0.005676
0.016846 0.016846 0.016846
0.077148 0.077148 0.077148
0.186554 0.186554 0.186554
0.338928 0.338928 0.338928
0.548218 0.548218 0.548218
0.675903 0.675903 0.675903
0.052856 0.052856 0.052856
0.055634 0.055634 0.055634
0.066467 0.066467 0.066467
0.147125 0.147125 0.147125
0.241821 0.241821 0.241821
0.373688 0.373688 0.373688
0.554352 0.554352 0.554352
0.704193 0.704193 0.704193
0.191101 0.191101 0.191101
0.191925 0.191925 0.191925
0.196991 0.196991 0.196991
0.224701 0.224701 0.224701
0.301910 0.301910 0.301910
0.445923 0.445923 0.445923
0.623260 0.623260 0.623260
0.742889 0.742889 0.742889
0.362885 0.362885 0.362885
0.362762 0.362762 0.362762
0.362213 0.362213 0.362213
0.365875 0.365875 0.365875
0.394562 0.394562 0.394562
0.499969 0.499969 0.499969
0.651093 0.651093 0.651093
0.745270 0.745270 0.745270
0.568390 0.568390 0.568390
0.568817 0.568817 0.568817
0.569092 0.569092 0.569092
0.569489 0.569489 0.569489
0.569763 0.569763 0.569763
0.585052 0.585052 0.585052
0.689697 0.689697 0.689697
0.777374 0.777374 0.777374
0.747650 0.747650 0.747650
0.747681 0.747681 0.747681
0.748505 0.748505 0.748505
0.749573 0.749573 0.749573
0.749420 0.749420 0.749420
0.750732 0.750732 0.750732
0.758179 0.758179 0.758179
0.839630 0.839630 0.839630
0.881805 0.881805 0.881805
0.881622 0.881622 0.881622
0.878693 0.878693 0.878693
0.871582 0.871582 0.871582
0.864105 0.864105 0.864105
0.858551 0.858551 0.858551
0.859833 0.859833 0.859833
0.877777 0.877777 0.877777
0.004669 0.004669 0.004669
0.005249 0.005249 0.005249
0.011047 0.011047 0.011047
0.052307 0.052307 0.052307
0.175385 0.175385 0.175385
0.312073 0.312073 0.312073
0.532623 0.532623 0.532623
0.672211 0.672211 0.672211
0.005066 0.005066 0.005066
0.005676 0.005676 0.005676
0.012207 0.012207 0.012207
0.060944 0.060944 0.060944
0.179962 0.179962 0.179962
0.334351 0.334351 0.334351
0.537109 0.537109 0.537109
0.675598 0.675598 0.675598
0.027893 0.027893 0.027893
0.027374 0.027374 0.027374
0.044800 0.044800 0.044800
0.129456 0.129456 0.129456
0.240173 0.240173 0.240173
0.389679 0.389679 0.389679
0.565094 0.565094 0.565094
0.702789 0.702789 0.702789
0.194275 0.194275 0.194275
0.194336 0.194336 0.194336
0.198334 0.198334 0.198334
0.216675 0.216675 0.216675
0.320892 0.320892 0.320892
0.458221 0.458221 0.458221
0.624359 0.624359 0.624359
0.751709 0.751709 0.751709
0.358337 0.358337 0.358337
0.357971 0.357971 0.357971
0.359009 0.359009 0.359009
0.364746 0.364746 0.364746
0.410980 0.410980 0.410980
0.512421 0.512421 0.512421
0.639282 0.639282 0.639282
0.738495 0.738495 0.738495
0.561493 0.561493 0.561493
0.561340 0.561340 0.561340
0.561554 0.561554 0.561554
0.562653 0.562653 0.562653
0.564270 0.564270 0.564270
0.593567 0.593567 0.593567
0.678375 0.678375 0.678375
0.780334 0.780334 0.780334
0.737793 0.737793 0.737793
0.738129 0.738129 0.738129
0.738983 0.738983 0.738983
0.739838 0.739838 0.739838
0.740295 0.740295 0.740295
0.742950 0.742950 0.742950
0.751495 0.751495 0.751495
0.846954 0.846954 0.846954
0.877197 0.877197 0.877197
0.876373 0.876373 0.876373
0.872925 0.872925 0.872925
0.866638 0.866638 0.866638
0.860168 0.860168 0.860168
0.855103 0.855103 0.855103
0.859222 0.859222 0.859222
0.886993 0.886993 0.886993
0.006500 0.006500 0.006500
0.007935 0.007935 0.007935
0.012482 0.012482 0.012482
0.041168 0.041168 0.041168
0.159424 0.159424 0.159424
0.318268 0.318268 0.318268
0.504608 0.504608 0.504608
0.667480 0.667480 0.667480
0.008606 0.008606 0.008606
0.009308 0.009308 0.009308
0.012787 0.012787 0.012787
0.043640 0.043640 0.043640
0.164886 0.164886 0.164886
0.325592 0.325592 0.325592
0.509583 0.509583 0.509583
0.673157 0.673157 0.673157
0.024872 0.024872 0.024872
0.025085 0.025085 0.025085
0.037354 0.037354 0.037354
0.100647 0.100647 0.100647
0.211151 0.211151 0.211151
0.375153 0.375153 0.375153
0.576874 0.576874 0.576874
0.703247 0.703247 0.703247
0.159943 0.159943 0.159943
0.160217 0.160217 0.160217
0.162354 0.162354 0.162354
0.199310 0.199310 0.199310
0.315582 0.315582 0.315582
0.468353 0.468353 0.468353
0.616913 0.616913 0.616913
0.738647 0.738647 0.738647
0.362885 0.362885 0.362885
0.363525 0.363525 0.363525
0.365265 0.365265 0.365265
0.370331 0.370331 0.370331
0.405762 0.405762 0.405762
0.530243 0.530243 0.530243
0.640533 0.640533 0.640533
0.730621 0.730621 0.730621
0.567291 0.567291 0.567291
0.567261 0.567261 0.567261
0.567719 0.567719 0.567719
0.570984 0.570984 0.570984
0.578827 0.578827 0.578827
0.621124 0.621124 0.621124
0.687073 0.687073 0.687073
0.765961 0.765961 0.765961
0.737091 0.737091 0.737091
0.737335 0.737335 0.737335
0.738403 0.738403 0.738403
0.739441 0.739441 0.739441
0.740112 0.740112 0.740112
0.741150 0.741150 0.741150
0.762634 0.762634 0.762634
0.850708 0.850708 0.850708
0.874878 0.874878 0.874878
0.873383 0.873383 0.873383
0.869659 0.869659 0.869659
0.863068 0.863068 0.863068
0.858826 0.858826 0.858826
0.854065 0.854065 0.854065
0.861115 0.861115 0.861115
0.891846 0.891846 0.891846
0.010681 0.010681 0.010681
0.011017 0.011017 0.011017
0.012299 0.012299 0.012299
0.046753 0.046753 0.046753
0.144928 0.144928 0.144928
0.313232 0.313232 0.313232
0.492249 0.492249 0.492249
0.675201 0.675201 0.675201
0.010834 0.010834 0.010834
0.011017 0.011017 0.011017
0.013153 0.013153 0.013153
0.052002 0.052002 0.052002
0.148529 0.148529 0.148529
0.319427 0.319427 0.319427
0.496002 0.496002 0.496002
0.685638 0.685638 0.685638
0.034973 0.034973 0.034973
0.036407 0.036407 0.036407
0.043945 0.043945 0.043945
0.094391 0.094391 0.094391
0.189270 0.189270 0.189270
0.344910 0.344910 0.344910
0.562531 0.562531 0.562531
0.716736 0.716736 0.716736
0.155182 0.155182 0.155182
0.155487 0.155487 0.155487
0.164154 0.164154 0.164154
0.192566 0.192566 0.192566
0.289001 0.289001 0.289001
0.437286 0.437286 0.437286
0.614899 0.614899 0.614899
0.711639 0.711639 0.711639
0.350922 0.350922 0.350922
0.351654 0.351654 0.351654
0.353516 0.353516 0.353516
0.357666 0.357666 0.357666
0.420258 0.420258 0.420258
0.533661 0.533661 0.533661
0.650269 0.650269 0.650269
0.735535 0.735535 0.735535
0.576935 0.576935 0.576935
0.577057 0.577057 0.577057
0.577667 0.577667 0.577667
0.577087 0.577087 0.577087
0.579834 0.579834 0.579834
0.621918 0.621918 0.621918
0.707428 0.707428 0.707428
0.769379 0.769379 0.769379
0.742218 0.742218 0.742218
0.742249 0.742249 0.742249
0.742645 0.742645 0.742645
0.743286 0.743286 0.743286
0.745117 0.745117 0.745117
0.749573 0.749573 0.749573
0.780823 0.780823 0.780823
0.871979 0.871979 0.871979
0.874115 0.874115 0.874115
0.872955 0.872955 0.872955
0.869232 0.869232 0.869232
0.865112 0.865112 0.865112
0.861389 0.861389 0.861389
0.858307 0.858307 0.858307
0.866913 0.866913 0.866913
0.897949 0.897949 0.897949
0.013794 0.013794 0.013794
0.014130 0.014130 0.014130
0.019684 0.019684 0.019684
0.063141 0.063141 0.063141
0.149597 0.149597 0.149597
0.306946 0.306946 0.306946
0.481689 0.481689 0.481689
0.672180 0.672180 0.672180
0.016174 0.016174 0.016174
0.017639 0.017639 0.017639
0.027039 0.027039 0.027039
0.066956 0.066956 0.066956
0.151672 0.151672 0.151672
0.308014 0.308014 0.308014
0.495850 0.495850 0.495850
0.689545 0.689545 0.689545
0.043762 0.043762 0.043762
0.044189 0.044189 0.044189
0.056244 0.056244 0.056244
0.094879 0.094879 0.094879
0.182587 0.182587 0.182587
0.325317 0.325317 0.325317
0.553650 0.553650 0.553650
0.726013 0.726013 0.726013
0.155640 0.155640 0.155640
0.154816 0.154816 0.154816
0.159821 0.159821 0.159821
0.183807 0.183807 0.183807
0.267761 0.267761 0.267761
0.406372 0.406372 0.406372
0.592377 0.592377 0.592377
0.710968 0.710968 0.710968
0.329193 0.329193 0.329193
0.329407 0.329407 0.329407
0.328583 0.328583 0.328583
0.333832 0.333832 0.333832
0.370453 0.370453 0.370453
0.494537 0.494537 0.494537
0.650970 0.650970 0.650970
0.765289 0.765289 0.765289
0.540894 0.540894 0.540894
0.540894 0.540894 0.540894
0.540863 0.540863 0.540863
0.540253 0.540253 0.540253
0.543854 0.543854 0.543854
0.599396 0.599396 0.599396
0.710510 0.710510 0.710510
0.780273 0.780273 0.780273
0.751892 0.751892 0.751892
0.751953 0.751953 0.751953
0.751343 0.751343 0.751343
0.750427 0.750427 0.750427
0.750610 0.750610 0.750610
0.757446 0.757446 0.757446
0.802673 0.802673 0.802673
0.881134 0.881134 0.881134
0.880981 0.880981 0.880981
0.880005 0.880005 0.880005
0.877808 0.877808 0.877808
0.874634 0.874634 0.874634
0.869354 0.869354 0.869354
0.869049 0.869049 0.869049
0.879608 0.879608 0.879608
0.915588 0.915588 0.915588
0.025482 0.025482 0.025482
0.028259 0.028259 0.028259
0.038574 0.038574 0.038574
0.067596 0.067596 0.067596
0.150055 0.150055 0.150055
0.282959 0.282959 0.282959
0.504730 0.504730 0.504730
0.658539 0.658539 0.658539
0.030579 0.030579 0.030579
0.033203 0.033203 0.033203
0.039398 0.039398 0.039398
0.071350 0.071350 0.071350
0.157806 0.157806 0.157806
0.281372 0.281372 0.281372
0.514160 0.514160 0.514160
0.663361 0.663361 0.663361
0.044495 0.044495 0.044495
0.045227 0.045227 0.045227
0.057678 0.057678 0.057678
0.104279 0.104279 0.104279
0.186707 0.186707 0.186707
0.324463 0.324463 0.324463
0.545197 0.545197 0.545197
0.685425 0.685425 0.685425
0.152924 0.152924 0.152924
0.153168 0.153168 0.153168
0.158112 0.158112 0.158112
0.191101 0.191101 0.191101
0.256195 0.256195 0.256195
0.383423 0.383423 0.383423
0.564789 0.564789 0.564789
0.688995 0.688995 0.688995
0.315857 0.315857 0.315857
0.315186 0.315186 0.315186
0.309479 0.309479 0.309479
0.305023 0.305023 0.305023
0.365906 0.365906 0.365906
0.477844 0.477844 0.477844
0.643158 0.643158 0.643158
0.749207 0.749207 0.749207
0.518188 0.518188 0.518188
0.518341 0.518341 0.518341
0.518707 0.518707 0.518707
0.519165 0.519165 0.519165
0.523163 0.523163 0.523163
0.572449 0.572449 0.572449
0.703461 0.703461 0.703461
0.785645 0.785645 0.785645
0.730316 0.730316 0.730316
0.730316 0.730316 0.730316
0.730072 0.730072 0.730072
0.728729 0.728729 0.728729
0.727661 0.727661 0.727661
0.729431 0.729431 0.729431
0.779419 0.779419 0.779419
0.854706 0.854706 0.854706
0.893494 0.893494 0.893494
0.892700 0.892700 0.892700
0.890778 0.890778 0.890778
0.886017 0.886017 0.886017
0.880341 0.880341 0.880341
0.881897 0.881897 0.881897
0.896301 0.896301 0.896301
0.967346 0.967346 0.967346
