LUTs/Polarizer Effect.cube
#Created by: Adobe Photoshop Export Color Lookup Plugin
#Copyright: (C) Copyright 2018 ©Sergey Zhmakin
TITLE "Polarizer Effect"
#LUT size
LUT_3D_SIZE 64
#data domain
DOMAIN_MIN 0.0 0.0 0.0
DOMAIN_MAX 1.0 1.0 1.0
#LUT data points
0.000732 0.000000 0.000000
0.001312 0.000000 0.000000
0.001923 0.000000 0.000000
0.002747 0.000122 0.000000
0.004211 0.000336 0.000000
0.006378 0.000763 0.000000
0.009857 0.001740 0.000000
0.016876 0.003967 0.001129
0.029968 0.003998 0.003540
0.051666 0.002838 0.005432
0.078979 0.002533 0.004364
0.103790 0.007141 0.007050
0.122620 0.011841 0.009766
0.140930 0.017822 0.011627
0.161926 0.023285 0.011200
0.182739 0.024109 0.011627
0.199585 0.021759 0.010864
0.215454 0.017639 0.009216
0.229614 0.014465 0.007111
0.243713 0.011902 0.004639
0.257477 0.008301 0.004700
0.272400 0.007019 0.005676
0.286163 0.007141 0.006653
0.295715 0.007324 0.007019
0.306824 0.007629 0.007355
0.319702 0.007935 0.007172
0.334808 0.008148 0.006256
0.351410 0.008240 0.005554
0.368469 0.008240 0.005859
0.385406 0.009277 0.006409
0.403870 0.010590 0.007019
0.425934 0.010193 0.007172
0.448456 0.009674 0.007233
0.470673 0.009064 0.007263
0.489777 0.010468 0.008331
0.511688 0.014160 0.011200
0.536499 0.017212 0.013336
0.565033 0.019409 0.014984
0.601837 0.022156 0.016144
0.644287 0.025818 0.016541
0.694031 0.029358 0.015533
0.748993 0.024261 0.012726
0.807251 0.014069 0.010101
0.859619 0.013123 0.008972
0.892853 0.030884 0.012238
0.915558 0.042206 0.015076
0.924927 0.046265 0.016754
0.930359 0.048004 0.017761
0.931915 0.047882 0.017670
0.931915 0.047882 0.017761
0.931915 0.047882 0.017761
0.931915 0.047882 0.017761
0.931976 0.048004 0.017792
0.931885 0.048157 0.017731
0.931854 0.048401 0.017822
0.931854 0.048798 0.017853
0.931793 0.048950 0.017792
0.931793 0.048950 0.017670
0.931793 0.048950 0.017670
0.931732 0.049225 0.017670
0.931702 0.049469 0.017639
0.931763 0.049591 0.017670
0.931671 0.050110 0.017639
0.931641 0.050720 0.017731
0.000732 0.000000 0.000000
0.000732 0.000000 0.000000
0.001312 0.000000 0.000000
0.002289 0.000031 0.000000
0.003784 0.000275 0.000000
0.006104 0.000732 0.000000
0.010040 0.001801 0.000000
0.017761 0.004089 0.001373
0.030243 0.003967 0.003601
0.053345 0.002747 0.005493
0.080475 0.002655 0.004333
0.104614 0.007324 0.007141
0.122711 0.011810 0.009827
0.140045 0.017517 0.011627
0.160614 0.023132 0.011139
0.181671 0.024170 0.011566
0.198669 0.021973 0.010803
0.214661 0.017853 0.009277
0.228638 0.014618 0.007202
0.242950 0.012085 0.004669
0.256714 0.008514 0.004639
0.271606 0.007019 0.005585
0.285645 0.007111 0.006622
0.295074 0.007385 0.007019
0.306335 0.007660 0.007355
0.319183 0.007904 0.007141
0.334259 0.008087 0.006195
0.351135 0.008270 0.005524
0.368134 0.008240 0.005798
0.385193 0.009277 0.006439
0.403809 0.010620 0.007050
0.425812 0.010284 0.007172
0.448273 0.009705 0.007233
0.470276 0.009094 0.007233
0.489349 0.010498 0.008240
0.511078 0.014221 0.011108
0.535767 0.017273 0.013306
0.564850 0.019501 0.014954
0.601349 0.022125 0.016144
0.643494 0.025818 0.016541
0.693634 0.029480 0.015533
0.748566 0.024323 0.012695
0.806366 0.014343 0.010162
0.859131 0.012695 0.008911
0.891479 0.030029 0.012024
0.914398 0.041626 0.014923
0.923401 0.045715 0.016541
0.929749 0.047974 0.017700
0.931915 0.047882 0.017670
0.931915 0.047882 0.017670
0.931915 0.047882 0.017761
0.931915 0.047882 0.017761
0.931976 0.048004 0.017792
0.931885 0.048157 0.017731
0.931854 0.048401 0.017822
0.931854 0.048798 0.017853
0.931793 0.048950 0.017792
0.931793 0.048950 0.017670
0.931732 0.049225 0.017670
0.931732 0.049225 0.017670
0.931702 0.049469 0.017639
0.931671 0.049744 0.017609
0.931671 0.050110 0.017731
0.931641 0.050720 0.017731
0.000732 0.000000 0.000000
0.000732 0.000000 0.000000
0.000732 0.000000 0.000000
0.001160 0.000000 0.000000
0.002747 0.000122 0.000000
0.005310 0.000549 0.000000
0.009155 0.001465 0.000000
0.017517 0.004059 0.001282
0.030334 0.003937 0.003601
0.054138 0.002747 0.005585
0.080872 0.002686 0.004303
0.104553 0.007294 0.007080
0.121735 0.011536 0.009644
0.138885 0.017120 0.011627
0.159363 0.022949 0.011139
0.180634 0.024231 0.011536
0.197693 0.022186 0.010834
0.213745 0.018158 0.009308
0.227570 0.014862 0.007172
0.241943 0.012299 0.004669
0.255951 0.008698 0.004669
0.270630 0.007050 0.005524
0.284607 0.007111 0.006561
0.294647 0.007355 0.006989
0.305695 0.007690 0.007355
0.318848 0.007965 0.007141
0.333710 0.008148 0.006134
0.350616 0.008240 0.005493
0.367950 0.008270 0.005829
0.384949 0.009338 0.006470
0.403595 0.010651 0.007050
0.425568 0.010254 0.007172
0.448151 0.009705 0.007202
0.469879 0.009186 0.007172
0.488770 0.010437 0.008148
0.510437 0.014252 0.010986
0.534943 0.017395 0.013275
0.564423 0.019531 0.014954
0.600952 0.022217 0.016174
0.642822 0.025635 0.016571
0.693451 0.029327 0.015472
0.748413 0.024231 0.012665
0.805664 0.014374 0.010162
0.858582 0.012543 0.008820
0.889923 0.029388 0.011810
0.912659 0.041107 0.014648
0.921906 0.045288 0.016235
0.929016 0.047974 0.017578
0.931915 0.047882 0.017670
0.931915 0.047882 0.017670
0.931915 0.047882 0.017761
0.931915 0.047882 0.017761
0.931976 0.048004 0.017792
0.931915 0.048279 0.017792
0.931885 0.048157 0.017853
0.931854 0.048798 0.017853
0.931793 0.048950 0.017792
0.931824 0.049072 0.017609
0.931732 0.049225 0.017670
0.931732 0.049225 0.017670
0.931702 0.049469 0.017639
0.931702 0.049866 0.017639
0.931671 0.050110 0.017639
0.931641 0.050720 0.017731
0.000854 0.000000 0.000000
0.000854 0.000000 0.000000
0.000854 0.000000 0.000000
0.000854 0.000000 0.000000
0.001160 0.000000 0.000000
0.003876 0.000244 0.000000
0.007935 0.001129 0.000000
0.016998 0.003998 0.001190
0.030640 0.003937 0.003693
0.053955 0.002747 0.005615
0.080353 0.002655 0.004364
0.103119 0.006989 0.006897
0.119995 0.010986 0.009369
0.137787 0.016754 0.011505
0.158173 0.022736 0.011108
0.179260 0.024323 0.011536
0.196777 0.022369 0.010773
0.212250 0.018616 0.009186
0.226288 0.015076 0.007294
0.240417 0.012573 0.004730
0.254761 0.009003 0.004669
0.270050 0.007050 0.005402
0.283600 0.007172 0.006439
0.294128 0.007416 0.006958
0.305359 0.007660 0.007324
0.318268 0.007965 0.007111
0.333130 0.008179 0.006134
0.350067 0.008301 0.005463
0.367554 0.008301 0.005859
0.384796 0.009308 0.006409
0.403381 0.010620 0.007050
0.425507 0.010315 0.007202
0.448090 0.009766 0.007233
0.469482 0.009216 0.007233
0.488312 0.010529 0.008118
0.509766 0.014252 0.011017
0.534210 0.017456 0.013275
0.563690 0.019806 0.014923
0.600494 0.022186 0.016174
0.642548 0.025757 0.016571
0.692963 0.029480 0.015503
0.747833 0.024323 0.012756
0.804626 0.014557 0.010223
0.857849 0.012177 0.008789
0.888611 0.028687 0.011627
0.910797 0.040192 0.014404
0.920288 0.044769 0.015961
0.927765 0.047516 0.017365
0.931915 0.047882 0.017670
0.931915 0.047882 0.017670
0.931915 0.047882 0.017761
0.931915 0.047882 0.017761
0.931976 0.048004 0.017792
0.931915 0.048279 0.017792
0.931885 0.048157 0.017853
0.931854 0.048798 0.017853
0.931793 0.048950 0.017792
0.931793 0.048950 0.017670
0.931732 0.049225 0.017670
0.931732 0.049225 0.017670
0.931702 0.049469 0.017639
0.931671 0.049744 0.017609
0.931641 0.050354 0.017700
0.931641 0.050720 0.017731
0.001007 0.000000 0.000000
0.001007 0.000000 0.000000
0.001007 0.000000 0.000000
0.000946 0.000000 0.000000
0.001221 0.000000 0.000000
0.001587 0.000000 0.000000
0.005890 0.000732 0.000000
0.015106 0.003632 0.000763
0.030090 0.003998 0.003601
0.052979 0.002777 0.005463
0.077271 0.002441 0.004364
0.100433 0.006348 0.006470
0.118256 0.010437 0.009064
0.136017 0.016144 0.011383
0.155182 0.022156 0.011047
0.177795 0.024384 0.011444
0.195221 0.022705 0.010681
0.210602 0.019135 0.009186
0.224609 0.015503 0.007355
0.238464 0.012939 0.004822
0.252869 0.009460 0.004608
0.268616 0.007050 0.005249
0.282196 0.007202 0.006348
0.293549 0.007416 0.006927
0.304810 0.007690 0.007263
0.317657 0.007965 0.007141
0.332581 0.008240 0.006104
0.349365 0.008331 0.005463
0.367188 0.008362 0.005829
0.384460 0.009369 0.006409
0.402832 0.010742 0.007080
0.425262 0.010284 0.007172
0.447906 0.009827 0.007263
0.468903 0.009308 0.007172
0.487640 0.010529 0.008057
0.508850 0.014343 0.010925
0.533051 0.017548 0.013184
0.562622 0.019897 0.014862
0.599640 0.022278 0.016205
0.641876 0.025574 0.016602
0.692566 0.029419 0.015564
0.747406 0.024384 0.012726
0.803528 0.014893 0.010223
0.857239 0.011780 0.008759
0.886871 0.027802 0.011353
0.908447 0.039368 0.014008
0.918304 0.044312 0.015717
0.926117 0.047394 0.017059
0.931915 0.047882 0.017670
0.931915 0.047882 0.017670
0.931915 0.047882 0.017761
0.931915 0.047882 0.017761
0.931976 0.048004 0.017792
0.931885 0.048157 0.017731
0.931885 0.048157 0.017853
0.931854 0.048798 0.017853
0.931793 0.048950 0.017792
0.931793 0.048950 0.017670
0.931732 0.049225 0.017670
0.931732 0.049225 0.017670
0.931702 0.049469 0.017639
0.931671 0.049744 0.017609
0.931671 0.050476 0.017761
0.931641 0.050720 0.017731
0.001282 0.000031 0.000000
0.001343 0.000061 0.000000
0.001343 0.000061 0.000000
0.001404 0.000031 0.000000
0.001465 0.000092 0.000000
0.001984 0.000122 0.000000
0.002808 0.000214 0.000000
0.009308 0.001984 0.000122
0.024536 0.004700 0.002838
0.046478 0.003021 0.005035
0.072693 0.002197 0.004578
0.097839 0.005798 0.006104
0.115173 0.009674 0.008636
0.130829 0.014496 0.010803
0.150879 0.021210 0.011047
0.172455 0.024475 0.011139
0.192780 0.023193 0.010193
0.208435 0.019836 0.009186
0.222656 0.016083 0.007507
0.236328 0.013306 0.005066
0.250610 0.009979 0.004547
0.266296 0.007019 0.004974
0.279724 0.007233 0.006195
0.292786 0.007446 0.006958
0.304077 0.007751 0.007263
0.316925 0.008026 0.007080
0.331757 0.008209 0.005981
0.348694 0.008362 0.005371
0.366760 0.008423 0.005829
0.383820 0.009338 0.006378
0.401978 0.010834 0.007050
0.425079 0.010284 0.007141
0.447784 0.009766 0.007233
0.468201 0.009430 0.007172
0.486786 0.010559 0.007996
0.507813 0.014404 0.010834
0.531708 0.017670 0.013123
0.561188 0.020111 0.014832
0.597809 0.022217 0.016174
0.641266 0.025726 0.016571
0.691986 0.029419 0.015533
0.746552 0.024628 0.012787
0.802277 0.015137 0.010223
0.854858 0.010406 0.008545
0.884674 0.027039 0.011047
0.905518 0.038086 0.013550
0.915955 0.043488 0.015320
0.924103 0.046814 0.016785
0.930450 0.048248 0.017731
0.931915 0.047882 0.017670
0.931915 0.047882 0.017761
0.931915 0.047882 0.017761
0.931976 0.048004 0.017792
0.931885 0.048157 0.017731
0.931885 0.048157 0.017853
0.931854 0.048798 0.017853
0.931793 0.048950 0.017792
0.931793 0.048950 0.017670
0.931732 0.049225 0.017670
0.931793 0.049347 0.017578
0.931702 0.049469 0.017639
0.931671 0.049744 0.017609
0.931641 0.050354 0.017700
0.931641 0.050720 0.017731
0.001801 0.000244 0.000000
0.001801 0.000244 0.000000
0.001953 0.000244 0.000000
0.001953 0.000244 0.000000
0.002014 0.000214 0.000000
0.002167 0.000244 0.000000
0.002960 0.000427 0.000000
0.004272 0.000610 0.000000
0.013977 0.004211 0.001129
0.030823 0.004974 0.003693
0.058655 0.003418 0.006226
0.084930 0.003723 0.004974
0.109161 0.008820 0.008118
0.124603 0.012665 0.010071
0.144409 0.019318 0.010803
0.164703 0.024261 0.010498
0.185425 0.024445 0.009949
0.205505 0.020721 0.009064
0.219849 0.017029 0.007446
0.233643 0.013794 0.005280
0.248230 0.010529 0.004456
0.262726 0.007111 0.004608
0.275787 0.007324 0.005859
0.290161 0.007538 0.006836
0.303253 0.007813 0.007263
0.316162 0.008057 0.006989
0.330933 0.008270 0.005890
0.347870 0.008484 0.005341
0.366150 0.008545 0.005798
0.382660 0.009460 0.006378
0.400848 0.010986 0.007019
0.424408 0.010376 0.007141
0.447662 0.009796 0.007233
0.467468 0.009613 0.007111
0.485748 0.010651 0.007782
0.506439 0.014526 0.010712
0.530060 0.017853 0.013062
0.559601 0.020447 0.014709
0.595795 0.022278 0.016174
0.639526 0.025665 0.016602
0.691406 0.029388 0.015564
0.745270 0.024719 0.012817
0.800720 0.015198 0.010284
0.851776 0.008820 0.008331
0.881897 0.025543 0.010712
0.902100 0.036438 0.013184
0.913086 0.042511 0.014923
0.921661 0.046417 0.016388
0.928284 0.048340 0.017548
0.931915 0.047882 0.017670
0.931915 0.047882 0.017761
0.931915 0.047882 0.017761
0.931976 0.048004 0.017792
0.931885 0.048157 0.017853
0.931915 0.048279 0.017883
0.931824 0.049072 0.017822
0.931732 0.049225 0.017670
0.931793 0.048950 0.017578
0.931732 0.049225 0.017670
0.931702 0.049469 0.017639
0.931702 0.049469 0.017639
0.931641 0.049988 0.017578
0.931641 0.050720 0.017731
0.931610 0.050995 0.017700
0.002655 0.000580 0.000000
0.002563 0.000610 0.000000
0.002563 0.000610 0.000000
0.002563 0.000610 0.000000
0.002930 0.000824 0.000031
0.003571 0.001160 0.000183
0.004242 0.001556 0.000397
0.006012 0.002350 0.000732
0.009155 0.003815 0.001251
0.018707 0.006805 0.002197
0.041779 0.005981 0.005127
0.068756 0.003510 0.005981
0.096161 0.007355 0.007385
0.118195 0.012238 0.009155
0.136871 0.016937 0.009857
0.156525 0.023468 0.009796
0.177246 0.025360 0.009583
0.198273 0.022827 0.008789
0.216217 0.018372 0.007172
0.230713 0.014404 0.005432
0.245148 0.011230 0.004333
0.258179 0.007690 0.004303
0.271393 0.007416 0.005554
0.285889 0.007721 0.006653
0.301239 0.007874 0.007263
0.315247 0.008118 0.006866
0.329956 0.008270 0.005646
0.346985 0.008575 0.005249
0.364502 0.008972 0.005798
0.381042 0.009888 0.006348
0.399139 0.011078 0.006927
0.422852 0.010590 0.007080
0.447510 0.009857 0.007233
0.466370 0.009766 0.007111
0.484528 0.010620 0.007690
0.504822 0.014526 0.010529
0.528137 0.018158 0.012970
0.557434 0.020752 0.014648
0.593353 0.022339 0.016205
0.637177 0.025970 0.016632
0.688782 0.029236 0.015686
0.743835 0.025024 0.012848
0.798645 0.015808 0.010376
0.847168 0.008301 0.008240
0.878448 0.023956 0.010315
0.897675 0.034729 0.012665
0.909698 0.041504 0.014465
0.918854 0.045685 0.015961
0.925659 0.047852 0.017151
0.930756 0.048462 0.017639
0.931915 0.047882 0.017761
0.931915 0.047882 0.017761
0.931976 0.048004 0.017792
0.931885 0.048157 0.017853
0.931915 0.048279 0.017883
0.931824 0.049072 0.017822
0.931732 0.049225 0.017670
0.931732 0.049225 0.017670
0.931732 0.049194 0.017548
0.931702 0.049469 0.017639
0.931671 0.049744 0.017609
0.931671 0.050110 0.017639
0.931641 0.050720 0.017731
0.931610 0.050995 0.017700
0.007782 0.004791 0.001953
0.007935 0.004913 0.002014
0.008087 0.005035 0.002075
0.008148 0.005096 0.002045
0.008270 0.005157 0.002045
0.008301 0.005219 0.002106
0.009247 0.005463 0.002045
0.010223 0.005829 0.002075
0.011932 0.006378 0.002167
0.015839 0.007568 0.002289
0.025665 0.009216 0.002991
0.053558 0.006683 0.005219
0.080566 0.007111 0.006744
0.109039 0.013306 0.008301
0.130493 0.017212 0.009003
0.148682 0.022369 0.009216
0.169556 0.025940 0.009125
0.190186 0.024933 0.008301
0.209595 0.020752 0.006989
0.226654 0.015930 0.005493
0.241089 0.012146 0.004242
0.253296 0.008881 0.004272
0.266632 0.007599 0.005157
0.280914 0.007843 0.006378
0.296417 0.007996 0.006958
0.312317 0.008179 0.006653
0.328888 0.008423 0.005402
0.345306 0.008759 0.005219
0.361450 0.009674 0.005768
0.378754 0.010468 0.006287
0.397003 0.011292 0.006897
0.420746 0.010864 0.007019
0.444946 0.010162 0.007141
0.464752 0.009949 0.006989
0.482971 0.010712 0.007446
0.502777 0.014740 0.010345
0.526031 0.018311 0.012787
0.555115 0.021149 0.014557
0.590698 0.022675 0.016174
0.634338 0.026031 0.016663
0.684082 0.028839 0.015869
0.740967 0.025543 0.013000
0.793121 0.016602 0.010559
0.840851 0.008911 0.008392
0.874084 0.021759 0.009827
0.892639 0.032593 0.012085
0.905518 0.040192 0.013916
0.915161 0.044830 0.015381
0.922638 0.047577 0.016632
0.927856 0.048950 0.017578
0.931854 0.048401 0.017731
0.931915 0.047882 0.017761
0.931976 0.048004 0.017792
0.931885 0.048157 0.017731
0.931915 0.048279 0.017883
0.931824 0.049072 0.017822
0.931793 0.049347 0.017700
0.931732 0.049225 0.017670
0.931732 0.049225 0.017670
0.931702 0.049469 0.017639
0.931671 0.049744 0.017609
0.931641 0.050354 0.017609
0.931610 0.050995 0.017700
0.931610 0.051361 0.017822
0.018982 0.013367 0.002319
0.018921 0.013397 0.002228
0.018799 0.013306 0.002228
0.018646 0.013123 0.002289
0.018372 0.012848 0.002228
0.018005 0.012573 0.002289
0.018280 0.012695 0.002258
0.021637 0.014008 0.002106
0.025726 0.015198 0.001801
0.030487 0.015869 0.001343
0.038422 0.015625 0.000763
0.048462 0.014648 0.003143
0.075073 0.015106 0.007416
0.100281 0.016541 0.008728
0.123169 0.020660 0.008789
0.143616 0.024231 0.008850
0.162781 0.026611 0.008484
0.183350 0.026703 0.007843
0.203003 0.023346 0.007019
0.221039 0.018372 0.005371
0.235748 0.013977 0.004150
0.247894 0.010193 0.004089
0.261139 0.007721 0.004639
0.275238 0.007965 0.005981
0.290405 0.008118 0.006531
0.307465 0.008209 0.006287
0.324615 0.008423 0.004974
0.341644 0.009033 0.005219
0.357971 0.010345 0.005768
0.375641 0.011292 0.006317
0.394104 0.011658 0.006805
0.417969 0.011139 0.006958
0.440704 0.010681 0.007019
0.461578 0.010376 0.006836
0.480896 0.010712 0.007111
0.500488 0.014923 0.010132
0.523621 0.018677 0.012634
0.552460 0.021576 0.014374
0.587372 0.023193 0.016083
0.630676 0.026245 0.016663
0.678040 0.028534 0.016022
0.736084 0.026367 0.013275
0.785645 0.017944 0.010773
0.832947 0.010284 0.008728
0.868988 0.019257 0.009338
0.886749 0.030151 0.011505
0.900696 0.038452 0.013428
0.910919 0.043823 0.014801
0.919067 0.047119 0.016144
0.924622 0.048798 0.017120
0.929321 0.049347 0.017639
0.931885 0.048157 0.017731
0.931885 0.048157 0.017731
0.931885 0.048157 0.017853
0.931885 0.048523 0.017883
0.931793 0.049347 0.017792
0.931793 0.049347 0.017700
0.931702 0.049469 0.017639
0.931702 0.049469 0.017639
0.931702 0.049866 0.017639
0.931671 0.050110 0.017639
0.931610 0.050629 0.017700
0.931580 0.051239 0.017670
0.931580 0.051605 0.017792
0.040741 0.030701 0.001556
0.040802 0.030853 0.001709
0.041077 0.031006 0.001801
0.041412 0.031128 0.001892
0.041840 0.031342 0.002014
0.042694 0.031830 0.002289
0.043640 0.032349 0.002594
0.044647 0.032928 0.002869
0.047791 0.032562 0.003571
0.052246 0.032104 0.004822
0.057983 0.031860 0.006195
0.065063 0.031769 0.007568
0.073608 0.031372 0.008789
0.096802 0.029419 0.009583
0.118713 0.027588 0.009644
0.138855 0.029724 0.009033
0.158661 0.030334 0.008362
0.178772 0.028625 0.007690
0.198456 0.025757 0.006439
0.215790 0.021332 0.005371
0.230957 0.016754 0.004181
0.243591 0.012115 0.004089
0.254639 0.008118 0.003998
0.268372 0.008118 0.005310
0.283295 0.008209 0.005981
0.299774 0.008270 0.005676
0.316742 0.008606 0.004883
0.334473 0.009827 0.005219
0.353302 0.011383 0.005707
0.371490 0.012329 0.006256
0.390350 0.012543 0.006653
0.413879 0.011597 0.006836
0.435303 0.011292 0.006744
0.456635 0.011017 0.006653
0.477539 0.010681 0.006561
0.497345 0.015106 0.009766
0.521210 0.018860 0.012451
0.549194 0.022034 0.014191
0.583466 0.023834 0.015961
0.626282 0.026337 0.016724
0.672852 0.028748 0.016174
0.725769 0.028015 0.013824
0.774384 0.020020 0.011139
0.822479 0.012329 0.009003
0.861877 0.015869 0.008728
0.880127 0.027405 0.010925
0.894653 0.036194 0.012756
0.905914 0.042297 0.014252
0.914642 0.046265 0.015533
0.920776 0.048645 0.016632
0.926025 0.049744 0.017487
0.931580 0.049103 0.017639
0.931885 0.048157 0.017731
0.931885 0.048157 0.017853
0.931885 0.048523 0.017883
0.931793 0.049347 0.017792
0.931702 0.049469 0.017639
0.931702 0.049469 0.017639
0.931702 0.049866 0.017639
0.931641 0.049988 0.017578
0.931610 0.050598 0.017578
0.931580 0.051239 0.017670
0.931610 0.051361 0.017731
0.931580 0.051605 0.017792
0.055511 0.050446 0.008942
0.055420 0.050476 0.009003
0.055603 0.050476 0.008972
0.055847 0.050446 0.008942
0.056366 0.050354 0.008850
0.057068 0.050323 0.008820
0.057861 0.050323 0.008759
0.058929 0.050354 0.008759
0.060242 0.050385 0.008636
0.064423 0.049744 0.008484
0.070435 0.048828 0.008667
0.078247 0.047974 0.009155
0.086395 0.046906 0.009674
0.094269 0.045471 0.010315
0.114899 0.041534 0.010864
0.135956 0.038788 0.009918
0.155518 0.037628 0.008545
0.175934 0.034058 0.006927
0.195892 0.028931 0.005981
0.213226 0.024017 0.005066
0.228210 0.019348 0.004333
0.240448 0.014862 0.004242
0.251190 0.010681 0.004242
0.260773 0.008362 0.004517
0.274109 0.008240 0.005219
0.289093 0.008362 0.005157
0.306549 0.009277 0.005341
0.326111 0.011017 0.005432
0.345673 0.012634 0.005676
0.365387 0.013702 0.006042
0.384918 0.014008 0.006500
0.406494 0.013092 0.006622
0.428833 0.012085 0.006531
0.450775 0.011719 0.006348
0.472198 0.011292 0.006134
0.493256 0.015167 0.009186
0.517975 0.019287 0.012177
0.545471 0.022522 0.014160
0.578796 0.024750 0.015778
0.620911 0.026459 0.016815
0.665894 0.029175 0.016266
0.712006 0.030212 0.014587
0.760040 0.022614 0.011719
0.807098 0.015015 0.009460
0.852142 0.011566 0.008148
0.872559 0.024353 0.010223
0.887726 0.033875 0.012146
0.900146 0.041077 0.013702
0.909424 0.045685 0.014984
0.916443 0.048462 0.016113
0.922394 0.050171 0.017059
0.929779 0.049927 0.017670
0.931976 0.048004 0.017792
0.931885 0.048157 0.017853
0.931854 0.048401 0.017822
0.931793 0.049347 0.017792
0.931763 0.049591 0.017670
0.931671 0.049744 0.017609
0.931641 0.049988 0.017578
0.931610 0.050598 0.017578
0.931610 0.050995 0.017700
0.931519 0.051483 0.017670
0.931549 0.051849 0.017792
0.931580 0.051971 0.017822
0.063080 0.066345 0.008575
0.063110 0.066254 0.008575
0.063324 0.066101 0.008484
0.063354 0.066132 0.008545
0.064026 0.066071 0.008453
0.064972 0.066010 0.008392
0.066132 0.065948 0.008362
0.067322 0.065979 0.008270
0.068909 0.066010 0.008148
0.070526 0.066162 0.007965
0.076050 0.064728 0.007599
0.084076 0.062225 0.007141
0.094696 0.059814 0.007751
0.104584 0.058075 0.007996
0.113312 0.055908 0.008179
0.131439 0.052246 0.007507
0.151184 0.048401 0.006958
0.170593 0.043701 0.005890
0.191193 0.037140 0.004730
0.210938 0.029175 0.004211
0.227539 0.021759 0.004639
0.237885 0.018646 0.004974
0.247345 0.016174 0.005157
0.256927 0.012909 0.005127
0.265839 0.009338 0.004700
0.278687 0.009125 0.005127
0.297455 0.010864 0.006104
0.316956 0.012695 0.006256
0.337067 0.014404 0.005890
0.356628 0.015656 0.005920
0.376709 0.016296 0.006226
0.397980 0.016113 0.006317
0.419861 0.014801 0.006256
0.443665 0.012848 0.005951
0.466278 0.012146 0.005737
0.488037 0.015411 0.008423
0.512543 0.019653 0.011688
0.539825 0.023193 0.013947
0.573151 0.025635 0.015594
0.614136 0.026550 0.016785
0.656006 0.029694 0.016449
0.697906 0.031067 0.015045
0.742493 0.025757 0.012451
0.790100 0.017822 0.010010
0.834351 0.011139 0.008118
0.862488 0.020447 0.009552
0.879791 0.031097 0.011475
0.893555 0.039490 0.013153
0.903625 0.044678 0.014496
0.911530 0.048462 0.015472
0.919464 0.050598 0.016785
0.927582 0.050720 0.017639
0.931915 0.048279 0.017792
0.931915 0.048279 0.017883
0.931854 0.048798 0.017853
0.931732 0.049591 0.017792
0.931702 0.049866 0.017639
0.931702 0.049866 0.017639
0.931641 0.050354 0.017609
0.931580 0.050873 0.017670
0.931610 0.051727 0.017731
0.931580 0.051971 0.017700
0.931549 0.052216 0.017792
0.931549 0.052582 0.017822
0.067871 0.084961 0.007813
0.068085 0.084900 0.007751
0.068237 0.084900 0.007721
0.068329 0.084900 0.007690
0.068573 0.084900 0.007721
0.069519 0.084656 0.007599
0.071075 0.084137 0.007385
0.072845 0.083710 0.007172
0.074585 0.083252 0.006989
0.076660 0.082703 0.006653
0.078888 0.082245 0.006256
0.085876 0.079041 0.005127
0.095520 0.073639 0.003204
0.107452 0.069519 0.003082
0.118256 0.067291 0.002594
0.127075 0.064697 0.002380
0.143158 0.060608 0.001495
0.164185 0.055389 0.001556
0.183655 0.048279 0.001862
0.202484 0.040466 0.002594
0.217468 0.034210 0.004150
0.231720 0.027832 0.005859
0.242096 0.023956 0.006287
0.252197 0.020813 0.006073
0.263824 0.017426 0.005951
0.276184 0.015259 0.006256
0.289215 0.012878 0.006592
0.308167 0.014496 0.006866
0.327637 0.016632 0.006348
0.347229 0.018219 0.005768
0.366058 0.019806 0.005859
0.388031 0.020081 0.005859
0.411804 0.018646 0.005676
0.434723 0.016754 0.005493
0.459656 0.013489 0.005249
0.482086 0.015686 0.007477
0.505249 0.020294 0.010956
0.531647 0.024200 0.013489
0.564087 0.026886 0.015198
0.603638 0.028259 0.016693
0.644043 0.030029 0.016571
0.683929 0.032501 0.015503
0.725098 0.029205 0.013245
0.770020 0.021759 0.010712
0.812805 0.015320 0.008789
0.847931 0.016327 0.008698
0.870270 0.027985 0.010773
0.886353 0.037506 0.012665
