LUTs/Polarizer Effect.cube
#Created by: Adobe Photoshop Export Color Lookup Plugin
#Copyright: (C) Copyright 2018 ©Sergey Zhmakin
TITLE "Polarizer Effect"
#LUT size
LUT_3D_SIZE 4
#data domain
DOMAIN_MIN 0.0 0.0 0.0
DOMAIN_MAX 1.0 1.0 1.0
#LUT data points
0.000732 0.000000 0.000000
0.272400 0.007019 0.005676
0.807251 0.014069 0.010101
0.931641 0.050720 0.017731
0.132080 0.140686 0.007111
0.161041 0.124481 0.013580
0.621216 0.081482 0.013885
0.931549 0.057861 0.017181
0.536987 0.555023 0.000000
0.535645 0.552216 0.000000
0.589600 0.528992 0.000000
0.968567 0.386139 0.003662
0.926056 0.947327 0.071350
0.923676 0.945953 0.072144
0.913818 0.942993 0.073456
0.924347 0.941650 0.072845
0.051178 0.016907 0.373840
0.251556 0.000000 0.291840
0.676331 0.030365 0.096527
0.937408 0.054565 0.052063
0.081390 0.115265 0.104340
0.123260 0.094025 0.093231
0.561646 0.093384 0.081085
0.942810 0.076904 0.050262
0.463501 0.554138 0.017822
0.467865 0.550629 0.016724
0.552917 0.533844 0.008698
0.981903 0.367249 0.013367
0.917419 0.950714 0.086090
0.911987 0.951477 0.086487
0.903290 0.950195 0.084686
0.929962 0.944397 0.086395
0.077209 0.015900 0.903107
0.132538 0.015228 0.924713
0.816620 0.033234 0.835114
0.955170 0.040222 0.671082
0.063263 0.059326 0.935730
0.080750 0.043365 0.919678
0.758759 0.034180 0.810944
0.956726 0.062225 0.559479
0.329437 0.476044 0.473358
0.330170 0.473938 0.467590
0.454559 0.435974 0.424164
0.970245 0.353241 0.329041
0.857788 0.951080 0.343506
0.847534 0.949554 0.335663
0.830688 0.946350 0.327515
0.913544 0.943146 0.369507
0.107727 0.015778 0.944885
0.149689 0.014008 0.952606
0.706207 0.028259 0.964020
0.942505 0.017731 0.951935
0.093719 0.039490 0.967926
0.127838 0.031860 1.000000
0.684540 0.025299 0.971771
0.942322 0.016357 0.951721
0.165955 0.485382 0.946594
0.167450 0.485321 0.946625
0.354126 0.413910 0.945679
0.953796 0.233276 0.938538
0.739075 0.920502 0.914001
0.726410 0.919037 0.912842
0.701630 0.912659 0.906403
0.992401 0.991974 0.993164
