LUTs/Polarizer Effect.cube
#Created by: Adobe Photoshop Export Color Lookup Plugin
#Copyright: (C) Copyright 2018 ©Sergey Zhmakin
TITLE "Polarizer Effect"
#LUT size
LUT_3D_SIZE 8
#data domain
DOMAIN_MIN 0.0 0.0 0.0
DOMAIN_MAX 1.0 1.0 1.0
#LUT data points
0.000732 0.000000 0.000000
0.051666 0.002838 0.005432
0.229614 0.014465 0.007111
0.351410 0.008240 0.005554
0.536499 0.017212 0.013336
0.915558 0.042206 0.015076
0.931854 0.048401 0.017822
0.931641 0.050720 0.017731
0.018982 0.013367 0.002319
0.030487 0.015869 0.001343
0.203003 0.023346 0.007019
0.341644 0.009033 0.005219
0.523621 0.018677 0.012634
0.886749 0.030151 0.011505
0.931885 0.048523 0.017883
0.931580 0.051605 0.017792
0.116760 0.119385 0.004059
0.110168 0.120911 0.003479
0.145325 0.101288 0.006622
0.265442 0.063507 0.006104
0.453400 0.060059 0.008789
0.762421 0.032928 0.005157
0.931488 0.054565 0.017578
0.931458 0.055511 0.017487
0.230255 0.226715 0.022858
0.226837 0.226501 0.023132
0.224640 0.225891 0.023407
0.253265 0.208282 0.025208
0.403870 0.181061 0.012268
0.695984 0.166077 0.019440
0.948090 0.131592 0.015564
0.945404 0.099823 0.014557
0.372559 0.392120 0.013214
0.371063 0.392120 0.013275
0.369690 0.392303 0.013519
0.377228 0.391357 0.013428
0.413483 0.385223 0.013580
0.744476 0.353851 0.015289
0.935333 0.290039 0.011047
0.956573 0.266541 0.010620
0.626831 0.629578 0.002686
0.623566 0.628601 0.002472
0.618896 0.627350 0.002167
0.618622 0.627594 0.002319
0.620117 0.629242 0.002533
0.669403 0.605316 0.001587
0.911896 0.493866 0.016113
0.942322 0.482697 0.019531
0.911469 0.892944 0.041351
0.909637 0.894318 0.041718
0.906555 0.896759 0.042908
0.908661 0.895020 0.042084
0.904877 0.897430 0.041931
0.903931 0.898163 0.042053
0.936005 0.876648 0.040833
1.000000 0.754639 0.055176
0.926056 0.947327 0.071350
0.926056 0.947144 0.071625
0.925446 0.946472 0.072113
0.919830 0.944885 0.071503
0.915283 0.943726 0.072418
0.913422 0.942291 0.073547
0.915222 0.941071 0.074127
0.924347 0.941650 0.072845
0.007690 0.002014 0.061310
0.070435 0.000946 0.052307
0.232483 0.012146 0.019196
0.352631 0.008606 0.009491
0.524994 0.017700 0.013550
0.904327 0.037476 0.014648
0.931885 0.048157 0.017731
0.931641 0.051849 0.018311
0.010559 0.005951 0.003998
0.015137 0.007782 0.003693
0.209167 0.021820 0.012848
0.342163 0.009705 0.008301
0.511688 0.018890 0.012695
0.874756 0.024872 0.012207
0.931885 0.048157 0.017731
0.931610 0.052826 0.018311
0.098267 0.121460 0.004272
0.101654 0.120331 0.004181
0.143158 0.101898 0.006653
0.266113 0.064056 0.008209
0.452118 0.061279 0.010162
0.762512 0.035156 0.004944
0.931488 0.054199 0.017792
0.931671 0.057159 0.018036
0.213562 0.226471 0.024902
0.210144 0.227173 0.025085
0.211212 0.224457 0.026001
0.245819 0.204651 0.028137
0.404877 0.178711 0.015198
0.689880 0.170502 0.021362
0.945679 0.136566 0.016998
0.944763 0.098633 0.014587
0.364105 0.391327 0.014130
0.362518 0.391113 0.014191
0.361206 0.391541 0.014954
0.367188 0.391174 0.014282
0.406982 0.385315 0.014526
0.738098 0.356384 0.015869
0.935516 0.290344 0.010986
0.956604 0.266205 0.010559
0.603912 0.631683 0.003357
0.602539 0.631958 0.003387
0.600403 0.632141 0.003357
0.601318 0.632416 0.003326
0.603882 0.634003 0.003845
0.646759 0.615112 0.000000
0.911072 0.492554 0.016052
0.942444 0.480133 0.019470
0.898315 0.901093 0.040527
0.896912 0.902069 0.041046
0.895630 0.903198 0.042023
0.897186 0.902130 0.041504
0.894501 0.903717 0.041443
0.894348 0.904144 0.042206
0.926910 0.882965 0.040894
1.000000 0.752106 0.055206
0.926727 0.947174 0.071136
0.926758 0.947174 0.071136
0.924225 0.946533 0.072205
0.918427 0.945343 0.072754
0.913422 0.944672 0.074371
0.911743 0.943085 0.074799
0.914063 0.941803 0.075226
0.925018 0.941925 0.074799
0.020172 0.011139 0.289520
0.055573 0.018646 0.278076
0.204529 0.008606 0.234100
0.336884 0.003754 0.111237
0.479736 0.006500 0.056244
0.855194 0.000000 0.044464
0.934662 0.047882 0.035980
0.933746 0.054321 0.029449
0.018738 0.008057 0.264709
0.024414 0.008057 0.259064
0.185516 0.013916 0.222870
0.331848 0.006195 0.105927
0.477356 0.010651 0.050934
0.833191 0.008209 0.033203
0.934692 0.048035 0.036377
0.933990 0.056458 0.030304
0.067383 0.093872 0.092194
0.071625 0.086884 0.090424
0.101227 0.075653 0.083313
0.268036 0.059601 0.059784
0.434052 0.061188 0.047638
0.737549 0.055054 0.036560
0.934448 0.053070 0.034424
0.935394 0.065186 0.030670
0.172760 0.212158 0.051239
0.174347 0.212097 0.050995
0.181335 0.213226 0.051788
0.232056 0.201172 0.057159
0.407043 0.177490 0.051880
0.677887 0.186310 0.059296
0.940735 0.148956 0.034454
0.957550 0.119904 0.023010
0.344604 0.399689 0.029694
0.344574 0.399414 0.029907
0.345428 0.397278 0.030731
0.350647 0.398682 0.030334
0.402802 0.392395 0.032532
0.698547 0.358612 0.027618
0.923401 0.300568 0.026276
0.962952 0.271362 0.021729
0.546265 0.630646 0.005615
0.546814 0.631165 0.005646
0.547333 0.630219 0.005463
0.548157 0.629517 0.005402
0.547821 0.630463 0.005707
0.597748 0.623871 0.000610
0.907715 0.488861 0.015778
0.945862 0.469330 0.020325
0.859039 0.925171 0.038696
0.858643 0.925354 0.038727
0.861328 0.923798 0.038513
0.864655 0.921936 0.038361
0.861267 0.923950 0.038849
0.860809 0.924316 0.039581
0.893005 0.904785 0.038849
1.000000 0.746857 0.054932
0.921631 0.948364 0.079712
0.921387 0.948425 0.079926
0.918274 0.948761 0.080475
0.912567 0.948669 0.081024
0.907928 0.948181 0.081024
0.905823 0.947021 0.080505
0.909790 0.945862 0.081665
0.927704 0.943359 0.081818
0.054840 0.008728 0.563507
0.061188 0.008789 0.553040
0.123779 0.003784 0.546417
0.362274 0.001862 0.384186
0.495239 0.008087 0.210388
0.799652 0.020660 0.216187
0.926941 0.049988 0.167847
0.940948 0.054901 0.149048
0.048401 0.008392 0.559052
0.049927 0.008301 0.553162
0.120148 0.004822 0.534302
0.357605 0.002045 0.377258
0.477936 0.006561 0.207916
0.776459 0.030640 0.195099
0.926178 0.050751 0.168365
0.940826 0.056366 0.147339
0.049347 0.069855 0.437866
0.049744 0.067535 0.440155
0.090149 0.051483 0.429413
0.269012 0.032959 0.282867
0.444397 0.048187 0.172089
0.706146 0.064026 0.156219
0.913086 0.063873 0.154327
0.943970 0.065948 0.141693
0.135620 0.191864 0.193085
0.135712 0.191498 0.190674
0.145416 0.188080 0.183899
0.197723 0.169403 0.169861
0.404694 0.163727 0.162842
0.634644 0.175476 0.144928
0.900269 0.147430 0.147186
0.968781 0.138245 0.140228
0.293335 0.380188 0.134125
0.293335 0.380066 0.133514
0.294678 0.381195 0.132904
0.304871 0.380188 0.135254
0.376434 0.369659 0.151093
0.620056 0.334076 0.157288
0.845856 0.306061 0.127167
0.951996 0.283539 0.113098
0.508484 0.629028 0.035675
0.508606 0.628326 0.035797
0.510468 0.627258 0.035431
0.513367 0.627350 0.035065
0.516571 0.628296 0.034882
0.611389 0.614990 0.019897
0.956207 0.504303 0.049927
0.988098 0.465393 0.072418
0.816956 0.952942 0.052460
0.818604 0.952606 0.051971
0.823151 0.952240 0.050781
0.825867 0.951508 0.050781
0.824799 0.953064 0.052551
0.830109 0.952118 0.055145
0.870544 0.931946 0.049408
1.000000 0.745422 0.060425
0.911255 0.957947 0.112640
0.909790 0.958405 0.113342
0.906219 0.959076 0.114502
0.900452 0.960022 0.114929
0.895935 0.960144 0.112640
0.894196 0.959412 0.110291
0.903961 0.956116 0.111389
0.938568 0.948364 0.113556
0.036469 0.013336 0.803223
0.045441 0.013489 0.804199
0.097443 0.014282 0.822723
0.263397 0.000000 0.797974
0.611053 0.008942 0.654938
0.881958 0.032501 0.554718
0.942261 0.045258 0.442932
0.944977 0.052063 0.404388
0.040009 0.013428 0.816589
0.045288 0.013489 0.821320
0.091034 0.014343 0.824219
0.259399 0.000000 0.782104
0.612793 0.008820 0.644348
0.877686 0.031769 0.540802
0.941864 0.046082 0.423035
0.945648 0.053528 0.398987
0.065796 0.033173 0.797028
0.066467 0.032196 0.792908
0.087097 0.023712 0.764465
0.233490 0.003021 0.710693
0.528351 0.009552 0.565796
0.793518 0.020752 0.440094
0.951691 0.063812 0.355438
0.950226 0.060913 0.376312
0.088165 0.160248 0.600494
0.088898 0.161011 0.598694
0.093048 0.158051 0.593903
0.178680 0.138184 0.542725
0.428680 0.129883 0.443359
0.680756 0.165100 0.343719
0.892761 0.146942 0.306091
0.970978 0.118591 0.311035
0.241486 0.349304 0.349518
0.242981 0.348785 0.349152
0.247437 0.347168 0.347504
0.256256 0.345184 0.350250
0.337097 0.313171 0.313507
0.595551 0.294128 0.288635
0.812256 0.274780 0.255066
0.915161 0.274780 0.265320
0.412415 0.569305 0.233826
0.411591 0.569672 0.233673
0.410706 0.570801 0.234131
0.413788 0.573486 0.236298
0.434692 0.570648 0.244232
0.550598 0.543427 0.266205
0.798981 0.451996 0.231842
0.921936 0.442780 0.228760
0.683807 0.864532 0.154663
0.685089 0.864044 0.154755
0.688904 0.863922 0.154999
0.692444 0.864471 0.155121
0.693726 0.865509 0.155243
0.698944 0.864563 0.155151
0.801239 0.835968 0.156403
1.000000 0.757568 0.201050
0.897797 0.960266 0.236298
0.896057 0.960236 0.234985
0.892090 0.960175 0.231659
0.883423 0.960510 0.228027
0.878265 0.960052 0.226379
0.875000 0.958252 0.224213
0.893524 0.953339 0.227234
0.940430 0.948853 0.244629
0.081482 0.015808 0.925018
0.084991 0.015930 0.926575
0.099670 0.016022 0.932343
0.220337 0.010590 0.975830
0.536346 0.019348 0.924347
0.859863 0.029694 0.874847
0.957489 0.000732 0.857300
0.962616 0.004761 0.809052
0.079376 0.015717 0.927185
0.081909 0.015778 0.927307
0.098663 0.016113 0.934113
0.215790 0.010284 0.976135
0.532501 0.019684 0.921112
0.861206 0.029449 0.874725
0.957397 0.000916 0.857605
0.964050 0.006104 0.797150
0.059204 0.023224 0.934845
0.060699 0.022491 0.934692
0.071320 0.018921 0.934784
0.187592 0.013031 0.956573
0.508423 0.019958 0.892273
0.851746 0.030396 0.865997
0.962708 0.004761 0.809235
0.963440 0.023254 0.741852
0.125214 0.160278 0.895996
0.124969 0.161285 0.895782
0.134949 0.151886 0.896118
0.191772 0.127075 0.894470
0.434418 0.070068 0.882446
0.776123 0.077820 0.788361
0.953064 0.098969 0.618927
0.970764 0.097839 0.547241
0.165161 0.345673 0.829315
0.165344 0.346191 0.828217
0.167023 0.346619 0.824066
0.173645 0.346283 0.814209
0.304382 0.318146 0.743408
0.612518 0.286560 0.606323
0.853546 0.259766 0.481232
0.919678 0.259491 0.431671
0.354645 0.532074 0.521667
0.355560 0.531555 0.521576
0.357544 0.531372 0.519562
0.357025 0.531281 0.514191
0.369446 0.528015 0.505737
0.513763 0.493683 0.487793
0.841675 0.416290 0.423615
0.948090 0.406525 0.388763
0.563995 0.834839 0.367035
0.565033 0.833893 0.367340
0.567993 0.832001 0.368286
0.572113 0.829834 0.370056
0.578278 0.829651 0.372864
0.605835 0.825470 0.371216
0.776825 0.772278 0.372833
0.949310 0.685608 0.385406
0.835724 0.950470 0.391602
0.833649 0.950012 0.390045
0.826508 0.948822 0.386993
0.819397 0.947235 0.383087
0.812775 0.945587 0.380371
0.808716 0.943756 0.377350
0.834778 0.941498 0.386322
0.899567 0.946472 0.425751
0.090302 0.015869 0.940186
0.091949 0.015930 0.940399
0.125305 0.015625 0.947632
0.232605 0.011047 0.979584
0.526886 0.021729 0.948273
0.819061 0.037048 0.936951
0.938171 0.019592 0.948425
0.944031 0.014160 0.943573
0.095123 0.015839 0.940002
0.101898 0.015930 0.941925
0.133362 0.015198 0.948669
0.223450 0.010498 0.979706
0.521484 0.022186 0.946014
0.814392 0.037292 0.936615
0.936829 0.019318 0.946167
0.943848 0.014252 0.943909
0.081940 0.024658 0.949005
0.082153 0.024811 0.949249
0.101288 0.022705 0.950775
0.182922 0.015961 0.985046
0.473541 0.026367 0.935425
0.819672 0.037354 0.937012
0.937164 0.017120 0.942780
0.943665 0.014740 0.945160
0.136292 0.149902 0.953094
0.136047 0.148926 0.953674
0.146667 0.143463 0.955536
0.194458 0.126465 0.957733
0.396118 0.082642 0.963928
0.728302 0.073334 0.936859
0.940247 0.018219 0.935608
0.946564 0.016968 0.941376
0.112640 0.368774 0.960022
0.112152 0.369293 0.960358
0.109467 0.370117 0.960510
0.120758 0.368195 0.961578
0.250580 0.332306 0.961304
0.588135 0.223907 0.976563
0.911926 0.167511 0.909698
0.965302 0.164063 0.846710
0.253357 0.511688 0.933594
0.253723 0.511444 0.933685
0.254242 0.510956 0.933929
0.254486 0.510254 0.934387
0.260101 0.509369 0.934540
0.410675 0.449432 0.923706
0.859711 0.370880 0.866302
0.991608 0.369141 0.778351
0.508270 0.778717 0.779327
0.507813 0.779297 0.781494
0.504974 0.779938 0.790253
0.499176 0.782166 0.807068
0.501617 0.780243 0.804535
0.531250 0.768707 0.781433
0.754578 0.714417 0.714813
0.968872 0.633179 0.641632
0.756592 0.928223 0.630371
0.754272 0.927734 0.629730
0.748932 0.926697 0.628723
0.740082 0.924835 0.630493
0.728180 0.920959 0.633881
0.732391 0.918549 0.633820
0.768890 0.920685 0.627563
0.860840 0.939972 0.638184
0.107727 0.015778 0.944885
0.112732 0.015991 0.946594
0.134552 0.015167 0.949554
0.201447 0.009766 0.975433
0.492371 0.024292 0.936951
0.812195 0.038361 0.936829
0.935822 0.020874 0.951782
0.942505 0.017731 0.951935
0.108643 0.016479 0.945953
0.112732 0.016541 0.947205
0.128723 0.015869 0.949066
0.194946 0.010254 0.971710
0.492615 0.024109 0.937012
0.814484 0.038208 0.937073
0.933502 0.021942 0.951691
0.942505 0.017731 0.951935
0.076324 0.021179 0.942261
0.079010 0.020721 0.942230
0.103729 0.019775 0.947845
0.206268 0.016052 0.986847
0.470154 0.028320 0.936310
0.817780 0.037384 0.936951
0.932373 0.022034 0.951630
0.942322 0.016907 0.951752
0.150848 0.132233 0.961548
0.150360 0.132172 0.961578
0.152313 0.129333 0.962952
0.199188 0.115753 0.962799
0.386536 0.084015 0.961639
0.705322 0.072906 0.947906
0.936890 0.019165 0.951599
0.943237 0.019989 0.952026
0.100189 0.381653 0.969421
0.100250 0.381500 0.969208
0.102722 0.377716 0.965912
0.109619 0.371826 0.962799
0.229065 0.348022 0.969330
0.564819 0.235565 0.986511
0.916809 0.143280 0.966675
0.970154 0.102600 0.959961
0.212280 0.521423 0.964813
0.212830 0.521088 0.964691
0.213440 0.520630 0.964508
0.211487 0.522858 0.965454
0.216003 0.523987 0.965851
0.389191 0.453735 0.959717
0.890289 0.349274 0.974731
1.000000 0.314697 0.967712
0.409241 0.786255 0.963806
0.410217 0.785400 0.963379
0.411865 0.783569 0.962250
0.412964 0.779663 0.960480
0.414032 0.775940 0.960175
0.419922 0.773346 0.964264
0.663605 0.684265 0.959381
0.919769 0.625916 0.969086
0.739075 0.920502 0.914001
0.736328 0.920074 0.913605
0.729248 0.919312 0.912994
0.712494 0.917206 0.911316
0.696411 0.914795 0.909302
0.710632 0.912384 0.905884
0.766022 0.917419 0.912079
0.992401 0.991974 0.993164
