LUTs/Sea CLAH .cube
#Created by: Adobe Photoshop Export Color Lookup Plugin
#Copyright: (C) Copyright 2018 ©Sergey Zhmakin
TITLE "Sea CLAHE"
#LUT size
LUT_3D_SIZE 64
#data domain
DOMAIN_MIN 0.0 0.0 0.0
DOMAIN_MAX 1.0 1.0 1.0
#LUT data points
0.007751 0.000061 0.017548
0.017975 0.000580 0.015808
0.029755 0.001343 0.014343
0.044647 0.002411 0.013214
0.063385 0.004333 0.012634
0.083984 0.007599 0.013794
0.106903 0.012878 0.018036
0.136383 0.017914 0.024780
0.170868 0.025055 0.029846
0.206573 0.022552 0.028046
0.247253 0.012360 0.017029
0.271362 0.010864 0.013916
0.284424 0.011383 0.016479
0.297852 0.010071 0.017151
0.312195 0.008148 0.016022
0.327026 0.007721 0.015259
0.339478 0.007385 0.012604
0.351166 0.006592 0.011078
0.361908 0.006500 0.009705
0.375610 0.006042 0.008209
0.388763 0.005615 0.006958
0.401245 0.005646 0.005890
0.416565 0.005646 0.004181
0.441711 0.005798 0.000671
0.457184 0.009369 0.001282
0.469452 0.011688 0.003021
0.481689 0.012909 0.003937
0.493835 0.013672 0.004120
0.506073 0.013611 0.003265
0.517517 0.012024 0.002014
0.525391 0.013489 0.001251
0.534576 0.014709 0.000153
0.544403 0.015350 0.000000
0.555206 0.012146 0.000092
0.570709 0.007690 0.001434
0.586121 0.004181 0.002899
0.601990 0.002777 0.004517
0.619934 0.014496 0.007721
0.637695 0.023193 0.009308
0.654694 0.028351 0.009674
0.671997 0.037292 0.011688
0.690887 0.047943 0.014771
0.710266 0.061066 0.018433
0.730377 0.072479 0.022125
0.753326 0.075653 0.020477
0.778717 0.070557 0.014191
0.811859 0.058807 0.007935
0.843323 0.044617 0.006500
0.857910 0.052948 0.011414
0.860443 0.075165 0.020050
0.861969 0.093597 0.031708
0.863342 0.102356 0.036163
0.863251 0.106934 0.034729
0.863312 0.111389 0.033173
0.863281 0.109894 0.033722
0.863251 0.105988 0.035095
0.863251 0.101044 0.036774
0.863220 0.100769 0.036957
0.863220 0.100769 0.036957
0.863312 0.101501 0.036621
0.863861 0.118958 0.030090
0.866974 0.137848 0.021912
0.872345 0.157532 0.015930
0.878784 0.175995 0.010864
0.007690 0.000214 0.017395
0.007690 0.000122 0.017426
0.018341 0.000610 0.015808
0.036163 0.001740 0.013763
0.058441 0.003754 0.012695
0.082306 0.007294 0.013611
0.107910 0.013123 0.018280
0.138824 0.018677 0.025116
0.171661 0.025055 0.029877
0.208954 0.022034 0.027588
0.249329 0.012024 0.015930
0.271942 0.010895 0.014130
0.284515 0.011383 0.016571
0.297241 0.010162 0.017151
0.311371 0.008148 0.016083
0.326721 0.007721 0.015289
0.339233 0.007446 0.012604
0.350861 0.006592 0.011017
0.361877 0.006561 0.009705
0.375580 0.006012 0.008240
0.388977 0.005646 0.007019
0.401642 0.005615 0.005859
0.417023 0.005676 0.004150
0.442200 0.005829 0.000641
0.457520 0.009583 0.001373
0.469757 0.011658 0.003021
0.482086 0.013000 0.003937
0.493896 0.013611 0.004059
0.506073 0.013611 0.003265
0.517548 0.012085 0.002045
0.525391 0.013489 0.001251
0.534790 0.014679 0.000153
0.544586 0.015472 0.000000
0.555786 0.011993 0.000214
0.571198 0.007568 0.001526
0.586487 0.004059 0.002930
0.602386 0.003113 0.004578
0.620270 0.014679 0.007721
0.637939 0.023224 0.009338
0.654938 0.028595 0.009674
0.672028 0.037384 0.011719
0.690918 0.048035 0.014740
0.710449 0.061188 0.018463
0.730530 0.072540 0.022125
0.753265 0.075745 0.020508
0.778839 0.070557 0.014191
0.812286 0.058655 0.007935
0.843597 0.044708 0.006592
0.858002 0.053162 0.011383
0.860443 0.075409 0.020172
0.861969 0.093811 0.031830
0.863342 0.102905 0.036072
0.863220 0.107635 0.034546
0.863373 0.111816 0.033020
0.863281 0.110291 0.033539
0.863281 0.106415 0.034943
0.863251 0.101440 0.036591
0.863220 0.100769 0.036957
0.863220 0.100769 0.036957
0.863312 0.101715 0.036530
0.863922 0.119202 0.029938
0.867096 0.138611 0.021637
0.872711 0.158539 0.015625
0.879150 0.176910 0.010651
0.007629 0.000610 0.017059
0.007690 0.000519 0.017151
0.008148 0.000397 0.017181
0.016144 0.000519 0.016022
0.044647 0.002411 0.013214
0.074829 0.006012 0.013031
0.104126 0.012146 0.017334
0.138092 0.018433 0.024963
0.171844 0.025116 0.029999
0.210266 0.021729 0.027527
0.249847 0.011871 0.015503
0.271851 0.010895 0.014099
0.283722 0.011414 0.016388
0.296326 0.010376 0.017181
0.310547 0.008179 0.016113
0.326385 0.007690 0.015228
0.338806 0.007538 0.012634
0.350616 0.006653 0.011108
0.362213 0.006500 0.009613
0.376190 0.005951 0.008148
0.389496 0.005615 0.007019
0.402130 0.005707 0.005768
0.418304 0.005676 0.003937
0.442963 0.005859 0.000519
0.457886 0.009613 0.001434
0.470306 0.011658 0.003082
0.482452 0.013062 0.003937
0.494476 0.013641 0.004059
0.506073 0.013611 0.003265
0.517609 0.011993 0.002014
0.525574 0.013428 0.001221
0.534973 0.014648 0.000061
0.544830 0.015533 0.000000
0.556274 0.011871 0.000244
0.571655 0.007385 0.001526
0.586823 0.004028 0.002899
0.602814 0.003448 0.004669
0.620575 0.014893 0.007782
0.638184 0.023285 0.009338
0.655029 0.028870 0.009674
0.672180 0.037750 0.011749
0.691040 0.048279 0.014801
0.710510 0.061279 0.018494
0.730530 0.072540 0.022125
0.753143 0.075745 0.020538
0.779053 0.070557 0.014160
0.812653 0.058441 0.007813
0.843689 0.044678 0.006653
0.858032 0.053253 0.011414
0.860443 0.075653 0.020294
0.861969 0.094025 0.031952
0.863312 0.103424 0.035858
0.863251 0.108185 0.034241
0.863342 0.112305 0.032806
0.863251 0.110779 0.033325
0.863251 0.106934 0.034729
0.863342 0.101776 0.036469
0.863220 0.100769 0.036957
0.863220 0.100769 0.036957
0.863342 0.101776 0.036469
0.863953 0.119751 0.029694
0.867310 0.139465 0.021423
0.873169 0.159729 0.015320
0.879608 0.178314 0.010223
0.007538 0.001282 0.016510
0.007538 0.001160 0.016571
0.007629 0.001007 0.016693
0.009369 0.000885 0.016663
0.015900 0.000793 0.015900
0.059631 0.003906 0.012604
0.096588 0.010193 0.015717
0.136566 0.017944 0.024780
0.172638 0.025116 0.029968
0.209961 0.021790 0.027496
0.249146 0.012024 0.016022
0.270905 0.010773 0.013794
0.282562 0.011414 0.016266
0.295471 0.010498 0.017242
0.309845 0.008270 0.016083
0.325592 0.007813 0.015259
0.338531 0.007568 0.012634
0.350830 0.006683 0.010956
0.363037 0.006500 0.009521
0.377014 0.005951 0.008118
0.390259 0.005646 0.006927
0.403046 0.005646 0.005707
0.419830 0.005707 0.003723
0.443665 0.005920 0.000336
0.458282 0.009735 0.001465
0.470673 0.011749 0.003174
0.482971 0.013031 0.003967
0.494995 0.013580 0.004059
0.506653 0.013458 0.003204
0.517639 0.012054 0.002045
0.525818 0.013458 0.001190
0.535217 0.014709 0.000092
0.545135 0.015442 0.000000
0.556915 0.011597 0.000305
0.572205 0.007324 0.001617
0.587219 0.003906 0.002960
0.603241 0.003601 0.004730
0.621063 0.015137 0.007874
0.638458 0.023590 0.009369
0.655060 0.029633 0.009796
0.672241 0.038391 0.011810
0.691223 0.048706 0.014923
0.710571 0.061188 0.018463
0.730560 0.072632 0.022064
0.753174 0.075806 0.020569
0.779480 0.070465 0.014069
0.812958 0.058319 0.007813
0.843933 0.044647 0.006714
0.858154 0.053253 0.011505
0.860474 0.075989 0.020447
0.862030 0.094086 0.031982
0.863312 0.104004 0.035675
0.863220 0.108887 0.034058
0.863373 0.112732 0.032654
0.863312 0.111206 0.033295
0.863220 0.107422 0.034637
0.863342 0.102173 0.036255
0.863220 0.100769 0.036957
0.863220 0.100769 0.036957
0.863342 0.101959 0.036346
0.864044 0.120392 0.029480
0.867523 0.140503 0.021149
0.873627 0.161102 0.014923
0.880127 0.179626 0.009857
0.007355 0.002441 0.015564
0.007446 0.002289 0.015717
0.007446 0.002106 0.015808
0.007507 0.001892 0.016052
0.011597 0.002167 0.015442
0.019836 0.002533 0.014526
0.077087 0.008270 0.013641
0.128693 0.017029 0.023560
0.171204 0.025085 0.029877
0.208344 0.022186 0.027710
0.244720 0.012756 0.018219
0.269196 0.010651 0.013306
0.281342 0.011414 0.016052
0.294067 0.010742 0.017151
0.308289 0.008575 0.016052
0.324799 0.007996 0.015259
0.338501 0.007538 0.012512
0.351318 0.006653 0.010925
0.364105 0.006500 0.009491
0.378113 0.005890 0.007935
0.391541 0.005615 0.006744
0.404633 0.005615 0.005554
0.421875 0.005676 0.003479
0.444763 0.006073 0.000366
0.458923 0.009918 0.001587
0.471313 0.011871 0.003235
0.483734 0.013214 0.004059
0.495789 0.013641 0.003998
0.507477 0.013367 0.003143
0.517944 0.012177 0.001953
0.526306 0.013550 0.001190
0.535522 0.014801 0.000031
0.545349 0.015411 0.000000
0.557617 0.011444 0.000336
0.572815 0.007172 0.001648
0.587708 0.003754 0.002991
0.603668 0.003998 0.004822
0.621399 0.015594 0.007904
0.638641 0.024506 0.009399
0.655121 0.030609 0.009888
0.672211 0.039398 0.011902
0.691376 0.049286 0.015045
0.710724 0.061707 0.018585
0.730682 0.072632 0.022156
0.753265 0.075745 0.020508
0.779968 0.070282 0.013916
0.813538 0.057953 0.007721
0.844147 0.044983 0.006775
0.858246 0.053467 0.011566
0.860474 0.076233 0.020569
0.862030 0.094330 0.032227
0.863281 0.104706 0.035492
0.863281 0.109711 0.033813
0.863434 0.113159 0.032501
0.863312 0.111755 0.032990
0.863251 0.108002 0.034332
0.863373 0.102783 0.036102
0.863220 0.100769 0.036957
0.863220 0.100769 0.036957
0.863342 0.102356 0.036163
0.864166 0.121185 0.029175
0.867889 0.141846 0.020752
0.874298 0.162811 0.014343
0.880798 0.181183 0.009491
0.007080 0.004822 0.013519
0.007050 0.004974 0.013428
0.007080 0.005096 0.013306
0.007050 0.005219 0.013245
0.006989 0.005310 0.013123
0.016083 0.005920 0.012573
0.030426 0.006805 0.012146
0.095184 0.014893 0.018066
0.154266 0.023773 0.028259
0.198486 0.024231 0.029022
0.238159 0.013763 0.020966
0.267487 0.010437 0.012756
0.279083 0.011658 0.015839
0.289825 0.012299 0.017029
0.305603 0.009796 0.015778
0.322296 0.008972 0.014587
0.339142 0.007538 0.012238
0.351898 0.006622 0.010834
0.365540 0.006470 0.009247
0.379730 0.005829 0.007782
0.393646 0.005646 0.006592
0.406952 0.005707 0.005310
0.424805 0.005707 0.003082
0.446106 0.006165 0.000305
0.459869 0.010162 0.001770
0.472321 0.011963 0.003296
0.484802 0.013184 0.004059
0.496857 0.013611 0.003937
0.508636 0.013275 0.003021
0.518890 0.012268 0.001862
0.527039 0.013672 0.001068
0.535950 0.014771 0.000031
0.545715 0.015503 0.000000
0.558502 0.011200 0.000397
0.573395 0.007019 0.001740
0.588379 0.003754 0.003052
0.604370 0.004456 0.005035
0.621460 0.017181 0.008057
0.638550 0.026031 0.009399
0.655060 0.031738 0.010010
0.672180 0.040649 0.011932
0.691528 0.050568 0.015259
0.710907 0.062286 0.018707
0.730774 0.072632 0.022125
0.753265 0.075745 0.020508
0.780701 0.070160 0.013702
0.814026 0.057739 0.007660
0.844513 0.044922 0.006927
0.858337 0.053772 0.011566
0.860565 0.076660 0.020752
0.862000 0.095337 0.032715
0.863281 0.105652 0.035217
0.863251 0.110779 0.033325
0.863434 0.113861 0.032257
0.863342 0.112488 0.032715
0.863251 0.108765 0.034058
0.863312 0.103607 0.035767
0.863220 0.100769 0.036957
0.863220 0.100769 0.036957
0.863342 0.103302 0.035889
0.864288 0.122223 0.028717
0.868256 0.143646 0.020111
0.875031 0.164948 0.013794
0.881317 0.183441 0.009186
0.006805 0.009247 0.009857
0.006775 0.009399 0.009796
0.006836 0.009460 0.009583
0.006805 0.009521 0.009552
0.006866 0.009644 0.009491
0.006897 0.009705 0.009369
0.019989 0.010681 0.009705
0.040131 0.012421 0.010651
0.107361 0.020874 0.024170
0.169708 0.029022 0.028992
0.214691 0.023590 0.023132
0.253204 0.013947 0.012207
0.274109 0.012848 0.015717
0.284668 0.013947 0.016846
0.301208 0.013214 0.015015
0.318970 0.011139 0.012726
0.336670 0.008942 0.011292
0.352844 0.006592 0.010681
0.367737 0.006378 0.008911
0.382385 0.005585 0.007507
0.396637 0.005646 0.006287
0.410950 0.005768 0.004883
0.429077 0.005737 0.002502
0.448486 0.006714 0.000305
0.461029 0.010468 0.001984
0.473694 0.012268 0.003448
0.486176 0.013458 0.004059
0.498291 0.013794 0.003754
0.510132 0.013031 0.002838
0.520203 0.012451 0.001740
0.528381 0.013855 0.000946
0.536682 0.014893 0.000000
0.546265 0.015442 0.000000
0.559570 0.010864 0.000519
0.574219 0.006866 0.001770
0.589081 0.003571 0.003082
0.604645 0.005707 0.005249
0.621521 0.018951 0.008209
0.638367 0.027557 0.009369
0.655029 0.034546 0.010254
0.672241 0.042053 0.012115
0.691772 0.052246 0.015503
0.711243 0.063171 0.018951
0.731079 0.074310 0.022491
0.753662 0.076416 0.020111
0.781555 0.069977 0.013611
0.814972 0.057159 0.007538
0.844879 0.044983 0.006989
0.858551 0.053986 0.011719
0.860565 0.077148 0.020966
0.861786 0.097626 0.033813
0.863251 0.106750 0.034821
0.863373 0.112000 0.032928
0.863495 0.114624 0.031891
0.863403 0.113281 0.032379
0.863251 0.109833 0.033691
0.863251 0.104645 0.035461
0.863220 0.100769 0.036957
0.863220 0.100769 0.036957
0.863251 0.106171 0.035004
0.864655 0.124542 0.027649
0.868805 0.145935 0.019409
0.876038 0.168213 0.013000
0.881805 0.186218 0.008850
0.014404 0.016541 0.013367
0.014160 0.016510 0.013275
0.013977 0.016388 0.013062
0.013916 0.016357 0.013000
0.016235 0.017609 0.014709
0.019196 0.018951 0.016541
0.022339 0.020233 0.018219
0.041107 0.023193 0.021576
0.068298 0.027649 0.025360
0.122955 0.040619 0.029327
0.184235 0.034790 0.017365
0.225983 0.028564 0.011078
0.258026 0.020142 0.015747
0.277649 0.019012 0.013489
0.295807 0.019714 0.013123
0.315308 0.015778 0.010590
0.333893 0.011597 0.010132
0.351837 0.009064 0.009613
0.369476 0.007233 0.008759
0.384705 0.006531 0.007202
0.400116 0.006073 0.005920
0.415588 0.005768 0.004211
0.433380 0.005859 0.001831
0.450989 0.007751 0.000427
0.462616 0.010956 0.002289
0.475281 0.012726 0.003571
0.487976 0.014008 0.004059
0.500122 0.014221 0.003479
0.512421 0.012939 0.002350
0.521759 0.012848 0.001587
0.529938 0.014038 0.000732
0.538239 0.015076 0.000000
0.546906 0.015594 0.000000
0.560699 0.010437 0.000610
0.575287 0.006500 0.001892
0.590057 0.003448 0.003204
0.604797 0.007782 0.005554
0.621521 0.021301 0.008331
0.638092 0.029694 0.009308
0.655029 0.038513 0.010529
0.672119 0.045074 0.012329
0.692108 0.054291 0.015778
0.711517 0.064117 0.019165
0.731659 0.076660 0.023010
0.754700 0.077606 0.019379
0.783356 0.070953 0.012604
0.816254 0.057129 0.007111
0.845428 0.045532 0.007172
0.858734 0.054504 0.011749
0.860382 0.079010 0.021729
0.861267 0.101379 0.035248
0.863281 0.108063 0.034363
0.863403 0.113281 0.032379
0.863556 0.115601 0.031555
0.863464 0.114380 0.031952
0.863281 0.110962 0.033325
0.863281 0.105835 0.035095
0.863220 0.100769 0.036957
0.863220 0.100769 0.036957
0.863312 0.111206 0.033173
0.865326 0.128387 0.025848
0.870117 0.150543 0.018066
0.877045 0.171295 0.012146
0.882507 0.189819 0.008453
0.057007 0.054626 0.032593
0.058197 0.055969 0.032715
0.059357 0.057190 0.032806
0.060120 0.058075 0.032898
0.060669 0.058624 0.032867
0.061096 0.058929 0.032806
0.065308 0.060486 0.032166
0.070374 0.062195 0.031250
0.080505 0.064667 0.029846
0.102142 0.067108 0.025604
0.136353 0.068665 0.014160
0.192230 0.055237 0.004730
0.228271 0.050842 0.007233
0.263947 0.040314 0.010193
0.290924 0.032928 0.009796
0.311798 0.027039 0.009552
0.331024 0.019012 0.008636
0.349823 0.013550 0.007690
0.368561 0.011139 0.006989
0.386475 0.009033 0.005981
0.401367 0.008301 0.004395
0.416046 0.008301 0.002197
0.433746 0.008545 0.000000
0.448425 0.011353 0.001221
0.461121 0.013550 0.002930
0.475525 0.015015 0.003967
0.490326 0.014801 0.003906
0.502686 0.015137 0.003052
0.512207 0.016296 0.002075
0.521851 0.015686 0.001312
0.531647 0.014252 0.000519
0.539948 0.015106 0.000000
0.548920 0.014862 0.000000
0.562103 0.010132 0.000671
0.576416 0.006287 0.001984
0.590027 0.002930 0.003143
0.604980 0.010773 0.005951
0.621521 0.024109 0.008423
0.637817 0.032532 0.009277
0.655121 0.043213 0.010956
0.672974 0.050507 0.013153
0.692383 0.057831 0.016235
0.712036 0.066742 0.019684
0.732269 0.080017 0.023651
0.755707 0.078949 0.018433
0.785645 0.072205 0.011230
0.818451 0.057495 0.006287
0.845398 0.050751 0.007538
0.858154 0.057922 0.012665
0.859802 0.083557 0.023590
0.860596 0.106628 0.037354
0.863281 0.109894 0.033722
0.863495 0.114624 0.031891
0.863678 0.116791 0.031097
0.863617 0.115662 0.031494
0.863342 0.112305 0.032806
0.863220 0.107239 0.034607
0.863312 0.101715 0.036530
0.863373 0.102783 0.036102
0.863708 0.117554 0.030762
0.866302 0.134094 0.023468
0.871979 0.156281 0.016296
0.878754 0.175934 0.010956
0.883423 0.194489 0.007965
0.088531 0.096100 0.007538
0.088745 0.096008 0.007385
0.088593 0.095825 0.007324
0.088318 0.095520 0.007202
0.088287 0.095215 0.007050
0.087952 0.094788 0.006958
0.088654 0.094849 0.006927
0.098022 0.094849 0.005981
0.109314 0.094696 0.004517
0.123566 0.094604 0.003235
0.142761 0.095123 0.002930
0.166412 0.094055 0.002655
0.211029 0.084106 0.004333
0.247833 0.075592 0.007507
0.282623 0.064667 0.009094
0.309814 0.052856 0.009094
0.329315 0.040833 0.007935
0.346527 0.031372 0.005737
0.362457 0.017120 0.002625
0.380920 0.014130 0.001312
0.398315 0.012329 0.000519
0.414032 0.011871 0.000000
0.428253 0.016754 0.000946
0.443207 0.018677 0.002625
0.459381 0.018127 0.003601
0.474548 0.019623 0.004181
0.489899 0.019653 0.003632
0.502594 0.019287 0.002533
0.511475 0.021149 0.001709
0.520935 0.021057 0.000793
0.531219 0.018768 0.000031
0.541687 0.015289 0.000000
0.551483 0.013702 0.000000
0.564331 0.009430 0.000916
0.577332 0.005890 0.002075
0.589600 0.002167 0.003052
0.605133 0.014557 0.006378
0.621307 0.027466 0.008575
0.637787 0.037842 0.009613
0.655212 0.048889 0.011383
0.674042 0.056610 0.014099
0.693054 0.063599 0.017090
0.712799 0.073425 0.020660
0.733063 0.084167 0.024445
0.757141 0.080627 0.017273
0.788422 0.073090 0.009705
0.821014 0.057922 0.005249
0.845337 0.056427 0.007813
0.857330 0.062744 0.013824
0.858490 0.090881 0.025696
0.860565 0.110992 0.036987
0.863342 0.112671 0.032623
0.863617 0.116211 0.031219
0.863800 0.118195 0.030426
0.863708 0.117188 0.030823
0.863464 0.114044 0.032135
0.863251 0.108765 0.034058
0.863281 0.104889 0.035400
0.863281 0.109894 0.033722
0.864624 0.124329 0.027588
0.868042 0.142792 0.020416
0.874481 0.163452 0.014130
0.881012 0.182007 0.009399
0.884583 0.200165 0.007446
0.110077 0.124512 0.003601
0.109741 0.124695 0.003723
0.110229 0.124847 0.003662
0.111145 0.125000 0.003601
0.112457 0.125122 0.003540
0.113892 0.125610 0.003357
0.115936 0.126068 0.003235
0.118500 0.126801 0.003174
0.131958 0.124817 0.001740
0.147888 0.121277 0.000000
0.164215 0.117737 0.000000
0.177765 0.116333 0.000275
0.193115 0.114899 0.001801
0.235382 0.108643 0.006958
0.271454 0.101654 0.009460
0.301361 0.095306 0.010223
0.326996 0.086914 0.010529
0.342743 0.073364 0.007111
0.358154 0.062927 0.004517
0.371216 0.046570 0.001801
0.386627 0.030914 0.001129
0.405823 0.030243 0.002228
0.421967 0.029755 0.003082
0.437988 0.031677 0.004120
0.454865 0.031342 0.004364
0.471680 0.028595 0.003632
0.484772 0.031891 0.002319
0.496552 0.033539 0.001343
0.508820 0.030548 0.000702
0.519226 0.029236 0.000000
0.529175 0.027374 0.000000
0.539917 0.022736 0.000000
0.551392 0.017090 0.000000
0.563660 0.009644 0.000763
0.576355 0.004730 0.001801
0.588898 0.002563 0.003113
0.604980 0.018768 0.006775
0.620972 0.031708 0.008575
0.638092 0.044708 0.010193
0.655518 0.055328 0.011993
0.675232 0.064240 0.015228
0.693939 0.073853 0.018463
0.713837 0.085327 0.022308
0.734772 0.089111 0.022919
0.759583 0.082642 0.015564
0.791290 0.073608 0.008179
0.824097 0.058685 0.003967
0.845337 0.062775 0.008179
0.854828 0.074615 0.015594
0.857147 0.099274 0.028442
0.860962 0.114685 0.035248
0.863556 0.115784 0.031372
0.863770 0.117981 0.030487
0.864014 0.119995 0.029633
0.863922 0.119019 0.030121
0.863617 0.116028 0.031311
0.863373 0.112000 0.032928
0.863251 0.108582 0.034180
0.863678 0.117310 0.030792
0.866058 0.132813 0.023926
0.870605 0.152130 0.017609
0.877472 0.172394 0.011902
0.882446 0.189514 0.008453
0.885468 0.207458 0.006714
0.119568 0.153900 0.005707
0.119080 0.153992 0.005737
0.119598 0.153931 0.005676
0.120972 0.153534 0.005524
0.123016 0.153137 0.005310
0.125458 0.152802 0.005066
0.128601 0.152252 0.004791
0.132294 0.151764 0.004456
0.136780 0.151215 0.003998
0.152283 0.147430 0.002380
0.170319 0.142822 0.000519
0.189392 0.137695 0.000000
0.205017 0.136230 0.001740
0.219421 0.135803 0.003632
0.256470 0.133728 0.008667
0.288940 0.131409 0.012695
0.314972 0.128387 0.010986
0.337616 0.124390 0.009186
0.353088 0.105072 0.009125
0.368073 0.090485 0.007477
0.383301 0.075745 0.006226
0.399109 0.059540 0.005463
0.416565 0.054596 0.005402
0.432465 0.054291 0.005127
0.449249 0.053741 0.003845
0.464569 0.054047 0.002472
0.478149 0.053833 0.000916
0.490173 0.054016 0.000000
0.501740 0.051941 0.000000
0.514862 0.044464 0.000000
0.526581 0.037262 0.000000
0.537537 0.031189 0.000000
0.549438 0.025024 0.000000
0.561554 0.017731 0.000305
0.573730 0.009033 0.001251
0.588318 0.011810 0.004486
0.604492 0.026184 0.007355
0.620636 0.037598 0.008636
0.638550 0.052826 0.010834
0.657135 0.063751 0.013397
0.676544 0.073914 0.016693
0.695801 0.087097 0.020416
0.715240 0.098450 0.024170
0.737366 0.098267 0.019562
0.763428 0.087830 0.013123
0.794800 0.074280 0.006439
0.826508 0.062622 0.003601
0.844818 0.069946 0.008514
0.852203 0.087585 0.018188
0.855896 0.108643 0.031860
0.861633 0.118958 0.033203
0.863922 0.119202 0.029938
0.864197 0.121063 0.029205
0.864288 0.122040 0.028687
0.864197 0.121246 0.029114
0.863861 0.118439 0.030365
0.863617 0.115845 0.031403
0.863373 0.112915 0.032562
0.864868 0.126007 0.026978
0.868256 0.143494 0.020203
0.874298 0.162811 0.014343
0.881012 0.182007 0.009399
0.884399 0.198761 0.007599
0.886566 0.216888 0.005829
0.132324 0.180511 0.012756
0.132477 0.180328 0.012665
0.133087 0.180084 0.012512
0.133331 0.180023 0.012482
0.135437 0.179688 0.012421
0.138733 0.179230 0.012238
0.142151 0.178802 0.012115
0.145874 0.178436 0.012024
0.150513 0.177917 0.011841
0.155243 0.177612 0.011810
0.171204 0.173187 0.010193
0.191650 0.166016 0.007904
0.212128 0.158295 0.006287
0.228668 0.155914 0.007996
0.242950 0.155914 0.009277
0.271301 0.155579 0.010071
0.298462 0.151764 0.009918
0.322021 0.146942 0.007813
0.344025 0.140564 0.006866
0.361542 0.122833 0.007782
0.378235 0.109039 0.007233
0.395813 0.098206 0.006165
0.413666 0.088898 0.005066
0.430695 0.081879 0.004211
0.445404 0.080078 0.003052
0.459412 0.078735 0.001495
0.472870 0.078857 0.000000
0.485565 0.077454 0.000000
0.498352 0.074524 0.000000
0.509460 0.065613 0.000000
0.521332 0.051819 0.000000
0.534729 0.042572 0.000000
0.546661 0.036072 0.000000
0.558838 0.027740 0.000000
0.573730 0.032898 0.003448
0.589081 0.037201 0.006287
0.604462 0.041168 0.008087
0.621582 0.051300 0.009735
0.639465 0.062073 0.011627
0.659271 0.073730 0.015167
0.678864 0.088440 0.019104
0.698181 0.102600 0.022766
0.718536 0.110413 0.022614
0.740540 0.109558 0.015350
0.768463 0.095886 0.009308
0.798981 0.075470 0.004181
0.826935 0.071533 0.004669
0.843292 0.080322 0.009857
0.849792 0.101166 0.021729
0.854492 0.120880 0.036499
0.862457 0.122925 0.030945
0.864471 0.123291 0.028168
0.864655 0.124725 0.027557
0.864838 0.125793 0.027008
0.864563 0.124084 0.027771
0.864258 0.121643 0.028839
0.864105 0.120789 0.029327
0.864288 0.122040 0.028687
0.866852 0.137238 0.022186
0.871613 0.155273 0.016693
0.878540 0.175354 0.011078
0.883270 0.193604 0.008057
0.885956 0.211029 0.006348
0.888062 0.227814 0.004852
0.157654 0.206909 0.014740
0.157806 0.206879 0.014679
0.158203 0.206787 0.014679
0.158539 0.206757 0.014587
0.158905 0.206757 0.014557
0.160858 0.206268 0.014374
0.163757 0.205292 0.014160
0.167175 0.204376 0.013824
0.170593 0.203461 0.013428
0.174774 0.202362 0.013000
0.178925 0.201477 0.012573
0.191925 0.196198 0.011292
0.210236 0.187347 0.009369
0.227478 0.177887 0.007599
0.242981 0.172974 0.007721
0.255920 0.171875 0.007538
0.278198 0.169983 0.006744
0.305206 0.165710 0.005829
0.330688 0.159851 0.004852
0.353119 0.152222 0.004456
0.372803 0.139282 0.005127
0.390778 0.128723 0.005035
0.408478 0.120514 0.004181
0.425659 0.114105 0.002899
0.443024 0.108612 0.001709
0.458191 0.103119 0.000732
0.471863 0.100006 0.000000
0.484833 0.098419 0.000000
0.497803 0.096619 0.000000
0.509674 0.095123 0.000000
0.521088 0.085693 0.000000
0.531311 0.063629 0.000000
0.545258 0.056366 0.000000
0.559906 0.058899 0.003265
0.574768 0.061981 0.006042
0.589935 0.065460 0.007874
0.606445 0.068481 0.009460
0.623779 0.072937 0.011444
0.642517 0.078003 0.014099
0.662109 0.089325 0.017883
0.681671 0.105347 0.021942
0.701324 0.119354 0.025452
0.722839 0.121704 0.017365
0.745880 0.120300 0.010284
0.773895 0.103668 0.005951
0.804352 0.077393 0.001190
0.827423 0.082153 0.005585
0.841156 0.093628 0.012390
