LUTs/Sea CLAH .cube
#Created by: Adobe Photoshop Export Color Lookup Plugin
#Copyright: (C) Copyright 2018 ©Sergey Zhmakin
TITLE "Sea CLAHE"
#LUT size
LUT_3D_SIZE 4
#data domain
DOMAIN_MIN 0.0 0.0 0.0
DOMAIN_MAX 1.0 1.0 1.0
#LUT data points
0.007751 0.000061 0.017548
0.401245 0.005646 0.005890
0.710266 0.061066 0.018433
0.878784 0.175995 0.010864
0.379700 0.370728 0.019257
0.395874 0.352325 0.022766
0.768341 0.265808 0.042938
0.854340 0.383789 0.017609
0.656097 0.656616 0.019806
0.654297 0.654846 0.019135
0.687286 0.636322 0.013367
0.880219 0.686096 0.071014
0.914429 0.937653 0.099304
0.914429 0.937653 0.099304
0.914429 0.937653 0.099304
0.914429 0.937653 0.099304
0.150848 0.009033 0.418427
0.383514 0.007660 0.307953
0.717560 0.067749 0.188171
0.863220 0.100769 0.036957
0.162170 0.323639 0.316986
0.206299 0.204559 0.204803
0.802856 0.183960 0.180511
0.875336 0.327332 0.028076
0.578247 0.655487 0.048187
0.584412 0.653259 0.043793
0.667480 0.641449 0.021393
0.867645 0.661621 0.062744
0.914429 0.937653 0.099304
0.914429 0.937653 0.099304
0.911438 0.937164 0.099487
0.914429 0.937653 0.099304
0.157135 0.000000 0.694885
0.344208 0.016998 0.657654
0.675690 0.070679 0.563843
0.866028 0.083191 0.452789
0.100616 0.199310 0.749054
0.191528 0.176392 0.737152
0.733826 0.045227 0.648560
0.866486 0.084930 0.426270
0.357788 0.579681 0.571106
0.359863 0.579346 0.567566
0.537689 0.539032 0.531830
0.853088 0.525146 0.383759
0.853333 0.931458 0.236267
0.840820 0.930420 0.238647
0.821777 0.929169 0.246674
0.953674 0.944763 0.191193
0.237305 0.019775 0.822876
0.293579 0.010803 0.824799
0.621979 0.044464 0.842316
0.876556 0.022430 0.862854
0.125427 0.089020 0.816315
0.255859 0.082062 0.825989
0.593384 0.067535 0.842194
0.875214 0.025116 0.867950
0.276154 0.438110 0.890808
0.272400 0.440765 0.890961
0.460693 0.410858 0.888763
0.842010 0.322510 0.838898
0.557007 0.933289 0.921204
0.553589 0.932312 0.920471
0.564240 0.927826 0.916626
1.000000 0.997437 0.986298
