LUTs/Sea CLAH .cube
#Created by: Adobe Photoshop Export Color Lookup Plugin
#Copyright: (C) Copyright 2018 ©Sergey Zhmakin
TITLE "Sea CLAHE"
#LUT size
LUT_3D_SIZE 8
#data domain
DOMAIN_MIN 0.0 0.0 0.0
DOMAIN_MAX 1.0 1.0 1.0
#LUT data points
0.007751 0.000061 0.017548
0.206573 0.022552 0.028046
0.361908 0.006500 0.009705
0.493835 0.013672 0.004120
0.601990 0.002777 0.004517
0.778717 0.070557 0.014191
0.863281 0.109894 0.033722
0.878784 0.175995 0.010864
0.088531 0.096100 0.007538
0.123566 0.094604 0.003235
0.362457 0.017120 0.002625
0.502594 0.019287 0.002533
0.605133 0.014557 0.006378
0.788422 0.073090 0.009705
0.863708 0.117188 0.030823
0.884583 0.200165 0.007446
0.307159 0.292725 0.009979
0.297485 0.297638 0.009705
0.319122 0.268890 0.009186
0.475220 0.230164 0.016113
0.631378 0.212311 0.018982
0.811859 0.191467 0.033447
0.883209 0.193451 0.008118
0.877228 0.323792 0.019012
0.467224 0.475616 0.041168
0.464630 0.476349 0.041138
0.463226 0.476654 0.041138
0.492126 0.456909 0.041443
0.626495 0.403046 0.042053
0.839233 0.348145 0.006683
0.864990 0.356506 0.025604
0.850647 0.458130 0.001038
0.541412 0.557190 0.012726
0.540161 0.557495 0.012848
0.539063 0.558014 0.012970
0.545563 0.556274 0.011841
0.570953 0.544586 0.011871
0.740723 0.482391 0.018280
0.849152 0.464325 0.003357
0.835510 0.557068 0.033081
0.721008 0.716919 0.045441
0.718994 0.716248 0.045044
0.716187 0.715179 0.044586
0.716003 0.715149 0.044373
0.716675 0.716217 0.044952
0.752502 0.704224 0.044586
0.850769 0.627991 0.053558
0.888184 0.699890 0.075714
0.874054 0.889526 0.097137
0.873016 0.890411 0.097351
0.871063 0.891937 0.097443
0.872314 0.890656 0.097198
0.868469 0.891144 0.097290
0.867859 0.891693 0.097382
0.902435 0.882935 0.096771
0.918732 0.877777 0.097595
0.914429 0.937653 0.099304
0.914429 0.937653 0.099304
0.914429 0.937653 0.099304
0.914429 0.937653 0.099304
0.914429 0.937653 0.099304
0.914429 0.937653 0.099304
0.914429 0.937653 0.099304
0.914429 0.937653 0.099304
0.119446 0.022491 0.200256
0.242981 0.005707 0.142517
0.364685 0.005341 0.023193
0.501251 0.016205 0.008942
0.606018 0.005463 0.005524
0.777283 0.070923 0.014496
0.863220 0.100769 0.036957
0.869995 0.150116 0.018280
0.051025 0.069275 0.090240
0.048553 0.049103 0.049805
0.385925 0.009918 0.010223
0.514862 0.016022 0.007477
0.618134 0.012970 0.008179
0.791168 0.067505 0.011444
0.863312 0.103607 0.035767
0.879242 0.177277 0.010529
0.265869 0.314575 0.010040
0.272034 0.312592 0.009735
0.325928 0.278412 0.010529
0.501587 0.229156 0.016937
0.650787 0.201477 0.017273
0.818481 0.181122 0.032654
0.881561 0.185181 0.009033
0.881683 0.313812 0.015991
0.456177 0.481903 0.040833
0.452881 0.483185 0.040466
0.455841 0.482513 0.040710
0.495453 0.460999 0.041504
0.636414 0.400574 0.042084
0.848480 0.343933 0.007355
0.866272 0.351837 0.026398
0.852875 0.449249 0.000000
0.534698 0.558685 0.013580
0.533386 0.558990 0.013885
0.531494 0.559570 0.014160
0.537018 0.558594 0.013275
0.568604 0.546844 0.010956
0.749664 0.483673 0.016754
0.849457 0.462921 0.002869
0.835449 0.553131 0.032532
0.705139 0.716461 0.044525
0.704193 0.716553 0.044403
0.702911 0.716492 0.044373
0.703491 0.716522 0.044464
0.704803 0.717682 0.045013
0.740082 0.707672 0.043182
0.850647 0.627686 0.053528
0.887268 0.698334 0.075226
0.860229 0.891693 0.097412
0.859833 0.892395 0.097443
0.859772 0.893188 0.097443
0.861115 0.892303 0.097351
0.858368 0.892792 0.097412
0.858765 0.893402 0.097443
0.892487 0.884583 0.096802
0.919312 0.875610 0.097687
0.914429 0.937653 0.099304
0.914429 0.937653 0.099304
0.914429 0.937653 0.099304
0.914429 0.937653 0.099304
0.914429 0.937653 0.099304
0.914429 0.937653 0.099304
0.914429 0.937653 0.099304
0.914429 0.937653 0.099304
0.133850 0.013550 0.379059
0.194946 0.008453 0.362518
0.344055 0.007477 0.277405
0.482269 0.010742 0.200531
0.612091 0.010803 0.143829
0.783051 0.063293 0.091522
0.862701 0.100067 0.055847
0.863220 0.100769 0.036957
0.086090 0.045197 0.418762
0.136566 0.033295 0.415314
0.366882 0.007507 0.307129
0.503693 0.011566 0.211609
0.629700 0.020203 0.142334
0.814178 0.042633 0.080566
0.862579 0.099854 0.060089
0.863312 0.111206 0.033295
0.107941 0.291992 0.286133
0.125061 0.283112 0.280823
0.193634 0.187897 0.187073
0.519684 0.183167 0.158478
0.682892 0.155396 0.155243
0.833679 0.119598 0.103180
0.866669 0.122986 0.115143
0.895874 0.265350 0.002136
0.401367 0.474640 0.142914
0.404175 0.474701 0.140137
0.413910 0.475311 0.133301
0.487274 0.453217 0.118805
0.674103 0.384674 0.090363
0.873016 0.315674 0.059448
0.873749 0.331635 0.025635
0.852173 0.427826 0.000000
0.501556 0.564819 0.022736
0.501617 0.564667 0.022797
0.503082 0.563690 0.023712
0.507660 0.563263 0.023163
0.561157 0.550415 0.015839
0.778229 0.483917 0.023010
0.849213 0.464111 0.003265
0.835510 0.541534 0.031555
0.663971 0.715698 0.043579
0.664276 0.716125 0.043823
0.664856 0.715729 0.043579
0.665497 0.715546 0.043549
0.664948 0.716187 0.043732
0.706085 0.711578 0.042786
0.849976 0.626099 0.053192
0.881012 0.687592 0.071381
0.821411 0.897888 0.097992
0.821106 0.898041 0.097961
0.824036 0.897400 0.097961
0.828003 0.896515 0.097656
0.824921 0.897369 0.097870
0.825958 0.897888 0.097992
0.859650 0.889679 0.096954
0.921295 0.869171 0.097717
0.914429 0.937653 0.099304
0.914429 0.937653 0.099304
0.914429 0.937653 0.099304
0.914429 0.937653 0.099304
0.914429 0.937653 0.099304
0.914429 0.937653 0.099304
0.914429 0.937653 0.099304
0.914429 0.937653 0.099304
0.154175 0.007507 0.493835
0.170807 0.008026 0.484619
0.308289 0.006927 0.425201
0.459900 0.010498 0.371307
0.586334 0.010803 0.321594
0.761627 0.072052 0.298462
0.864746 0.087524 0.242035
0.862335 0.095978 0.116943
0.102936 0.012421 0.517426
0.123169 0.012054 0.511536
0.289490 0.007538 0.469269
0.472229 0.011292 0.389923
0.595276 0.014526 0.334381
0.791595 0.054779 0.312592
0.864838 0.087372 0.249298
0.862335 0.095856 0.117188
0.080505 0.216034 0.517975
0.085938 0.210938 0.516388
0.241455 0.163666 0.486816
0.480469 0.113953 0.413116
0.655396 0.104919 0.366577
0.839111 0.026611 0.328308
0.864532 0.087982 0.230408
0.866272 0.120117 0.123138
0.276703 0.422882 0.405762
0.277649 0.422272 0.403870
0.290710 0.411987 0.393097
0.314453 0.314789 0.315338
0.653961 0.330658 0.309540
0.856903 0.253479 0.238953
0.899414 0.243042 0.178314
0.863403 0.368011 0.137054
0.419250 0.553772 0.214203
0.419495 0.553741 0.213287
0.420959 0.553986 0.212158
0.437042 0.552063 0.210541
0.546387 0.527496 0.198425
0.800018 0.443268 0.159760
0.867096 0.416260 0.113739
0.852234 0.494446 0.059692
0.584595 0.699738 0.103668
0.585052 0.699249 0.103638
0.586975 0.698486 0.103485
0.590118 0.698730 0.103424
0.593231 0.699554 0.103546
0.698151 0.696320 0.087494
0.848083 0.616211 0.057037
0.874634 0.675568 0.067291
0.757141 0.902863 0.099213
0.759003 0.902710 0.099274
0.763550 0.902252 0.098816
0.766449 0.901947 0.098877
0.764313 0.902649 0.099426
0.769745 0.902496 0.099579
0.814392 0.893860 0.097809
0.924408 0.861389 0.097748
0.914429 0.937653 0.099304
0.914429 0.937653 0.099304
0.912140 0.937256 0.099487
0.900787 0.935089 0.099976
0.892334 0.933594 0.100006
0.889587 0.933167 0.100098
0.903351 0.935547 0.100037
0.914429 0.937653 0.099304
0.168121 0.002533 0.606628
0.198242 0.002106 0.596069
0.280762 0.004120 0.577362
0.450226 0.019348 0.527466
0.578491 0.016052 0.491852
0.747223 0.067261 0.450073
0.866241 0.083862 0.442841
0.866821 0.085571 0.333771
0.150818 0.002258 0.624481
0.168915 0.002258 0.618439
0.271362 0.000916 0.590393
0.453644 0.020721 0.544983
0.588623 0.018860 0.499969
0.757416 0.058929 0.458252
0.866241 0.083832 0.443298
0.866760 0.085693 0.330597
0.111847 0.148926 0.665375
0.118317 0.146423 0.663757
0.213348 0.129974 0.650452
0.425476 0.085663 0.613525
0.633728 0.080536 0.556488
0.796631 0.003448 0.488342
0.866272 0.083984 0.441223
0.866180 0.085968 0.310028
0.192627 0.360779 0.627258
0.192871 0.361420 0.627045
0.203461 0.358734 0.623291
0.361389 0.333984 0.602539
0.611176 0.286438 0.547211
0.861572 0.201538 0.464691
0.893311 0.126099 0.398682
0.897430 0.188538 0.283569
0.323669 0.514282 0.514984
0.326111 0.513702 0.514557
0.332855 0.512146 0.512939
0.344971 0.508209 0.514740
0.460632 0.460327 0.459900
0.780518 0.394775 0.366333
0.853699 0.360596 0.323669
0.868469 0.419189 0.274597
0.476959 0.655914 0.278320
0.475952 0.656158 0.278320
0.474701 0.657135 0.278900
0.478668 0.659454 0.279999
0.505981 0.659241 0.282684
0.666168 0.644653 0.275116
0.851563 0.561951 0.205475
0.864075 0.631836 0.181244
0.681122 0.879761 0.179535
0.682770 0.879669 0.179718
0.686554 0.879791 0.179535
0.690033 0.880005 0.179230
0.690704 0.880615 0.179199
0.696533 0.880371 0.178375
0.811859 0.871368 0.156097
0.935028 0.849152 0.129364
0.887909 0.933929 0.141235
0.884979 0.933533 0.141052
0.878296 0.932587 0.140533
0.864594 0.931000 0.141754
0.857666 0.930328 0.143585
0.854675 0.930084 0.145172
0.884064 0.933380 0.140564
0.930634 0.940948 0.129059
0.166595 0.000000 0.744568
0.191040 0.001282 0.739502
0.286560 0.016998 0.721710
0.440704 0.009094 0.699921
0.585175 0.038055 0.661835
0.753571 0.019531 0.630585
0.870514 0.067657 0.619049
0.865753 0.078461 0.520111
0.125977 0.000000 0.756439
0.151550 0.000000 0.749664
0.306152 0.019989 0.732178
0.438202 0.008514 0.712433
0.587860 0.041779 0.669586
0.763855 0.014954 0.646790
0.871582 0.065033 0.631622
0.865509 0.079437 0.508362
0.156891 0.115540 0.775635
0.167633 0.112762 0.775787
0.226593 0.101471 0.780731
0.412018 0.043152 0.764801
0.611237 0.067261 0.722015
0.793976 0.038666 0.701141
0.872192 0.063568 0.638641
0.865631 0.080658 0.489746
0.173920 0.302551 0.787750
0.173157 0.303497 0.788055
0.208649 0.294952 0.782501
0.322266 0.273743 0.765350
0.559326 0.223938 0.743805
0.814331 0.162964 0.714478
0.881409 0.078613 0.661896
0.871857 0.089325 0.540527
0.249054 0.450745 0.764526
0.249634 0.451324 0.764221
0.252472 0.452179 0.762512
0.260834 0.452454 0.758270
0.436523 0.428375 0.756836
0.748901 0.350403 0.668457
0.867371 0.301575 0.567566
0.860718 0.322388 0.490692
0.363281 0.628540 0.606323
0.364532 0.628052 0.606293
0.367889 0.628754 0.605743
0.368317 0.630646 0.603302
0.387299 0.630981 0.600708
0.597412 0.597198 0.589691
0.853180 0.528473 0.480347
0.856354 0.561035 0.446381
0.601807 0.875427 0.415863
0.603363 0.875031 0.415985
0.607727 0.874329 0.416168
0.613342 0.873352 0.417114
0.620300 0.873352 0.419067
0.649353 0.871399 0.414276
0.850464 0.837616 0.393372
0.945099 0.829132 0.308350
0.831482 0.931305 0.302612
0.829163 0.931152 0.303589
0.820892 0.930664 0.308655
0.813141 0.930328 0.313080
0.805878 0.930054 0.318695
0.802429 0.929932 0.321655
0.839264 0.932251 0.310120
0.955078 0.946503 0.251404
0.215485 0.019714 0.820160
0.222137 0.019379 0.819580
0.293457 0.013672 0.819702
0.426483 0.029419 0.835358
0.612976 0.063660 0.831512
0.748932 0.017242 0.833099
0.882843 0.013458 0.812103
0.883881 0.020111 0.756104
0.204132 0.019806 0.820496
0.225586 0.019287 0.819061
0.287964 0.014221 0.820221
0.414459 0.025177 0.834625
0.602722 0.072540 0.827850
0.747986 0.019592 0.837280
0.882935 0.013702 0.810455
0.882935 0.024658 0.741913
0.170715 0.065369 0.818237
0.170593 0.065796 0.818207
0.215515 0.053467 0.820831
0.421417 0.064026 0.837769
0.569824 0.082214 0.820557
0.758820 0.058075 0.845123
0.881622 0.014771 0.825226
0.879700 0.039490 0.712921
0.200317 0.254822 0.839874
0.198242 0.253784 0.840302
0.214478 0.247620 0.838776
0.301605 0.232758 0.831909
0.527832 0.182007 0.879242
0.742096 0.153748 0.847229
0.881439 0.022552 0.866028
0.882996 0.013367 0.810425
0.263489 0.393677 0.865784
0.263336 0.393738 0.866028
0.260834 0.394165 0.866089
0.279144 0.389313 0.866516
0.406982 0.357056 0.872681
0.700958 0.288727 0.883636
0.861450 0.236176 0.817566
0.872803 0.224030 0.722565
0.306854 0.528381 0.835175
0.307617 0.527802 0.835297
0.309143 0.526611 0.835480
0.310760 0.524475 0.836029
0.318512 0.523132 0.835907
0.499603 0.499878 0.836334
0.870422 0.447968 0.791351
0.883881 0.445618 0.755768
0.468719 0.816833 0.839142
0.468292 0.816345 0.841675
0.467896 0.812408 0.851044
0.464691 0.805969 0.868561
0.469421 0.805481 0.867096
0.516449 0.808319 0.853546
0.816467 0.818451 0.816223
0.974884 0.771332 0.669739
0.720612 0.933777 0.605957
0.718658 0.933716 0.607269
0.714111 0.933594 0.610443
0.706146 0.933533 0.619232
0.696259 0.933289 0.631226
0.704498 0.933685 0.631775
0.751801 0.935608 0.613647
0.883362 0.949829 0.554749
0.237305 0.019775 0.822876
0.245911 0.018646 0.822998
0.274139 0.014252 0.823914
0.350494 0.004761 0.828674
0.526825 0.079041 0.834442
0.655975 0.011719 0.849548
0.870850 0.029816 0.869354
0.876556 0.022430 0.862854
0.225525 0.020996 0.822601
0.234039 0.020203 0.822754
0.259247 0.016602 0.823395
0.344086 0.003387 0.828064
0.534668 0.081299 0.833374
0.638153 0.029541 0.845703
0.871521 0.029114 0.869202
0.876221 0.023132 0.863922
0.172577 0.051544 0.821960
0.178680 0.053131 0.821716
0.213898 0.045471 0.822784
0.373535 0.042633 0.834595
0.500244 0.072784 0.838562
0.656982 0.010742 0.849731
0.863434 0.036377 0.868591
0.875580 0.024384 0.866516
0.208466 0.221924 0.846619
0.208984 0.221558 0.846588
0.219971 0.218475 0.845551
0.309204 0.211578 0.836731
0.456116 0.194519 0.860657
0.631256 0.164124 0.866180
0.840790 0.089355 0.872589
0.875031 0.025757 0.869598
0.259308 0.370209 0.870544
0.258057 0.369965 0.870758
0.251099 0.367859 0.871948
0.248718 0.363525 0.872528
0.384430 0.344452 0.862823
0.599213 0.304382 0.884460
0.839233 0.234161 0.861115
0.884247 0.164886 0.864777
0.327759 0.480621 0.866669
0.328522 0.480255 0.866791
0.330688 0.479126 0.867584
0.331635 0.477570 0.868896
0.339508 0.475861 0.869385
0.493347 0.451447 0.857452
0.799469 0.409454 0.850830
0.877838 0.401520 0.845459
0.422272 0.662720 0.857422
0.423431 0.662994 0.857513
0.425323 0.663177 0.857635
0.426239 0.661560 0.857605
0.429901 0.657959 0.857452
0.443542 0.652252 0.857910
0.666748 0.642090 0.871765
0.904999 0.661957 0.936584
0.557007 0.933289 0.921204
0.556580 0.933319 0.921051
0.554749 0.932709 0.920654
0.551300 0.930328 0.919342
0.548950 0.927521 0.917938
0.579926 0.928528 0.917328
0.628204 0.933319 0.925720
1.000000 0.997437 0.986298
