LUTs/Underwater Flash.cube
#Created by: Adobe Photoshop Export Color Lookup Plugin
#Copyright: (C) Copyright 2018 ©Sergey Zhmakin
TITLE "Underwater Flash"
#LUT size
LUT_3D_SIZE 4
#data domain
DOMAIN_MIN 0.0 0.0 0.0
DOMAIN_MAX 1.0 1.0 1.0
#LUT data points
0.000000 0.000000 0.000000
0.653412 0.169189 0.094025
0.973907 0.307404 0.179901
1.000000 0.370697 0.234802
0.451965 0.527252 0.000000
0.507996 0.525909 0.000000
0.888702 0.551788 0.152283
0.957001 0.571014 0.172028
0.770599 0.828461 0.183929
0.775085 0.831818 0.186340
0.794281 0.823792 0.169678
0.944885 0.813080 0.154480
0.945465 0.943939 0.257843
0.943359 0.943390 0.259430
0.933411 0.940857 0.268311
0.940002 0.941742 0.264130
0.341492 0.191223 0.623230
0.644928 0.236206 0.643280
0.979736 0.278717 0.593628
1.000000 0.290741 0.559296
0.303192 0.446686 0.445282
0.430359 0.422211 0.429108
0.953949 0.403748 0.395752
1.000000 0.412842 0.438324
0.684998 0.796082 0.204620
0.687622 0.795715 0.200470
0.736938 0.797180 0.189850
0.946808 0.781952 0.184753
0.937714 0.945557 0.292908
0.933960 0.945221 0.296265
0.924164 0.941956 0.303009
0.941101 0.943665 0.290802
0.452423 0.282776 0.850220
0.605377 0.322998 0.904388
0.922302 0.378571 0.912231
0.995453 0.377930 0.920654
0.421600 0.437134 0.897461
0.516479 0.408661 0.878143
0.914856 0.450958 0.917511
1.000000 0.419647 0.902069
0.620850 0.773895 0.773315
0.619263 0.773346 0.769257
0.753326 0.753387 0.753082
1.000000 0.717163 0.743042
0.909698 0.959229 0.516815
0.905060 0.957886 0.520294
0.896210 0.955444 0.528809
0.940338 0.959015 0.498016
0.483002 0.303162 0.890533
0.606537 0.335846 0.937714
0.834747 0.399017 0.977020
0.997803 0.406311 0.972382
0.471497 0.415314 0.961029
0.570435 0.416565 0.973450
0.868286 0.474365 0.986053
1.000000 0.481262 0.980286
0.661163 0.741425 1.000000
0.661163 0.742340 1.000000
0.828552 0.725037 1.000000
1.000000 0.722778 1.000000
0.867920 0.985748 0.990875
0.863770 0.984711 0.989807
0.857391 0.981476 0.985107
1.000000 0.999908 0.995941
