LUTs/Underwater Flash.cube
#Created by: Adobe Photoshop Export Color Lookup Plugin
#Copyright: (C) Copyright 2018 ©Sergey Zhmakin
TITLE "Underwater Flash"
#LUT size
LUT_3D_SIZE 64
#data domain
DOMAIN_MIN 0.0 0.0 0.0
DOMAIN_MAX 1.0 1.0 1.0
#LUT data points
0.000000 0.000000 0.000000
0.033752 0.008362 0.004639
0.066742 0.017914 0.009705
0.092621 0.028168 0.015564
0.122162 0.042603 0.023193
0.152161 0.054810 0.032043
0.192566 0.058624 0.043182
0.233917 0.065765 0.063202
0.291168 0.059509 0.077972
0.340118 0.043030 0.081635
0.399567 0.007202 0.069763
0.437164 0.037598 0.064178
0.459747 0.076355 0.052704
0.480957 0.095459 0.054047
0.500275 0.105682 0.056305
0.519409 0.113129 0.055389
0.540039 0.116913 0.051239
0.565216 0.118591 0.056915
0.593689 0.117462 0.068573
0.617035 0.129120 0.078918
0.635681 0.150482 0.087799
0.653412 0.169189 0.094025
0.671448 0.182709 0.097168
0.690369 0.196564 0.098877
0.709534 0.208588 0.101013
0.728760 0.216400 0.094147
0.745789 0.219208 0.090485
0.761414 0.219788 0.088379
0.777313 0.219818 0.088348
0.793762 0.227386 0.100220
0.810516 0.236206 0.111847
0.824860 0.250000 0.121063
0.838562 0.261566 0.129822
0.851776 0.273590 0.133789
0.864685 0.285553 0.132904
0.878113 0.295807 0.137512
0.891754 0.305115 0.143250
0.906219 0.309143 0.148193
0.921570 0.307800 0.153656
0.936920 0.305298 0.161102
0.952362 0.301727 0.169220
0.965607 0.301239 0.174042
0.973907 0.307404 0.179901
0.979340 0.317047 0.187714
0.984070 0.327271 0.194946
0.987305 0.339569 0.201080
0.990875 0.349609 0.208435
0.994659 0.355896 0.209076
0.998322 0.358337 0.203857
0.998962 0.359131 0.198151
0.997803 0.359009 0.192078
0.996765 0.358215 0.186005
0.996277 0.357605 0.183228
0.997284 0.359558 0.189331
0.998474 0.356354 0.195190
1.000000 0.350342 0.205627
1.000000 0.346069 0.213013
1.000000 0.344757 0.218842
1.000000 0.344086 0.223389
1.000000 0.349030 0.226593
1.000000 0.356354 0.229431
1.000000 0.363098 0.232483
1.000000 0.368195 0.234772
1.000000 0.370697 0.234802
0.001862 0.001801 0.001892
0.001251 0.001190 0.001282
0.035217 0.008698 0.004761
0.077972 0.022064 0.012177
0.114899 0.038879 0.021210
0.149689 0.054230 0.031403
0.194244 0.058685 0.043671
0.237305 0.067230 0.065796
0.292450 0.058807 0.078186
0.343018 0.042267 0.081055
0.403168 0.004944 0.069031
0.438263 0.039948 0.063965
0.459839 0.076477 0.052795
0.479950 0.094910 0.054016
0.499146 0.105072 0.056244
0.518005 0.112976 0.054596
0.538635 0.117249 0.050507
0.564209 0.118622 0.056671
0.592224 0.117462 0.068451
0.615753 0.127350 0.078918
0.634491 0.148987 0.087769
0.652100 0.167999 0.093384
0.669861 0.182251 0.095123
0.689941 0.196533 0.097565
0.709808 0.209015 0.099731
0.729187 0.216705 0.092743
0.745575 0.219269 0.089996
0.761230 0.219788 0.088257
0.777008 0.219727 0.087982
0.793579 0.227295 0.100037
0.810364 0.236145 0.111633
0.824524 0.249725 0.120972
0.838348 0.261383 0.129730
0.851593 0.273712 0.132965
0.864502 0.285583 0.132050
0.877777 0.295807 0.136597
0.891327 0.305115 0.141937
0.906097 0.309174 0.147980
0.921448 0.307922 0.153259
0.936737 0.305298 0.160858
0.952240 0.301788 0.168915
0.965668 0.301270 0.173889
0.973846 0.307373 0.179810
0.979187 0.317688 0.187683
0.983521 0.328583 0.194702
0.986816 0.341003 0.200836
0.990417 0.351135 0.208466
0.994476 0.356354 0.208679
0.998138 0.358948 0.203278
0.998749 0.360138 0.197052
0.997559 0.360229 0.190796
0.996399 0.359497 0.184448
0.996033 0.359497 0.182526
0.997101 0.361572 0.188629
0.998352 0.357574 0.194794
1.000000 0.351593 0.205139
1.000000 0.347137 0.212646
1.000000 0.344757 0.218781
1.000000 0.344086 0.223328
1.000000 0.350403 0.226288
1.000000 0.357910 0.229187
1.000000 0.364716 0.232239
1.000000 0.369537 0.234070
1.000000 0.371826 0.233887
0.007507 0.007324 0.007782
0.006592 0.006165 0.006500
0.006287 0.004608 0.004639
0.029999 0.008240 0.005127
0.092407 0.027954 0.015442
0.138550 0.050720 0.028351
0.187073 0.058472 0.041840
0.236359 0.066742 0.065002
0.292786 0.058594 0.078217
0.344574 0.041809 0.080780
0.404114 0.004242 0.068787
0.438141 0.039795 0.063995
0.458527 0.074951 0.052948
0.478699 0.094055 0.053955
0.498169 0.104614 0.056122
0.516785 0.112793 0.053741
0.537231 0.117676 0.049713
0.563324 0.118591 0.056580
0.591248 0.117462 0.068512
0.614777 0.125916 0.079041
0.633331 0.147736 0.087311
0.650726 0.166626 0.092529
0.669434 0.182373 0.093353
0.690155 0.196991 0.096313
0.710144 0.209503 0.098267
0.729309 0.216797 0.092163
0.745361 0.219299 0.089600
0.761017 0.219818 0.087769
0.776917 0.219696 0.087830
0.793549 0.227356 0.099945
0.810333 0.236115 0.111389
0.824371 0.249512 0.121033
0.838165 0.261292 0.129547
0.851257 0.274750 0.132050
0.863983 0.286896 0.131409
0.877380 0.295715 0.135376
0.890900 0.305084 0.140594
0.905884 0.309235 0.147766
0.921143 0.307953 0.152985
0.936615 0.305359 0.160553
0.952240 0.301819 0.168579
0.965668 0.301331 0.173553
0.973816 0.307343 0.179718
0.978973 0.318237 0.187622
0.983002 0.330017 0.194397
0.986267 0.342621 0.200653
0.989899 0.352997 0.208527
0.994324 0.356934 0.208313
0.997955 0.359711 0.202667
0.998535 0.361053 0.196136
0.997284 0.361389 0.189514
0.996033 0.360901 0.182709
0.995880 0.361359 0.181854
0.996918 0.363068 0.187622
0.998230 0.358917 0.194244
1.000000 0.352936 0.204590
1.000000 0.348206 0.212250
1.000000 0.344757 0.218506
1.000000 0.344360 0.223114
1.000000 0.351868 0.225952
1.000000 0.359528 0.228912
1.000000 0.366516 0.231964
1.000000 0.371094 0.233246
1.000000 0.373077 0.232910
0.016846 0.016449 0.017426
0.015564 0.014893 0.015778
0.013550 0.012970 0.013763
0.015778 0.010956 0.010864
0.033539 0.011322 0.008209
0.116913 0.039917 0.021698
0.173218 0.057678 0.038147
0.234222 0.065918 0.063477
0.294098 0.057892 0.078400
0.344299 0.041931 0.080811
0.402863 0.005096 0.069031
0.436340 0.035675 0.064453
0.456421 0.072296 0.053284
0.477356 0.093140 0.053802
0.497009 0.104187 0.055725
0.515533 0.112610 0.052887
0.536102 0.117889 0.048981
0.562683 0.118347 0.057159
0.589722 0.117432 0.068817
0.613617 0.124359 0.078827
0.632294 0.146576 0.086700
0.650421 0.166656 0.091461
0.669281 0.182739 0.091339
0.690216 0.197388 0.094879
0.710571 0.210114 0.096375
0.729462 0.216980 0.091492
0.745117 0.219391 0.089111
0.760895 0.219940 0.087250
0.776703 0.219757 0.087250
0.793457 0.227325 0.099823
0.809967 0.235840 0.111053
0.824127 0.249268 0.120911
0.838043 0.261475 0.129425
0.850769 0.276093 0.130951
0.863495 0.288513 0.130646
0.876831 0.296631 0.134369
0.890442 0.305145 0.138977
0.905457 0.309296 0.147064
0.921021 0.308014 0.152649
0.936676 0.305389 0.160370
0.952118 0.301880 0.168213
0.965485 0.301422 0.173157
0.973633 0.307861 0.179688
0.978699 0.318939 0.187469
0.982513 0.331482 0.194214
0.985748 0.344482 0.200623
0.989380 0.354919 0.208618
0.993927 0.358185 0.207062
0.997711 0.360565 0.201782
0.998322 0.362213 0.195099
0.996979 0.362762 0.187958
0.995636 0.362427 0.180695
0.995667 0.363495 0.181000
0.996674 0.364532 0.186432
0.998138 0.360321 0.193848
1.000000 0.354401 0.204132
1.000000 0.349335 0.211823
1.000000 0.345062 0.218231
1.000000 0.345459 0.222839
1.000000 0.353394 0.225647
1.000000 0.361267 0.228638
1.000000 0.368439 0.231720
1.000000 0.372559 0.232391
1.000000 0.374481 0.231812
0.032532 0.031677 0.033630
0.030579 0.029785 0.031494
0.027985 0.027252 0.028870
0.025299 0.024017 0.025391
0.037872 0.027039 0.027039
0.058167 0.031921 0.029175
0.145721 0.062134 0.045837
0.226440 0.065552 0.061157
0.291595 0.059235 0.078003
0.342377 0.042572 0.081085
0.395447 0.009918 0.070129
0.432709 0.027710 0.065063
0.454620 0.069733 0.054382
0.475281 0.091888 0.053436
0.494080 0.103455 0.053314
0.514191 0.112335 0.052063
0.534027 0.118347 0.045929
0.560944 0.118225 0.057007
0.587769 0.117340 0.069305
0.612366 0.122650 0.078369
0.630951 0.145264 0.085541
0.649963 0.166840 0.089264
0.669281 0.183289 0.088806
0.690460 0.198090 0.092621
0.711273 0.211029 0.094238
0.729401 0.217072 0.090820
0.745087 0.219482 0.088501
0.760712 0.220032 0.086639
0.776520 0.219849 0.086487
0.793396 0.227325 0.099426
0.809570 0.235413 0.110870
0.823883 0.249054 0.120728
0.837708 0.262604 0.129395
0.850128 0.277954 0.129150
0.862823 0.290283 0.129791
0.876007 0.298737 0.133270
0.889771 0.305115 0.136871
0.905029 0.309387 0.146423
0.920715 0.308105 0.152100
0.936615 0.305481 0.160004
0.952026 0.301941 0.167755
0.965515 0.301514 0.172852
0.973297 0.308685 0.179504
0.978424 0.319611 0.187317
0.981750 0.333618 0.193817
0.985046 0.346710 0.200714
0.988739 0.357300 0.208496
0.993347 0.359863 0.205200
0.997345 0.361664 0.200653
0.998077 0.363586 0.193665
0.996582 0.364288 0.186066
0.995178 0.364288 0.178436
0.995483 0.366028 0.180115
0.996399 0.366364 0.185181
0.997955 0.362000 0.193207
1.000000 0.356232 0.203522
1.000000 0.350708 0.211334
1.000000 0.346344 0.217773
1.000000 0.347137 0.222443
1.000000 0.355499 0.225220
1.000000 0.363495 0.228271
1.000000 0.370728 0.231384
1.000000 0.374542 0.231354
1.000000 0.376038 0.230469
0.061371 0.060089 0.061890
0.062744 0.061310 0.063141
0.064056 0.062531 0.064301
0.065125 0.063477 0.065277
0.066803 0.064209 0.065857
0.082764 0.067230 0.066681
0.100983 0.070404 0.066925
0.186310 0.080414 0.072693
0.269226 0.074310 0.078156
0.330566 0.047241 0.082214
0.384888 0.016357 0.072418
0.429291 0.020416 0.065399
0.451111 0.065369 0.053955
0.470642 0.089172 0.048981
0.489868 0.102173 0.049713
0.509491 0.112061 0.046387
0.531738 0.118408 0.043549
0.557678 0.118134 0.056000
0.585815 0.117157 0.069824
0.610962 0.120880 0.077759
0.629913 0.144806 0.083221
0.648895 0.166840 0.085327
0.668732 0.183990 0.084351
0.690857 0.199005 0.089783
0.711548 0.211456 0.092834
0.729370 0.217163 0.090088
0.744873 0.219635 0.087585
0.760620 0.220184 0.085785
0.776520 0.219971 0.085724
0.793427 0.227509 0.098602
0.809113 0.235138 0.110504
0.823547 0.248901 0.120453
0.837250 0.264496 0.129120
0.849304 0.280457 0.126953
0.861847 0.292664 0.128540
0.875000 0.301483 0.131744
0.888641 0.307800 0.135468
0.904114 0.310669 0.144897
0.919922 0.308929 0.150787
0.936462 0.305511 0.159607
0.951965 0.302032 0.167358
0.965424 0.301575 0.172424
0.972809 0.309875 0.179230
0.977539 0.321838 0.186829
0.980743 0.336700 0.193481
0.984222 0.349701 0.200867
0.988098 0.359314 0.206573
0.992645 0.361969 0.202820
0.996704 0.363831 0.198303
0.997620 0.365540 0.191467
0.996124 0.366516 0.183533
0.994629 0.366669 0.175812
0.995239 0.369385 0.178802
0.996094 0.368744 0.183472
0.997772 0.364288 0.192413
0.999817 0.358582 0.202606
1.000000 0.352570 0.210632
1.000000 0.348114 0.217041
1.000000 0.350891 0.221405
1.000000 0.358032 0.224823
1.000000 0.366241 0.227844
1.000000 0.372986 0.230347
1.000000 0.376892 0.229980
1.000000 0.378082 0.228821
0.096344 0.094299 0.092316
0.096924 0.094818 0.092712
0.097748 0.095398 0.093262
0.098358 0.095703 0.093536
0.099518 0.096436 0.094238
0.100494 0.096710 0.094604
0.113983 0.097565 0.093719
0.134827 0.099152 0.092926
0.219971 0.100281 0.082428
0.301636 0.084045 0.077118
0.366241 0.059479 0.060883
0.420013 0.007996 0.052094
0.445099 0.059265 0.046936
0.465118 0.085419 0.043274
0.482910 0.100311 0.041473
0.502777 0.111786 0.036041
0.526154 0.117981 0.040649
0.554138 0.117920 0.054962
0.583374 0.117218 0.069122
0.609833 0.119812 0.076324
0.628601 0.146912 0.079559
0.646545 0.172028 0.079620
0.667664 0.184631 0.078522
0.690369 0.199982 0.083923
0.712128 0.212006 0.091614
0.729370 0.217377 0.088898
0.744995 0.219757 0.086487
0.760620 0.220398 0.084534
0.776520 0.220184 0.084686
0.792908 0.227448 0.097534
0.808075 0.238556 0.109680
0.822754 0.251587 0.120239
0.836456 0.267334 0.128296
0.848236 0.283783 0.123962
0.860687 0.295837 0.126953
0.873505 0.305145 0.129486
0.887390 0.312347 0.135406
0.903046 0.313751 0.142181
0.919006 0.312012 0.147644
0.935822 0.307678 0.157684
0.951721 0.302948 0.166138
0.965179 0.302002 0.171326
0.972229 0.311279 0.179016
0.976257 0.325256 0.186279
0.979523 0.340576 0.192932
0.983246 0.353302 0.201019
0.987396 0.361725 0.204224
0.991821 0.364746 0.199890
0.995697 0.367065 0.194580
0.997162 0.367889 0.188843
0.995483 0.369202 0.180115
0.994049 0.369659 0.173096
0.995026 0.373383 0.177368
0.995789 0.371460 0.181488
0.997681 0.366974 0.191620
0.999573 0.361572 0.201538
1.000000 0.354828 0.209869
1.000000 0.350189 0.216309
1.000000 0.355560 0.220215
1.000000 0.361023 0.224182
1.000000 0.369476 0.227417
1.000000 0.375671 0.228790
1.000000 0.379852 0.228271
1.000000 0.380554 0.226715
0.126801 0.123322 0.097809
0.126434 0.123138 0.097900
0.126160 0.122894 0.098297
0.125885 0.122894 0.098206
0.129303 0.125275 0.095428
0.135132 0.128082 0.091553
0.142883 0.130859 0.086029
0.166870 0.133179 0.072510
0.191223 0.135742 0.053558
0.248383 0.136780 0.024994
0.335724 0.106537 0.029816
0.388306 0.084015 0.012634
0.431030 0.062225 0.017761
0.455109 0.083954 0.028717
0.472839 0.109070 0.031982
0.493256 0.125458 0.033966
0.516785 0.133453 0.034424
0.548676 0.124969 0.050903
0.580933 0.120148 0.065308
0.607086 0.129028 0.072174
0.624207 0.162079 0.073425
0.641235 0.188019 0.071411
0.663574 0.197601 0.070435
0.687866 0.199951 0.075653
0.710602 0.212219 0.086548
0.729462 0.217651 0.087402
0.744873 0.220093 0.084839
0.760437 0.220642 0.082733
0.775208 0.225647 0.083130
0.790222 0.238434 0.096588
0.805328 0.250092 0.108826
0.820465 0.261230 0.119507
0.834961 0.272369 0.124908
0.846985 0.287537 0.122223
0.859192 0.300140 0.124725
0.871704 0.310211 0.126465
0.885864 0.317383 0.133972
0.901703 0.317688 0.138550
0.917938 0.315918 0.144165
0.934723 0.311798 0.154114
0.950867 0.306580 0.163025
0.965057 0.302704 0.169769
0.971497 0.313202 0.178619
0.974731 0.329590 0.185547
0.978027 0.345520 0.192688
0.981873 0.358246 0.201324
0.986542 0.364685 0.201050
0.990814 0.368195 0.196075
0.994507 0.371155 0.189850
0.996185 0.372437 0.183350
0.994751 0.372559 0.176239
0.993805 0.374329 0.171783
0.994751 0.377289 0.175629
0.995422 0.374969 0.179169
0.997589 0.370331 0.190643
0.999390 0.364899 0.200409
1.000000 0.358398 0.208588
1.000000 0.355438 0.214722
1.000000 0.361115 0.218903
1.000000 0.366486 0.223145
1.000000 0.373627 0.226868
1.000000 0.379089 0.226929
1.000000 0.383057 0.226044
1.000000 0.383850 0.224396
0.166412 0.170898 0.000000
0.167877 0.172272 0.000000
0.169037 0.173492 0.000000
0.169830 0.174255 0.000000
0.170410 0.174896 0.000000
0.171814 0.175079 0.000000
0.183929 0.175598 0.000000
0.198456 0.176178 0.000000
0.216736 0.177704 0.000000
0.236725 0.179901 0.000000
0.274109 0.184509 0.000000
0.341125 0.172089 0.007690
0.388977 0.159393 0.023071
0.421173 0.159393 0.027283
0.450806 0.153900 0.029022
0.478668 0.152985 0.029114
0.506012 0.156738 0.029022
0.539337 0.153931 0.043091
0.572693 0.145691 0.053894
0.598328 0.158112 0.062317
0.617462 0.183533 0.063873
0.634583 0.206818 0.057037
0.657593 0.216370 0.063019
0.682190 0.215271 0.070251
0.706451 0.214783 0.079834
0.727112 0.217865 0.083557
0.744873 0.220428 0.082458
0.758179 0.227539 0.076630
0.771667 0.239807 0.081512
0.786835 0.251984 0.095581
0.802032 0.263550 0.108002
0.817291 0.274597 0.118744
0.830872 0.285889 0.118805
0.844788 0.294495 0.120697
0.857086 0.305878 0.121552
0.869171 0.316650 0.122223
0.884308 0.321991 0.129578
0.900299 0.322510 0.133636
0.916687 0.320709 0.140015
0.933411 0.316925 0.149811
0.949249 0.312195 0.158081
0.962952 0.308105 0.167877
0.969666 0.317871 0.177704
0.972473 0.336456 0.184601
0.975800 0.352020 0.192780
0.979828 0.364655 0.201477
0.984863 0.369232 0.197327
0.989532 0.372772 0.191193
0.993011 0.376282 0.183838
0.994995 0.378143 0.176392
0.993774 0.377655 0.171387
0.993591 0.379852 0.170135
0.994446 0.381348 0.173523
0.995270 0.378937 0.177429
0.997498 0.374512 0.189301
0.999268 0.369324 0.198883
1.000000 0.362671 0.207062
1.000000 0.362183 0.212860
1.000000 0.367950 0.217285
1.000000 0.373718 0.221710
1.000000 0.378540 0.225372
1.000000 0.384155 0.224487
1.000000 0.387604 0.223206
1.000000 0.388245 0.221436
0.180664 0.223450 0.000000
0.181427 0.223846 0.000000
0.182159 0.224091 0.000000
0.182281 0.223602 0.000000
0.183105 0.222809 0.000000
0.183838 0.221893 0.000000
0.185608 0.222015 0.000000
0.210083 0.222809 0.000000
0.236481 0.223206 0.000000
0.259857 0.222778 0.000000
0.276794 0.224335 0.000000
0.300598 0.225952 0.000000
0.346527 0.225372 0.008942
0.386993 0.218933 0.015381
0.425354 0.207520 0.023407
0.460175 0.199493 0.021912
0.491913 0.194244 0.024139
0.524292 0.193237 0.032928
0.553345 0.200592 0.044647
0.579803 0.210846 0.050781
0.603729 0.221863 0.050323
0.627838 0.230286 0.055115
0.649506 0.240173 0.060974
0.673126 0.241211 0.064972
0.695984 0.239166 0.066467
0.717468 0.237091 0.067017
0.737671 0.236725 0.068909
0.752197 0.242828 0.064911
0.767426 0.255096 0.079987
0.782837 0.266876 0.094635
0.798309 0.278168 0.107330
0.812958 0.289825 0.114502
0.826385 0.300781 0.115356
0.840057 0.309143 0.118042
0.853699 0.316040 0.118591
0.867188 0.324463 0.123993
0.882446 0.327789 0.123566
0.898682 0.328156 0.127319
0.915314 0.326477 0.134888
0.931885 0.323212 0.144135
0.947113 0.319031 0.151947
0.958649 0.319305 0.165161
0.964935 0.330780 0.175262
0.969086 0.346283 0.183746
0.973450 0.359589 0.193268
0.977814 0.370209 0.198425
0.982880 0.374847 0.192688
0.987030 0.379486 0.185120
0.990723 0.383148 0.176331
0.993805 0.385071 0.169952
0.992340 0.385162 0.163818
0.993317 0.386993 0.168396
0.994080 0.386017 0.171326
0.995331 0.383484 0.176453
0.997498 0.379333 0.187897
0.999176 0.374481 0.197266
1.000000 0.367706 0.205536
1.000000 0.372192 0.210175
1.000000 0.377808 0.215149
1.000000 0.383209 0.220093
1.000000 0.386688 0.221405
1.000000 0.390503 0.221771
1.000000 0.392944 0.219940
1.000000 0.393768 0.217865
0.202698 0.258301 0.000000
0.202271 0.258636 0.000000
0.203705 0.258881 0.000000
0.205444 0.259125 0.000000
0.208252 0.259338 0.000000
0.211792 0.259857 0.000000
0.216034 0.260406 0.000000
0.221039 0.261322 0.000000
0.244293 0.258972 0.000000
0.267883 0.255615 0.000000
0.289825 0.252350 0.000000
0.303589 0.252716 0.000000
0.319489 0.253235 0.000000
0.365295 0.255371 0.000000
0.408722 0.253418 0.004333
0.447113 0.247589 0.018738
0.478333 0.243439 0.023346
0.507385 0.242645 0.032745
0.536316 0.248230 0.044952
0.565033 0.255859 0.051788
0.591949 0.262299 0.055573
0.617279 0.266693 0.060944
0.639740 0.271362 0.064026
0.661255 0.272186 0.056641
0.683167 0.270782 0.048798
0.704559 0.268463 0.046417
0.722412 0.267151 0.043091
0.743042 0.267273 0.060303
0.762268 0.272491 0.078705
0.778595 0.283051 0.094116
0.794128 0.294281 0.106903
0.807312 0.306671 0.109039
0.820984 0.317352 0.112915
0.834747 0.325653 0.117065
0.849030 0.332336 0.122833
0.864349 0.334412 0.120361
0.880463 0.334473 0.115936
0.896759 0.335083 0.119354
0.913635 0.333435 0.128418
0.929749 0.330933 0.136688
0.943146 0.330017 0.148193
0.952240 0.336700 0.162018
0.958832 0.348328 0.173157
0.965332 0.357635 0.183960
0.970551 0.369354 0.194336
0.975586 0.376862 0.193787
0.980316 0.382172 0.186615
0.984131 0.387451 0.177673
0.987701 0.391785 0.169739
0.990997 0.394592 0.162415
0.990631 0.396362 0.160278
0.991882 0.396637 0.165405
0.993134 0.392151 0.169250
0.994934 0.389404 0.175873
0.997498 0.385223 0.186523
0.999207 0.380585 0.195282
1.000000 0.377808 0.202301
1.000000 0.383392 0.207703
1.000000 0.389130 0.213593
1.000000 0.393158 0.216095
1.000000 0.396057 0.217133
1.000000 0.398773 0.217560
1.000000 0.399078 0.216003
1.000000 0.400208 0.213684
0.235199 0.285797 0.000000
0.235138 0.285950 0.000000
0.235626 0.286102 0.000000
0.237579 0.286041 0.000000
0.239685 0.285919 0.000000
0.242279 0.285675 0.000000
0.245483 0.285339 0.000000
0.249725 0.285156 0.000000
0.254669 0.284973 0.000000
0.272064 0.282532 0.000000
0.292847 0.280121 0.000000
0.314606 0.276886 0.000000
0.331818 0.279175 0.000000
0.350067 0.282288 0.000000
0.394470 0.287201 0.000000
0.433807 0.286469 0.001740
0.468018 0.285004 0.019623
0.498108 0.286041 0.036194
0.527405 0.287994 0.044281
0.555664 0.292847 0.050781
0.583374 0.297058 0.062347
0.607941 0.301605 0.065552
0.630127 0.303436 0.060760
0.650909 0.304047 0.050995
0.670105 0.302368 0.036469
0.689575 0.300232 0.028503
0.712311 0.298248 0.049194
0.733307 0.298157 0.065094
0.753723 0.299347 0.080597
0.773041 0.302338 0.094360
0.787750 0.313263 0.101593
0.801331 0.325531 0.106995
0.815308 0.335480 0.115265
0.829559 0.343719 0.122406
0.844025 0.348175 0.121338
0.859772 0.348755 0.114899
0.876923 0.346283 0.109802
0.894714 0.343140 0.110504
0.911743 0.341858 0.120239
0.926544 0.340698 0.128540
0.937866 0.344513 0.146179
0.945831 0.355499 0.160461
0.953400 0.364868 0.173309
0.960571 0.373444 0.185150
0.967285 0.379883 0.193695
0.972931 0.385101 0.188171
0.977142 0.391693 0.179688
0.980835 0.397400 0.170349
0.984283 0.402161 0.162750
0.987000 0.406006 0.153046
0.989471 0.408691 0.158325
0.990540 0.406891 0.162384
0.991791 0.402588 0.166534
0.994415 0.396240 0.175568
0.996796 0.392609 0.185272
0.998810 0.388275 0.193512
1.000000 0.391052 0.199921
1.000000 0.396454 0.206390
1.000000 0.400787 0.210052
1.000000 0.404053 0.210907
1.000000 0.407074 0.211914
1.000000 0.408051 0.211823
1.000000 0.406891 0.211060
1.000000 0.407654 0.208618
0.252472 0.316254 0.000000
0.252502 0.316040 0.000000
0.253021 0.315826 0.000000
0.253326 0.315796 0.000000
0.255920 0.315796 0.000000
0.259186 0.315918 0.000000
0.263153 0.315948 0.000000
0.267334 0.316345 0.000000
0.272339 0.317047 0.000000
0.278534 0.317719 0.000000
0.296814 0.315063 0.000000
0.320374 0.311218 0.000000
0.344330 0.307220 0.000000
0.364014 0.308258 0.000000
0.382568 0.311157 0.000000
0.419098 0.315674 0.000000
0.456512 0.318634 0.001160
0.489655 0.321167 0.015961
0.518799 0.323151 0.030670
0.547882 0.325226 0.046112
0.574860 0.328522 0.048584
0.599121 0.332733 0.057037
0.621674 0.337433 0.065460
0.641663 0.335571 0.055511
0.661469 0.331177 0.047760
0.682159 0.327820 0.050842
0.703308 0.326721 0.060303
0.724365 0.327240 0.072968
0.745361 0.328796 0.088257
0.763153 0.333405 0.097321
0.779602 0.339630 0.105194
0.795044 0.347565 0.114166
0.809204 0.356354 0.122162
0.822815 0.362579 0.121094
0.837891 0.365326 0.116089
0.853973 0.365875 0.109711
0.870972 0.363739 0.103699
0.890442 0.357788 0.105713
0.908783 0.352051 0.108215
0.921753 0.354797 0.127655
0.931519 0.364166 0.145752
0.940338 0.373444 0.161499
0.948700 0.381409 0.175568
0.956238 0.389130 0.186981
0.963196 0.392914 0.184814
0.969360 0.396423 0.180206
0.973541 0.402893 0.171570
0.977386 0.409058 0.164185
0.980652 0.414490 0.155609
0.984985 0.418671 0.152863
0.988525 0.420715 0.156006
0.989441 0.418488 0.159485
0.990967 0.414368 0.165070
0.993713 0.407593 0.174744
0.996155 0.401398 0.184082
0.998077 0.398956 0.191956
0.999634 0.405334 0.198669
1.000000 0.409607 0.203217
1.000000 0.412842 0.204254
1.000000 0.415924 0.205261
1.000000 0.419067 0.206055
1.000000 0.419098 0.204956
1.000000 0.418182 0.203766
1.000000 0.416534 0.202698
0.284027 0.343628 0.000000
0.284424 0.343628 0.000000
0.284943 0.343750 0.000000
0.285767 0.343781 0.000000
0.286285 0.344055 0.000000
0.289001 0.344025 0.000000
0.292908 0.343994 0.000000
0.297699 0.344177 0.000000
0.302765 0.344421 0.000000
0.308411 0.344818 0.000000
0.314758 0.345673 0.000000
0.330353 0.344391 0.000000
0.352173 0.341736 0.000000
0.372833 0.339203 0.000000
0.392426 0.338226 0.000000
0.410461 0.340515 0.000000
0.441284 0.344513 0.000000
0.478210 0.347168 0.000000
0.512543 0.349426 0.000000
0.540161 0.350525 0.000336
0.566589 0.352814 0.010223
0.590759 0.356995 0.019409
0.612427 0.360260 0.042328
0.634277 0.361664 0.069733
0.655731 0.358307 0.074402
0.676941 0.354675 0.075714
0.697815 0.352631 0.080231
0.717834 0.353821 0.088318
0.736298 0.356964 0.097382
0.753845 0.361694 0.107056
0.770752 0.367554 0.115875
0.786774 0.373169 0.123199
0.800110 0.379700 0.121582
0.814941 0.383148 0.117249
0.830475 0.385376 0.111969
0.846252 0.386261 0.105682
0.863129 0.384796 0.099457
0.882507 0.380188 0.104828
0.900787 0.374176 0.117310
0.914948 0.375427 0.132690
0.925598 0.383667 0.150146
0.935547 0.390686 0.165588
0.944733 0.398041 0.179871
0.951813 0.404022 0.178040
0.958496 0.408447 0.173767
0.964050 0.413147 0.167938
0.969574 0.416870 0.163849
0.973724 0.422516 0.157013
