LUTs/Underwater HDR.cube
#Created by: Adobe Photoshop Export Color Lookup Plugin
#Copyright: (C) Copyright 2018 ©Sergey Zhmakin
TITLE "Underwater HDR"
#LUT size
LUT_3D_SIZE 64
#data domain
DOMAIN_MIN 0.0 0.0 0.0
DOMAIN_MAX 1.0 1.0 1.0
#LUT data points
0.016693 0.010254 0.010864
0.030884 0.010529 0.012115
0.045105 0.010803 0.013397
0.081726 0.014191 0.019135
0.119202 0.017700 0.025085
0.179901 0.009674 0.023468
0.242188 0.000854 0.021332
0.285797 0.000000 0.014923
0.327362 0.000000 0.008087
0.366333 0.000000 0.006744
0.404938 0.000000 0.006195
0.442627 0.000000 0.003601
0.480225 0.000000 0.000580
0.512939 0.000000 0.000000
0.544495 0.000000 0.000000
0.578430 0.000000 0.000000
0.613068 0.000000 0.000000
0.637573 0.000000 0.000000
0.658539 0.000000 0.000000
0.679962 0.000000 0.000000
0.701630 0.000000 0.000000
0.723267 0.000000 0.000000
0.744904 0.000000 0.000000
0.768616 0.000000 0.000000
0.793457 0.000000 0.000000
0.817841 0.000000 0.000000
0.841919 0.000000 0.000000
0.864258 0.000000 0.000000
0.885345 0.000000 0.000000
0.904541 0.000000 0.000000
0.922180 0.000000 0.000000
0.936401 0.000000 0.000000
0.947388 0.000000 0.000000
0.957458 0.000000 0.000000
0.966522 0.000000 0.000000
0.976654 0.000000 0.000000
0.988129 0.000000 0.000000
0.995850 0.000000 0.000000
0.998413 0.000000 0.000000
1.000000 0.000000 0.000000
1.000000 0.000000 0.000000
1.000000 0.000000 0.000000
1.000000 0.000000 0.000000
1.000000 0.000000 0.000000
1.000000 0.000000 0.000000
1.000000 0.000000 0.000000
1.000000 0.000000 0.000000
1.000000 0.000000 0.000000
1.000000 0.000000 0.000000
1.000000 0.000000 0.000000
1.000000 0.000000 0.000000
1.000000 0.000000 0.000000
1.000000 0.000000 0.000000
1.000000 0.000580 0.000000
1.000000 0.004242 0.000000
1.000000 0.008392 0.000000
1.000000 0.015991 0.000000
1.000000 0.023315 0.000000
1.000000 0.028442 0.000000
1.000000 0.033386 0.000000
1.000000 0.035675 0.000000
1.000000 0.037903 0.000000
1.000000 0.038269 0.000000
1.000000 0.038635 0.000000
0.019470 0.010834 0.011810
0.019775 0.010681 0.011658
0.033966 0.010956 0.012909
0.081573 0.014252 0.019165
0.119415 0.017761 0.025116
0.177887 0.009674 0.023987
0.240021 0.000854 0.021881
0.284149 0.000000 0.014618
0.325806 0.000000 0.007690
0.364410 0.000000 0.006531
0.402954 0.000000 0.006012
0.441711 0.000000 0.003571
0.479523 0.000000 0.000580
0.512726 0.000000 0.000000
0.544403 0.000000 0.000000
0.578278 0.000000 0.000000
0.612915 0.000000 0.000000
0.637451 0.000000 0.000000
0.658447 0.000000 0.000000
0.679810 0.000000 0.000000
0.701447 0.000000 0.000000
0.723175 0.000000 0.000000
0.744843 0.000000 0.000000
0.768616 0.000000 0.000000
0.793488 0.000000 0.000000
0.817780 0.000000 0.000000
0.841827 0.000000 0.000000
0.864014 0.000000 0.000000
0.885010 0.000000 0.000000
0.904144 0.000000 0.000000
0.921722 0.000000 0.000000
0.936127 0.000000 0.000000
0.947266 0.000000 0.000000
0.957367 0.000000 0.000000
0.966461 0.000000 0.000000
0.976624 0.000000 0.000000
0.988098 0.000000 0.000000
0.995850 0.000000 0.000000
0.998413 0.000000 0.000000
1.000000 0.000000 0.000000
1.000000 0.000000 0.000000
1.000000 0.000000 0.000000
1.000000 0.000000 0.000000
1.000000 0.000000 0.000000
1.000000 0.000000 0.000000
1.000000 0.000000 0.000000
1.000000 0.000000 0.000000
1.000000 0.000000 0.000000
1.000000 0.000000 0.000000
1.000000 0.000000 0.000000
1.000000 0.000000 0.000000
1.000000 0.000000 0.000000
1.000000 0.000000 0.000000
1.000000 0.000702 0.000000
1.000000 0.004883 0.000000
1.000000 0.009033 0.000000
1.000000 0.016602 0.000000
1.000000 0.023926 0.000000
1.000000 0.028809 0.000000
1.000000 0.033752 0.000000
1.000000 0.036072 0.000000
1.000000 0.038300 0.000000
1.000000 0.038544 0.000000
1.000000 0.038910 0.000000
0.022247 0.011414 0.012726
0.022552 0.011261 0.012573
0.022858 0.011139 0.012421
0.070465 0.014404 0.018707
0.119263 0.017822 0.025146
0.178070 0.009735 0.024048
0.237976 0.000854 0.022430
0.281982 0.000000 0.015198
0.324188 0.000000 0.007355
0.362854 0.000000 0.006134
0.401001 0.000000 0.005829
0.439728 0.000000 0.003387
0.478638 0.000000 0.000549
0.512054 0.000000 0.000000
0.544220 0.000000 0.000000
0.578217 0.000000 0.000000
0.612793 0.000000 0.000000
0.637299 0.000000 0.000000
0.658325 0.000000 0.000000
0.679718 0.000000 0.000000
0.701263 0.000000 0.000000
0.722961 0.000000 0.000000
0.744751 0.000000 0.000000
0.768555 0.000000 0.000000
0.793518 0.000000 0.000000
0.817841 0.000000 0.000000
0.841766 0.000000 0.000000
0.863922 0.000000 0.000000
0.884766 0.000000 0.000000
0.903809 0.000000 0.000000
0.921326 0.000000 0.000000
0.935669 0.000000 0.000000
0.946991 0.000000 0.000000
0.957245 0.000000 0.000000
0.966370 0.000000 0.000000
0.976563 0.000000 0.000000
0.988068 0.000000 0.000000
0.995819 0.000000 0.000000
0.998413 0.000000 0.000000
1.000000 0.000000 0.000000
1.000000 0.000000 0.000000
1.000000 0.000000 0.000000
1.000000 0.000000 0.000000
1.000000 0.000000 0.000000
1.000000 0.000000 0.000000
1.000000 0.000000 0.000000
1.000000 0.000000 0.000000
1.000000 0.000000 0.000000
1.000000 0.000000 0.000000
1.000000 0.000000 0.000000
1.000000 0.000000 0.000000
1.000000 0.000000 0.000000
1.000000 0.000000 0.000000
1.000000 0.000702 0.000000
1.000000 0.004974 0.000000
1.000000 0.009644 0.000000
1.000000 0.017242 0.000000
1.000000 0.024567 0.000000
1.000000 0.029419 0.000000
1.000000 0.034119 0.000000
1.000000 0.036438 0.000000
1.000000 0.038666 0.000000
1.000000 0.038910 0.000000
1.000000 0.039185 0.000000
0.044373 0.025970 0.020691
0.045410 0.026947 0.020844
0.045715 0.026794 0.020691
0.051636 0.027283 0.020538
0.100464 0.030701 0.027008
0.157898 0.023407 0.022308
0.217743 0.014557 0.020599
0.273285 0.000916 0.012634
0.316345 0.000000 0.004761
0.359100 0.000000 0.004913
0.397705 0.000000 0.004761
0.437469 0.000000 0.003235
0.476532 0.000000 0.000549
0.511780 0.000000 0.000000
0.544281 0.000000 0.000000
0.578125 0.000000 0.000000
0.612640 0.000000 0.000000
0.637177 0.000000 0.000000
0.658203 0.000000 0.000000
0.679382 0.000000 0.000000
0.700897 0.000000 0.000000
0.722595 0.000000 0.000000
0.744385 0.000000 0.000000
0.768524 0.000000 0.000000
0.793610 0.000000 0.000000
0.817810 0.000000 0.000000
0.841675 0.000000 0.000000
0.863556 0.000000 0.000000
0.884277 0.000000 0.000000
0.903229 0.000000 0.000000
0.920715 0.000000 0.000000
0.935272 0.000000 0.000000
0.946808 0.000000 0.000000
0.957123 0.000000 0.000000
0.966339 0.000000 0.000000
0.976501 0.000000 0.000000
0.988007 0.000000 0.000000
0.995789 0.000000 0.000000
0.998413 0.000000 0.000000
1.000000 0.000000 0.000000
1.000000 0.000000 0.000000
1.000000 0.000000 0.000000
1.000000 0.000000 0.000000
1.000000 0.000000 0.000000
1.000000 0.000000 0.000000
1.000000 0.000000 0.000000
1.000000 0.000000 0.000000
1.000000 0.000000 0.000000
1.000000 0.000000 0.000000
1.000000 0.000000 0.000000
1.000000 0.000000 0.000000
1.000000 0.000000 0.000000
1.000000 0.000000 0.000000
1.000000 0.000916 0.000000
1.000000 0.006348 0.000000
1.000000 0.011078 0.000000
1.000000 0.018768 0.000000
1.000000 0.026093 0.000000
1.000000 0.031067 0.000000
1.000000 0.035706 0.000000
1.000000 0.037140 0.000000
1.000000 0.039368 0.000000
1.000000 0.039703 0.000000
1.000000 0.039978 0.000000
0.067200 0.041016 0.028900
0.068268 0.042023 0.029083
0.069305 0.042969 0.029236
0.075226 0.043488 0.029083
0.081360 0.044006 0.028931
0.138794 0.036743 0.024231
0.196838 0.028748 0.018799
0.252319 0.015106 0.010712
0.307434 0.000916 0.002075
0.351044 0.000000 0.002167
0.393890 0.000000 0.003510
0.434113 0.000000 0.002136
0.474243 0.000000 0.000397
0.509644 0.000000 0.000000
0.544037 0.000000 0.000000
0.578217 0.000000 0.000000
0.612518 0.000000 0.000000
0.637024 0.000000 0.000000
0.658051 0.000000 0.000000
0.679260 0.000000 0.000000
0.700562 0.000000 0.000000
0.722198 0.000000 0.000000
0.743988 0.000000 0.000000
0.768158 0.000000 0.000000
0.793579 0.000000 0.000000
0.817932 0.000000 0.000000
0.841614 0.000000 0.000000
0.863434 0.000000 0.000000
0.883911 0.000000 0.000000
0.902710 0.000000 0.000000
0.920105 0.000000 0.000000
0.934631 0.000000 0.000000
0.946411 0.000000 0.000000
0.956940 0.000000 0.000000
0.966217 0.000000 0.000000
0.976501 0.000000 0.000000
0.987976 0.000000 0.000000
0.995728 0.000000 0.000000
0.998383 0.000000 0.000000
1.000000 0.000000 0.000000
1.000000 0.000000 0.000000
1.000000 0.000000 0.000000
1.000000 0.000000 0.000000
1.000000 0.000000 0.000000
1.000000 0.000000 0.000000
1.000000 0.000000 0.000000
1.000000 0.000000 0.000000
1.000000 0.000000 0.000000
1.000000 0.000000 0.000000
1.000000 0.000000 0.000000
1.000000 0.000000 0.000000
1.000000 0.000000 0.000000
1.000000 0.000000 0.000000
1.000000 0.000916 0.000000
1.000000 0.006622 0.000000
1.000000 0.012512 0.000000
1.000000 0.020203 0.000000
1.000000 0.027649 0.000000
1.000000 0.032623 0.000000
1.000000 0.037384 0.000000
1.000000 0.038727 0.000000
1.000000 0.040070 0.000000
1.000000 0.040436 0.000000
1.000000 0.040771 0.000000
0.106049 0.091583 0.015869
0.106628 0.091339 0.015869
0.107697 0.092346 0.016052
0.111115 0.092316 0.016052
0.117249 0.092834 0.015900
0.135773 0.091034 0.015869
0.193787 0.083038 0.010437
0.242737 0.063416 0.009918
0.297607 0.049011 0.001587
0.346008 0.016968 0.000458
0.389160 0.014709 0.001709
0.430817 0.001556 0.001923
0.471100 0.000000 0.000336
0.509064 0.000000 0.000000
0.543854 0.000000 0.000000
0.576294 0.000000 0.000000
0.610199 0.000000 0.000000
0.635742 0.000000 0.000000
0.657074 0.000000 0.000000
0.678436 0.000000 0.000000
0.699799 0.000000 0.000000
0.721558 0.000000 0.000000
0.743408 0.000000 0.000000
0.767944 0.000000 0.000000
0.793549 0.000000 0.000000
0.817749 0.000000 0.000000
0.841370 0.000000 0.000000
0.862793 0.000000 0.000000
0.883026 0.000000 0.000000
0.901733 0.000000 0.000000
0.919098 0.000000 0.000000
0.933899 0.000000 0.000000
0.945953 0.000000 0.000000
0.956726 0.000000 0.000000
0.966187 0.000000 0.000000
0.976440 0.000000 0.000000
0.987946 0.000000 0.000000
0.995728 0.000000 0.000000
0.998383 0.000000 0.000000
1.000000 0.000000 0.000000
1.000000 0.000000 0.000000
1.000000 0.000000 0.000000
1.000000 0.000000 0.000000
1.000000 0.000000 0.000000
1.000000 0.000000 0.000000
1.000000 0.000000 0.000000
1.000000 0.000000 0.000000
1.000000 0.000000 0.000000
1.000000 0.000000 0.000000
1.000000 0.000000 0.000000
1.000000 0.000000 0.000000
1.000000 0.000000 0.000000
1.000000 0.000000 0.000000
1.000000 0.001312 0.000000
1.000000 0.008942 0.000000
1.000000 0.014862 0.000000
1.000000 0.022400 0.000000
1.000000 0.029785 0.000000
1.000000 0.034363 0.000000
1.000000 0.039093 0.000000
1.000000 0.040131 0.000000
1.000000 0.041412 0.000000
1.000000 0.041656 0.000000
1.000000 0.042023 0.000000
0.145996 0.144592 0.001404
0.146545 0.144226 0.001404
0.147095 0.143982 0.001404
0.150452 0.143951 0.001404
0.153961 0.143890 0.001404
0.172485 0.142090 0.001404
0.191833 0.140106 0.001404
0.240784 0.120483 0.000885
0.288757 0.099609 0.000885
0.336945 0.067352 0.000031
0.384338 0.032684 0.000031
0.426331 0.017242 0.000153
0.467865 0.001526 0.000153
0.505951 0.000000 0.000000
0.543396 0.000000 0.000000
0.576233 0.000000 0.000000
0.608063 0.000000 0.000000
0.633240 0.000000 0.000000
0.655731 0.000000 0.000000
0.677399 0.000000 0.000000
0.698944 0.000000 0.000000
0.720764 0.000000 0.000000
0.742767 0.000000 0.000000
0.767334 0.000000 0.000000
0.793365 0.000000 0.000000
0.817749 0.000000 0.000000
0.841187 0.000000 0.000000
0.862518 0.000000 0.000000
0.882294 0.000000 0.000000
0.900757 0.000000 0.000000
0.918091 0.000000 0.000000
0.932861 0.000000 0.000000
0.945251 0.000000 0.000000
0.956268 0.000000 0.000000
0.965973 0.000000 0.000000
0.976410 0.000000 0.000000
0.987885 0.000000 0.000000
0.995667 0.000000 0.000000
0.998352 0.000000 0.000000
1.000000 0.000000 0.000000
1.000000 0.000000 0.000000
1.000000 0.000000 0.000000
1.000000 0.000000 0.000000
1.000000 0.000000 0.000000
1.000000 0.000000 0.000000
1.000000 0.000000 0.000000
1.000000 0.000000 0.000000
1.000000 0.000000 0.000000
1.000000 0.000000 0.000000
1.000000 0.000000 0.000000
1.000000 0.000000 0.000000
1.000000 0.000000 0.000000
1.000000 0.000000 0.000000
1.000000 0.001312 0.000000
1.000000 0.009491 0.000000
1.000000 0.017334 0.000000
1.000000 0.024811 0.000000
1.000000 0.032043 0.000000
1.000000 0.036530 0.000000
1.000000 0.040833 0.000000
1.000000 0.041809 0.000000
1.000000 0.042816 0.000000
1.000000 0.043060 0.000000
1.000000 0.043304 0.000000
0.183380 0.192902 0.000000
0.183136 0.192902 0.000000
0.183655 0.192535 0.000000
0.182953 0.193024 0.000000
0.186401 0.192932 0.000000
0.190979 0.192200 0.000000
0.210327 0.190216 0.000000
0.232361 0.182281 0.000000
0.280334 0.161407 0.000000
0.330322 0.138184 0.000000
0.377838 0.103851 0.000000
0.421997 0.072205 0.000000
0.463654 0.055481 0.000000
0.497589 0.023010 0.000000
0.534546 0.019501 0.000000
0.567566 0.002777 0.000000
0.599426 0.000000 0.000000
0.628143 0.000000 0.000000
0.651489 0.000000 0.000000
0.674561 0.000000 0.000000
0.696472 0.000000 0.000000
0.719543 0.000000 0.000000
0.741943 0.000000 0.000000
0.766479 0.000000 0.000000
0.792480 0.000000 0.000000
0.816864 0.000000 0.000000
0.840271 0.000000 0.000000
0.861176 0.000000 0.000000
0.880737 0.000000 0.000000
0.899109 0.000000 0.000000
0.916382 0.000000 0.000000
0.931335 0.000000 0.000000
0.943848 0.000000 0.000000
0.955536 0.000000 0.000000
0.965729 0.000000 0.000000
0.976288 0.000000 0.000000
0.987823 0.000000 0.000000
0.995636 0.000000 0.000000
0.998352 0.000000 0.000000
1.000000 0.000000 0.000000
1.000000 0.000000 0.000000
1.000000 0.000000 0.000000
1.000000 0.000000 0.000000
1.000000 0.000000 0.000000
1.000000 0.000000 0.000000
1.000000 0.000000 0.000000
1.000000 0.000000 0.000000
1.000000 0.000000 0.000000
1.000000 0.000000 0.000000
1.000000 0.000000 0.000000
1.000000 0.000000 0.000000
1.000000 0.000275 0.000000
1.000000 0.001251 0.000000
1.000000 0.002960 0.000000
1.000000 0.012909 0.000000
1.000000 0.021027 0.000000
1.000000 0.028595 0.000000
1.000000 0.035614 0.000000
1.000000 0.038574 0.000000
1.000000 0.042816 0.000000
1.000000 0.043671 0.000000
1.000000 0.044617 0.000000
1.000000 0.044922 0.000000
1.000000 0.045166 0.000000
0.220459 0.240692 0.000000
0.220123 0.240723 0.000000
0.219879 0.240753 0.000000
0.218903 0.241241 0.000000
0.218170 0.241760 0.000000
0.222260 0.241028 0.000000
0.226898 0.240234 0.000000
0.248901 0.232300 0.000000
0.271210 0.223724 0.000000
0.321198 0.200470 0.000000
0.371490 0.176910 0.000000
0.415741 0.145599 0.000000
0.459351 0.114502 0.000000
0.493408 0.081055 0.000000
0.525574 0.044617 0.000000
0.558105 0.024384 0.000000
0.589844 0.002777 0.000000
0.618591 0.000000 0.000000
0.646240 0.000000 0.000000
0.670135 0.000000 0.000000
0.693481 0.000000 0.000000
0.716888 0.000000 0.000000
0.740692 0.000000 0.000000
0.765656 0.000000 0.000000
0.791565 0.000000 0.000000
0.815948 0.000000 0.000000
0.839294 0.000000 0.000000
0.860199 0.000000 0.000000
0.879303 0.000000 0.000000
0.897430 0.000000 0.000000
0.914642 0.000000 0.000000
0.929565 0.000000 0.000000
0.942261 0.000000 0.000000
0.954071 0.000000 0.000000
0.964996 0.000000 0.000000
0.976074 0.000000 0.000000
0.987671 0.000000 0.000000
0.995544 0.000000 0.000000
0.998322 0.000000 0.000000
1.000000 0.000000 0.000000
1.000000 0.000000 0.000000
1.000000 0.000000 0.000000
1.000000 0.000000 0.000000
1.000000 0.000000 0.000000
1.000000 0.000000 0.000000
1.000000 0.000000 0.000000
1.000000 0.000000 0.000000
1.000000 0.000000 0.000000
1.000000 0.000000 0.000000
1.000000 0.000000 0.000000
1.000000 0.000000 0.000000
1.000000 0.000275 0.000000
1.000000 0.001648 0.000000
1.000000 0.004333 0.000000
1.000000 0.014923 0.000000
1.000000 0.024811 0.000000
1.000000 0.032410 0.000000
1.000000 0.039520 0.000000
1.000000 0.042114 0.000000
1.000000 0.044861 0.000000
1.000000 0.045685 0.000000
1.000000 0.046478 0.000000
1.000000 0.046814 0.000000
1.000000 0.047119 0.000000
0.261505 0.276703 0.000000
0.260925 0.276886 0.000000
0.260590 0.276947 0.000000
0.258972 0.276764 0.000000
0.257935 0.277283 0.000000
0.257050 0.277222 0.000000
0.261200 0.276459 0.000000
0.267090 0.274261 0.000000
0.289398 0.265686 0.000000
0.308502 0.257690 0.000000
0.358795 0.234100 0.000000
0.391418 0.211182 0.000000
0.434570 0.180328 0.000000
0.477966 0.152252 0.000000
0.510834 0.116364 0.000000
0.544800 0.088684 0.000000
0.576813 0.066772 0.000000
0.606903 0.046753 0.000000
0.634796 0.044220 0.000000
0.663330 0.031372 0.000000
0.687561 0.028442 0.000000
0.713593 0.006287 0.000000
0.738098 0.000000 0.000000
0.763245 0.000000 0.000000
0.789154 0.000000 0.000000
0.812866 0.000000 0.000000
0.835938 0.000000 0.000000
0.857239 0.000000 0.000000
0.876556 0.000000 0.000000
0.894775 0.000000 0.000000
0.912079 0.000000 0.000000
0.927216 0.000000 0.000000
0.940063 0.000000 0.000000
0.952484 0.002167 0.000000
0.963867 0.003906 0.000000
0.975800 0.001892 0.000000
0.988007 0.000000 0.000000
0.995728 0.000000 0.000000
0.998291 0.000000 0.000000
1.000000 0.000000 0.000000
1.000000 0.000000 0.000000
1.000000 0.000000 0.000000
1.000000 0.000000 0.000000
1.000000 0.000000 0.000000
1.000000 0.000000 0.000000
1.000000 0.000000 0.000000
1.000000 0.000000 0.000000
1.000000 0.000000 0.000000
1.000000 0.000000 0.000000
1.000000 0.000000 0.000000
1.000000 0.000000 0.000000
1.000000 0.001617 0.000000
1.000000 0.007690 0.000000
1.000000 0.010590 0.000000
1.000000 0.021240 0.000000
1.000000 0.031067 0.000000
1.000000 0.036499 0.000000
1.000000 0.043549 0.000000
1.000000 0.045532 0.000000
1.000000 0.048035 0.000000
1.000000 0.048767 0.000000
1.000000 0.049561 0.000000
1.000000 0.049805 0.000000
1.000000 0.050110 0.000000
0.303101 0.310944 0.000000
0.302521 0.311188 0.000000
0.301941 0.311371 0.000000
0.300232 0.311096 0.000000
0.298553 0.310913 0.000000
0.297302 0.310883 0.000000
0.296417 0.310760 0.000000
0.301788 0.308777 0.000000
0.307800 0.306488 0.000000
0.326904 0.298462 0.000000
0.345551 0.290527 0.000000
0.378174 0.267609 0.000000
0.407471 0.244781 0.000000
0.450439 0.216949 0.000000
0.493835 0.189575 0.000000
0.528503 0.162476 0.000000
0.562988 0.137360 0.000000
0.593353 0.117004 0.000000
0.622864 0.097534 0.000000
0.651642 0.082184 0.000000
0.680542 0.064026 0.000000
0.707489 0.038971 0.000000
0.734802 0.006287 0.000000
0.760620 0.000000 0.000000
0.786530 0.000000 0.000000
0.810211 0.000000 0.000000
0.832489 0.000000 0.000000
0.853516 0.000000 0.000000
0.873383 0.000000 0.000000
0.891815 0.000000 0.000000
0.909302 0.000000 0.000000
0.924500 0.000000 0.000000
0.937653 0.000000 0.000000
0.950226 0.002167 0.000000
0.962341 0.006653 0.000000
0.974701 0.006348 0.000000
0.987823 0.001862 0.000000
0.996155 0.000000 0.000000
0.998505 0.000000 0.000000
1.000000 0.000000 0.000000
1.000000 0.000000 0.000000
1.000000 0.000000 0.000000
1.000000 0.000000 0.000000
1.000000 0.000000 0.000000
1.000000 0.000000 0.000000
1.000000 0.000000 0.000000
1.000000 0.000000 0.000000
1.000000 0.000000 0.000000
1.000000 0.000000 0.000000
1.000000 0.000000 0.000000
1.000000 0.000000 0.000000
1.000000 0.001617 0.000000
1.000000 0.009949 0.000000
1.000000 0.017517 0.000000
1.000000 0.028198 0.000000
1.000000 0.038116 0.000000
1.000000 0.042816 0.000000
1.000000 0.047699 0.000000
1.000000 0.049500 0.000000
1.000000 0.051361 0.000000
1.000000 0.052094 0.000000
1.000000 0.052826 0.000000
1.000000 0.053040 0.000000
1.000000 0.053253 0.000000
0.329071 0.334534 0.000000
0.328766 0.334656 0.000000
0.328156 0.334869 0.000000
0.327545 0.335052 0.000000
0.325806 0.334747 0.000000
0.325531 0.334686 0.000000
0.324280 0.334625 0.000000
0.324554 0.334717 0.000000
0.330048 0.332642 0.000000
0.334747 0.331390 0.000000
0.353394 0.323456 0.000000
0.368561 0.318329 0.000000
0.397827 0.295502 0.000000
0.423798 0.274231 0.000000
0.466614 0.247070 0.000000
0.508270 0.221588 0.000000
0.543182 0.196472 0.000000
0.579590 0.178650 0.000000
0.609863 0.159576 0.000000
0.642853 0.145325 0.000000
0.672485 0.127930 0.000000
0.700867 0.106903 0.000000
0.728333 0.075897 0.000000
0.752960 0.043030 0.000000
0.778351 0.036682 0.000000
0.802979 0.011963 0.000000
0.825592 0.002869 0.000000
0.848389 0.000885 0.000000
0.869080 0.000000 0.000000
0.887970 0.000000 0.000000
0.905640 0.000000 0.000000
0.921143 0.014740 0.000000
0.934448 0.023926 0.000000
0.948029 0.022797 0.000000
0.960815 0.024872 0.000000
0.974213 0.015503 0.000000
0.988098 0.002594 0.000000
0.996429 0.000000 0.000000
0.998566 0.000000 0.000000
1.000000 0.000000 0.000000
1.000000 0.000000 0.000000
1.000000 0.000000 0.000000
1.000000 0.000000 0.000000
1.000000 0.000000 0.000000
1.000000 0.000000 0.000000
1.000000 0.000000 0.000000
1.000000 0.000000 0.000000
1.000000 0.000000 0.000000
1.000000 0.000000 0.000000
1.000000 0.002594 0.000000
1.000000 0.009644 0.000000
1.000000 0.011963 0.000000
1.000000 0.022736 0.000000
1.000000 0.030365 0.000000
1.000000 0.036621 0.000000
1.000000 0.046173 0.000000
1.000000 0.048859 0.000000
1.000000 0.053223 0.000000
1.000000 0.054657 0.000000
1.000000 0.056396 0.000000
1.000000 0.057037 0.000000
1.000000 0.057770 0.000000
1.000000 0.058014 0.000000
1.000000 0.058228 0.000000
0.352051 0.356079 0.000000
0.351776 0.356201 0.000000
0.351471 0.356323 0.000000
0.351044 0.356537 0.000000
0.350433 0.356689 0.000000
0.350281 0.356659 0.000000
0.350128 0.356598 0.000000
0.350067 0.356842 0.000000
0.350464 0.356995 0.000000
0.354706 0.355988 0.000000
0.359222 0.354919 0.000000
0.374359 0.349792 0.000000
0.388885 0.345215 0.000000
0.414856 0.323944 0.000000
0.440033 0.303040 0.000000
0.481079 0.277771 0.000000
0.522247 0.252869 0.000000
0.559082 0.235046 0.000000
0.596161 0.219727 0.000000
0.629913 0.205872 0.000000
0.664398 0.193756 0.000000
0.693512 0.173492 0.000000
0.721619 0.151093 0.000000
0.746399 0.119904 0.000000
0.769592 0.086945 0.000000
0.793671 0.055817 0.000000
0.817505 0.015503 0.000000
0.840637 0.004333 0.000000
0.863831 0.000885 0.000000
0.883545 0.000000 0.000000
0.901642 0.000000 0.000000
0.917328 0.014740 0.000000
0.931000 0.043304 0.000000
0.944733 0.051422 0.000000
0.958740 0.049103 0.000000
0.972839 0.037292 0.000000
0.987885 0.011017 0.000000
0.996979 0.000000 0.000000
0.998779 0.000000 0.000000
1.000000 0.000000 0.000000
1.000000 0.000000 0.000000
1.000000 0.000000 0.000000
1.000000 0.000000 0.000000
1.000000 0.000000 0.000000
1.000000 0.000000 0.000000
1.000000 0.000000 0.000000
1.000000 0.000000 0.000000
1.000000 0.000000 0.000000
1.000000 0.000000 0.000000
1.000000 0.002594 0.000000
1.000000 0.014099 0.000000
1.000000 0.023499 0.000000
1.000000 0.035583 0.000000
1.000000 0.045654 0.000000
1.000000 0.049774 0.000000
1.000000 0.054871 0.000000
1.000000 0.056763 0.000000
1.000000 0.059113 0.000000
1.000000 0.060394 0.000000
1.000000 0.061768 0.000000
1.000000 0.062408 0.000000
1.000000 0.063049 0.000000
1.000000 0.063293 0.000000
1.000000 0.063538 0.000000
0.381378 0.380951 0.000000
0.381165 0.380951 0.000000
0.380890 0.381073 0.000000
0.380524 0.381134 0.000000
0.380096 0.381348 0.000000
0.379272 0.381348 0.000000
0.379242 0.381287 0.000000
0.377563 0.381378 0.000000
0.377625 0.381683 0.000000
0.376099 0.381836 0.000000
0.380157 0.380981 0.000000
0.384979 0.379395 0.000000
0.399475 0.374817 0.000000
0.414795 0.369598 0.000000
0.439972 0.348694 0.000000
0.460876 0.327484 0.000000
0.501312 0.302673 0.000000
0.538757 0.277466 0.000000
0.575775 0.261505 0.000000
0.612579 0.248901 0.000000
0.647278 0.236847 0.000000
0.679993 0.226288 0.000000
0.708618 0.205505 0.000000
0.736755 0.185730 0.000000
0.760742 0.155151 0.000000
0.785034 0.127472 0.000000
0.809052 0.090240 0.000000
0.832733 0.064240 0.000000
0.856018 0.058014 0.000000
0.877380 0.051666 0.000000
0.895935 0.049408 0.000000
0.913116 0.047302 0.000000
0.927551 0.066345 0.000000
0.942291 0.075653 0.000000
0.956909 0.070435 0.000000
0.971954 0.057587 0.000000
0.987457 0.031525 0.000000
0.997009 0.007813 0.000000
0.998901 0.000000 0.000000
1.000000 0.000000 0.000000
1.000000 0.000000 0.000000
1.000000 0.000000 0.000000
1.000000 0.000000 0.000000
1.000000 0.000854 0.000000
1.000000 0.002136 0.000000
1.000000 0.006836 0.000000
1.000000 0.015167 0.000000
1.000000 0.018127 0.000000
