LUTs/Underwater HDR.cube
#Created by: Adobe Photoshop Export Color Lookup Plugin
#Copyright: (C) Copyright 2018 ©Sergey Zhmakin
TITLE "Underwater HDR"
#LUT size
LUT_3D_SIZE 4
#data domain
DOMAIN_MIN 0.0 0.0 0.0
DOMAIN_MAX 1.0 1.0 1.0
#LUT data points
0.016693 0.010254 0.010864
0.723267 0.000000 0.000000
1.000000 0.000000 0.000000
1.000000 0.038635 0.000000
0.574432 0.578705 0.000000
0.605682 0.574493 0.000000
1.000000 0.315765 0.000000
1.000000 0.237915 0.000000
0.905853 0.876495 0.000000
0.904205 0.877350 0.000000
0.912598 0.871216 0.000000
0.965668 0.851257 0.003906
0.951935 0.944366 0.180786
0.947937 0.940308 0.177856
0.937653 0.929321 0.174683
0.946686 0.934631 0.179901
0.144104 0.000000 0.743073
0.684509 0.000000 0.683960
1.000000 0.000000 0.390961
1.000000 0.022461 0.295074
0.482361 0.577789 0.570862
0.271851 0.229492 0.223633
0.949921 0.034668 0.005737
1.000000 0.062683 0.000000
0.854736 0.894165 0.196381
0.788208 0.786285 0.000000
0.814423 0.781525 0.000000
0.965942 0.713745 0.000000
0.941681 0.945465 0.257050
0.952240 0.944366 0.184998
0.934601 0.930054 0.173737
0.946930 0.934906 0.186188
0.294525 0.128967 1.000000
0.468018 0.167450 1.000000
1.000000 0.000000 0.975983
1.000000 0.000000 0.983917
0.343903 0.436340 0.992432
0.255096 0.137817 0.943634
0.932007 0.000000 0.929016
1.000000 0.000000 0.842499
0.800293 0.935638 0.935547
0.717804 0.850555 0.837067
0.728851 0.706482 0.703522
1.000000 0.489807 0.480774
0.901245 0.980438 0.854156
0.912445 0.977234 0.622253
0.915466 0.956543 0.404724
0.959595 0.956268 0.418579
0.345856 0.175690 1.000000
0.427460 0.190704 1.000000
0.992523 0.005981 1.000000
1.000000 0.000000 1.000000
0.346130 0.372986 1.000000
0.350525 0.187988 1.000000
0.819641 0.115295 1.000000
1.000000 0.000000 1.000000
0.738434 0.913086 0.998840
0.582489 0.783478 1.000000
0.568573 0.616913 1.000000
1.000000 0.436035 1.000000
0.896759 0.985229 0.976074
0.895966 0.985077 0.975922
0.877747 0.982391 0.973419
0.966980 0.968689 0.972260
