LUTs/Underwater Flash.cube
#Created by: Adobe Photoshop Export Color Lookup Plugin
#Copyright: (C) Copyright 2018 ©Sergey Zhmakin
TITLE "Underwater Flash"
#LUT size
LUT_3D_SIZE 8
#data domain
DOMAIN_MIN 0.0 0.0 0.0
DOMAIN_MAX 1.0 1.0 1.0
#LUT data points
0.000000 0.000000 0.000000
0.340118 0.043030 0.081635
0.593689 0.117462 0.068573
0.761414 0.219788 0.088379
0.891754 0.305115 0.143250
0.987305 0.339569 0.201080
0.998474 0.356354 0.195190
1.000000 0.370697 0.234802
0.180664 0.223450 0.000000
0.259857 0.222778 0.000000
0.553345 0.200592 0.044647
0.752197 0.242828 0.064911
0.882446 0.327789 0.123566
0.977814 0.370209 0.198425
0.997498 0.379333 0.187897
1.000000 0.393768 0.217865
0.415192 0.473938 0.000000
0.401733 0.468048 0.000000
0.472534 0.459045 0.000000
0.676056 0.469940 0.061371
0.836334 0.485718 0.147003
0.934906 0.507172 0.156525
0.975586 0.511597 0.162231
0.971222 0.519135 0.155273
0.556946 0.638702 0.000000
0.548370 0.636444 0.004761
0.539612 0.632843 0.013550
0.595184 0.628296 0.000000
0.776428 0.627380 0.000000
0.897125 0.639587 0.130493
0.959351 0.661377 0.136658
0.958954 0.658417 0.140076
0.680939 0.760101 0.100006
0.676819 0.757751 0.103271
0.669952 0.753235 0.107697
0.677490 0.754364 0.101929
0.713531 0.758453 0.062836
0.866638 0.756195 0.125336
0.937347 0.748749 0.114349
0.943146 0.754211 0.121460
0.811340 0.858612 0.189423
0.810028 0.858124 0.190002
0.807526 0.856873 0.190826
0.805298 0.855225 0.191284
0.805634 0.855652 0.191437
0.830261 0.858002 0.175995
0.936096 0.840393 0.155487
0.952820 0.834808 0.168335
0.891754 0.916107 0.242767
0.891418 0.916321 0.243225
0.891022 0.916748 0.244019
0.890717 0.915985 0.242828
0.889069 0.915527 0.242615
0.888824 0.915527 0.242706
0.898956 0.914978 0.238922
0.941162 0.915710 0.231873
0.945465 0.943939 0.257843
0.945374 0.943939 0.258026
0.944763 0.943756 0.258575
0.940277 0.942627 0.261414
0.936157 0.941498 0.264740
0.931732 0.940369 0.270203
0.931000 0.940002 0.272430
0.940002 0.941742 0.264130
0.175903 0.087067 0.344727
0.366333 0.088165 0.343842
0.624176 0.101563 0.188690
0.792816 0.200012 0.219269
0.899994 0.296631 0.203094
0.995514 0.326630 0.245209
1.000000 0.339478 0.255646
1.000000 0.355865 0.277679
0.143250 0.162903 0.195099
0.161407 0.160645 0.168213
0.561432 0.109863 0.108795
0.757416 0.212402 0.143524
0.879974 0.302673 0.160065
0.985016 0.341980 0.224701
1.000000 0.349060 0.235199
1.000000 0.370422 0.264496
0.358398 0.437622 0.000000
0.364960 0.438477 0.000000
0.450623 0.432037 0.000000
0.672302 0.439392 0.098663
0.832947 0.452545 0.155334
0.943970 0.474152 0.165314
0.992706 0.480072 0.196106
0.990173 0.480438 0.189606
0.504272 0.621613 0.041077
0.498077 0.619995 0.044830
0.497345 0.616730 0.045380
0.572571 0.611023 0.000000
0.767609 0.603973 0.000000
0.894043 0.625519 0.141479
0.956116 0.644318 0.154816
0.956024 0.643433 0.155701
0.659668 0.747925 0.113586
0.656525 0.746490 0.115051
0.650177 0.743591 0.118073
0.657013 0.744812 0.114197
0.695435 0.746796 0.083893
0.857880 0.739227 0.094208
0.939819 0.740723 0.110901
0.945831 0.743073 0.116333
0.793152 0.850403 0.195831
0.792358 0.850189 0.196136
0.790619 0.849396 0.196594
0.790314 0.848907 0.196625
0.791901 0.849976 0.196228
0.813782 0.850647 0.183502
0.935150 0.830536 0.158539
0.951141 0.829224 0.162079
0.885712 0.914703 0.242188
0.885590 0.914856 0.242584
0.885284 0.914948 0.242737
0.885010 0.914246 0.241699
0.883972 0.914185 0.241882
0.884308 0.914520 0.242371
0.894348 0.913147 0.237183
0.941345 0.912262 0.227936
0.945557 0.944122 0.260742
0.945557 0.944153 0.260956
0.943817 0.943939 0.262756
0.938934 0.942780 0.266296
0.934540 0.941620 0.270050
0.930298 0.940460 0.274170
0.929840 0.940125 0.276062
0.939789 0.941956 0.268311
0.313019 0.170990 0.580017
0.375854 0.183167 0.582367
0.576416 0.197998 0.578522
0.797241 0.192902 0.538513
0.950500 0.236298 0.499481
1.000000 0.295837 0.509216
1.000000 0.298828 0.499329
1.000000 0.312469 0.479309
0.251831 0.183075 0.561310
0.280365 0.169342 0.553772
0.549805 0.177460 0.550964
0.780365 0.164551 0.496368
0.936462 0.249542 0.456146
1.000000 0.302948 0.447144
1.000000 0.302002 0.482971
1.000000 0.325897 0.456909
0.248138 0.392548 0.386963
0.276520 0.386475 0.386169
0.377838 0.365692 0.372925
0.712311 0.336151 0.330872
0.879303 0.348511 0.350769
0.988861 0.381134 0.353241
1.000000 0.383545 0.375916
1.000000 0.387482 0.383179
0.459808 0.569153 0.131805
0.462585 0.569611 0.130890
0.475250 0.572449 0.134338
0.570831 0.567963 0.134247
0.768677 0.570038 0.170013
0.910553 0.585785 0.267578
0.969910 0.593231 0.270111
0.970184 0.590454 0.268341
0.597809 0.723785 0.140869
0.597656 0.723602 0.141113
0.597412 0.722687 0.140747
0.601379 0.723816 0.141022
0.657684 0.724426 0.124512
0.852417 0.709625 0.072388
0.949921 0.720642 0.135712
0.953064 0.719513 0.136688
0.752686 0.836548 0.205933
0.752747 0.836609 0.206329
0.752625 0.836273 0.206848
0.752686 0.836090 0.207306
0.752350 0.836273 0.208130
0.776398 0.836823 0.197723
0.930176 0.816101 0.182343
0.947083 0.817841 0.172913
0.868011 0.912292 0.247498
0.867950 0.912292 0.247589
0.868805 0.912140 0.247070
0.869965 0.911926 0.246460
0.868988 0.912170 0.247955
0.869507 0.912506 0.248779
0.879761 0.910248 0.239685
0.942963 0.904541 0.225128
0.940887 0.944946 0.279846
0.940765 0.944946 0.279968
0.938751 0.944794 0.281464
0.934265 0.943604 0.284149
0.929932 0.942139 0.286102
0.925781 0.940948 0.289429
0.926331 0.940857 0.293640
0.940338 0.942932 0.281555
0.391541 0.222076 0.698090
0.419891 0.228546 0.707123
0.549835 0.265747 0.755157
0.754364 0.285736 0.748108
0.882751 0.254791 0.721985
0.978149 0.306549 0.725769
0.979126 0.304962 0.719025
0.980957 0.300079 0.699188
0.350952 0.217621 0.704742
0.378571 0.222260 0.705383
0.525574 0.253723 0.734039
0.736481 0.273163 0.727844
0.876526 0.258087 0.706207
0.977295 0.298340 0.694366
0.980438 0.301483 0.704956
0.982391 0.296051 0.683228
0.363861 0.368774 0.684937
0.369720 0.365967 0.684662
0.474731 0.348053 0.677521
0.690063 0.340149 0.675873
0.871948 0.279053 0.646667
0.985291 0.317017 0.625183
1.000000 0.322205 0.631104
1.000000 0.323486 0.636353
0.414856 0.554382 0.555603
0.414368 0.553802 0.553040
0.432281 0.550262 0.545166
0.536682 0.531250 0.537292
0.838318 0.485504 0.507141
0.993317 0.498474 0.498383
1.000000 0.494476 0.519623
1.000000 0.497314 0.529907
0.577759 0.694977 0.320038
0.577576 0.694916 0.318726
0.578918 0.695435 0.317749
0.589905 0.696106 0.315216
0.678772 0.692993 0.305695
0.880646 0.692230 0.347778
0.993103 0.702667 0.404358
0.998749 0.700500 0.418335
0.702881 0.821777 0.300598
0.702972 0.821594 0.300323
0.703674 0.821320 0.299866
0.704865 0.821655 0.300018
0.706268 0.822327 0.300934
0.757446 0.824951 0.291107
0.934631 0.806946 0.286865
0.960602 0.806580 0.279022
0.833710 0.910339 0.320557
0.834259 0.910339 0.319794
0.835846 0.910339 0.317688
0.836945 0.910400 0.317200
0.836334 0.910736 0.320496
0.838593 0.911163 0.322113
0.853638 0.909332 0.310089
0.952087 0.899811 0.301819
0.931519 0.947479 0.330414
0.930664 0.947510 0.331421
0.928253 0.947296 0.334015
0.924042 0.946198 0.337341
0.919647 0.944794 0.339508
0.915802 0.943390 0.342377
0.920135 0.943146 0.340485
0.944763 0.946136 0.320831
0.411133 0.265411 0.817169
0.458191 0.274933 0.824188
0.576324 0.301270 0.849487
0.715912 0.329987 0.871552
0.879547 0.336853 0.865479
0.967133 0.352844 0.855469
0.985870 0.349792 0.860199
0.984924 0.347900 0.855408
0.399506 0.263794 0.817566
0.422729 0.267944 0.819489
0.553833 0.292389 0.832703
0.697449 0.326569 0.857361
0.871246 0.334869 0.855103
0.962952 0.348755 0.844879
0.983826 0.345612 0.849792
0.983276 0.344452 0.846588
0.415253 0.376160 0.824982
0.420288 0.372437 0.822205
0.480896 0.359497 0.818115
0.664734 0.375977 0.830109
0.846252 0.373566 0.831573
0.968658 0.367676 0.825134
0.987610 0.362671 0.817871
0.985931 0.355408 0.823517
0.461426 0.528534 0.819702
0.460388 0.529205 0.819916
0.473633 0.526306 0.814026
0.603455 0.513245 0.797546
0.815857 0.502380 0.797791
0.977814 0.464447 0.770660
1.000000 0.447876 0.765259
1.000000 0.445068 0.764648
0.533813 0.686157 0.681061
0.535675 0.685913 0.680756
0.540405 0.685425 0.679718
0.554382 0.684387 0.683411
0.669708 0.668488 0.670105
0.953888 0.628021 0.649017
1.000000 0.628540 0.646637
1.000000 0.623169 0.654633
0.676636 0.809235 0.479156
0.676086 0.809265 0.479248
0.675842 0.809723 0.480225
0.679016 0.811218 0.481537
0.694366 0.812653 0.480988
0.791168 0.811859 0.463989
0.966644 0.798187 0.489960
0.988647 0.794983 0.506897
0.812012 0.910706 0.443787
0.812469 0.910706 0.443756
0.813782 0.910889 0.443573
0.815002 0.911194 0.443451
0.815430 0.911530 0.443634
0.817261 0.911591 0.442871
0.852509 0.911407 0.427521
0.967163 0.900208 0.423462
0.919373 0.953247 0.423492
0.918243 0.953003 0.424377
0.915863 0.952301 0.426025
0.911102 0.951324 0.430695
0.907349 0.950409 0.434845
0.903931 0.948975 0.438293
0.913208 0.948700 0.431366
0.943726 0.951599 0.403442
0.443726 0.283844 0.857056
0.475983 0.291565 0.863434
0.557739 0.315582 0.895050
0.681427 0.355896 0.939789
0.830078 0.364044 0.951874
0.942963 0.383362 0.931091
1.000000 0.393555 0.948425
1.000000 0.392365 0.946228
0.408691 0.278900 0.862640
0.429657 0.283203 0.863434
0.545990 0.316620 0.901428
0.675629 0.353790 0.931702
0.817230 0.362183 0.949188
0.939758 0.384247 0.928436
1.000000 0.399750 0.943756
1.000000 0.394592 0.942932
0.435669 0.384064 0.916565
0.440430 0.382660 0.919220
0.494293 0.376709 0.919403
0.686829 0.383728 0.911285
0.808716 0.410065 0.936310
0.952393 0.426453 0.940735
1.000000 0.432831 0.940063
1.000000 0.418243 0.936157
0.503265 0.528564 0.933411
0.502655 0.529327 0.933380
0.529266 0.522308 0.930603
0.608978 0.513184 0.928680
0.810669 0.520386 0.937866
0.956055 0.524292 0.935638
1.000000 0.505554 0.923370
1.000000 0.494934 0.921387
0.595123 0.660645 0.933411
0.595245 0.661072 0.932983
0.596954 0.661774 0.931091
0.603302 0.662720 0.927063
0.722687 0.658752 0.915497
0.931732 0.644806 0.916687
1.000000 0.606873 0.886627
1.000000 0.594879 0.875305
0.645294 0.816925 0.806244
0.646210 0.816681 0.806366
0.647034 0.816895 0.805176
0.643768 0.817535 0.801331
0.651062 0.817322 0.796448
0.794037 0.794403 0.793396
1.000000 0.763824 0.777435
1.000000 0.760925 0.782806
0.798584 0.918762 0.625671
0.799133 0.918579 0.625671
0.800842 0.918396 0.625610
0.803284 0.918182 0.626129
0.806946 0.918610 0.627869
0.819000 0.918976 0.623383
0.902008 0.909973 0.591675
0.983307 0.898621 0.597046
0.905029 0.963165 0.568329
0.904144 0.962891 0.569031
0.901184 0.962158 0.572449
0.897919 0.961243 0.576202
0.894348 0.960297 0.580658
0.892548 0.959259 0.581726
0.905121 0.960114 0.575134
0.939331 0.964813 0.550995
0.440735 0.278229 0.842316
0.458496 0.286224 0.857056
0.554962 0.325623 0.923798
0.668610 0.364807 0.968384
0.795349 0.387970 0.988800
0.914215 0.400452 0.963623
0.997986 0.411743 0.973450
0.997925 0.406830 0.972504
0.447205 0.292633 0.881989
0.470642 0.302612 0.896301
0.546112 0.329559 0.935730
0.663666 0.363068 0.967346
0.783966 0.389038 0.990356
0.911377 0.404633 0.964935
1.000000 0.422424 0.976044
1.000000 0.412903 0.973877
0.453888 0.383514 0.950470
0.455261 0.383667 0.950684
0.509308 0.374146 0.958099
0.662933 0.391785 0.955383
0.785919 0.431213 0.981903
0.917816 0.445862 0.979248
1.000000 0.461639 0.980347
1.000000 0.449615 0.980194
0.509583 0.523224 0.982269
0.507874 0.522491 0.982605
0.533508 0.514984 0.982605
0.605530 0.505890 0.984375
0.797760 0.525238 0.996490
0.922150 0.542694 0.996826
1.000000 0.539398 0.980743
1.000000 0.530182 0.979614
0.612122 0.654510 0.988922
0.611694 0.654999 0.989166
0.606842 0.656006 0.990234
0.634308 0.651855 0.984406
0.744049 0.644592 1.000000
0.923187 0.650665 1.000000
1.000000 0.647186 0.999664
1.000000 0.634979 0.998352
0.705017 0.787415 1.000000
0.705536 0.787262 1.000000
0.706635 0.787018 1.000000
0.707947 0.786499 1.000000
0.714752 0.786713 1.000000
0.823456 0.776794 1.000000
1.000000 0.768005 0.994537
1.000000 0.756531 0.992249
0.749512 0.925537 0.927399
0.750031 0.925537 0.928528
0.752319 0.924683 0.933411
0.755920 0.923431 0.942596
0.757355 0.923004 0.941711
0.772400 0.922516 0.931305
0.909241 0.909302 0.905334
1.000000 0.886749 0.896027
0.891296 0.976166 0.782898
0.890076 0.975861 0.783264
0.887268 0.975128 0.784210
0.882843 0.974213 0.788086
0.876740 0.972778 0.794434
0.880188 0.972260 0.794769
0.901703 0.973969 0.782501
0.948975 0.984497 0.746460
0.483002 0.303162 0.890533
0.502502 0.311401 0.902893
0.566315 0.329620 0.931702
0.668427 0.359222 0.953735
0.774475 0.390778 0.993958
0.893311 0.407104 0.965485
0.990112 0.422150 0.974792
0.997803 0.406311 0.972382
0.465027 0.307190 0.901306
0.482910 0.314545 0.912750
0.537170 0.329926 0.935883
0.661011 0.362061 0.960754
0.769073 0.395233 0.994812
0.891235 0.409729 0.966156
0.995361 0.428680 0.976501
1.000000 0.412842 0.973938
0.420868 0.369324 0.943817
0.429352 0.355499 0.945129
0.495392 0.370941 0.979889
0.648804 0.402710 0.976776
0.776642 0.429871 0.989319
0.908905 0.453613 0.981110
1.000000 0.464417 0.981720
1.000000 0.454132 0.980225
0.482239 0.516724 0.986389
0.482971 0.516785 0.986298
0.515991 0.511841 0.984497
0.637268 0.506989 0.991547
0.790344 0.525177 1.000000
0.910645 0.544159 0.998749
0.993073 0.548950 0.982452
1.000000 0.537415 0.980499
0.577850 0.658020 0.995850
0.576355 0.657990 0.996094
0.572052 0.655060 0.996124
0.579773 0.649139 0.993195
0.742096 0.639648 1.000000
0.922913 0.648285 1.000000
1.000000 0.651245 0.999725
1.000000 0.646057 0.999603
0.702057 0.781860 1.000000
0.703247 0.781555 1.000000
0.706146 0.780975 1.000000
0.706818 0.780762 1.000000
0.717773 0.780670 1.000000
0.873260 0.768890 1.000000
1.000000 0.770416 1.000000
1.000000 0.762909 1.000000
0.790985 0.909576 1.000000
0.791626 0.909393 1.000000
0.792542 0.908936 1.000000
0.792755 0.907776 1.000000
0.794037 0.906555 1.000000
0.800446 0.906036 1.000000
0.926758 0.894623 1.000000
1.000000 0.883423 1.000000
0.867920 0.985748 0.990875
0.867035 0.985504 0.990540
0.864746 0.984924 0.990021
0.859467 0.983521 0.988495
0.853729 0.981812 0.986603
0.862366 0.981812 0.985291
0.888397 0.985352 0.990509
1.000000 0.999908 0.995941
