LUTs/Underwater HDR.cube
#Created by: Adobe Photoshop Export Color Lookup Plugin
#Copyright: (C) Copyright 2018 ©Sergey Zhmakin
TITLE "Underwater HDR"
#LUT size
LUT_3D_SIZE 8
#data domain
DOMAIN_MIN 0.0 0.0 0.0
DOMAIN_MAX 1.0 1.0 1.0
#LUT data points
0.016693 0.010254 0.010864
0.366333 0.000000 0.006744
0.658539 0.000000 0.000000
0.864258 0.000000 0.000000
0.988129 0.000000 0.000000
1.000000 0.000000 0.000000
1.000000 0.004242 0.000000
1.000000 0.038635 0.000000
0.261505 0.276703 0.000000
0.308502 0.257690 0.000000
0.634796 0.044220 0.000000
0.857239 0.000000 0.000000
0.988007 0.000000 0.000000
1.000000 0.000000 0.000000
1.000000 0.021240 0.000000
1.000000 0.050110 0.000000
0.487427 0.491364 0.000000
0.488678 0.491547 0.000000
0.526855 0.488434 0.000000
0.790314 0.321503 0.000000
0.976929 0.201477 0.000000
1.000000 0.152100 0.000000
1.000000 0.138458 0.000000
1.000000 0.128754 0.000000
0.701752 0.700897 0.000000
0.700500 0.700562 0.000000
0.702332 0.699432 0.000000
0.726074 0.692688 0.000000
0.893280 0.609619 0.000000
0.996124 0.567078 0.000000
1.000000 0.538849 0.000000
1.000000 0.529114 0.000000
0.834534 0.814270 0.000000
0.834625 0.814911 0.000000
0.836792 0.814148 0.000000
0.834930 0.816589 0.000000
0.858917 0.811798 0.000000
0.937256 0.776794 0.000000
0.951721 0.769958 0.000000
0.955536 0.767212 0.000000
0.921021 0.897217 0.064850
0.920898 0.897308 0.065216
0.920074 0.897552 0.065796
0.918182 0.894409 0.044373
0.915375 0.892548 0.028564
0.928284 0.891571 0.056702
0.947754 0.887115 0.073853
0.956665 0.885498 0.082581
0.944305 0.934326 0.171265
0.944519 0.934448 0.171417
0.944550 0.934631 0.170105
0.934906 0.925903 0.150665
0.931366 0.922119 0.149628
0.936249 0.922394 0.157166
0.944763 0.925354 0.169342
0.947021 0.926483 0.172394
0.951935 0.944366 0.180786
0.951904 0.944244 0.180847
0.951752 0.943573 0.180908
0.939362 0.934143 0.172974
0.935089 0.928925 0.170349
0.939941 0.930359 0.178284
0.944580 0.933258 0.180573
0.946686 0.934631 0.179901
0.093658 0.000000 0.392029
0.328033 0.000000 0.346771
0.637390 0.000000 0.086182
0.858856 0.000000 0.000000
0.987244 0.000000 0.000000
1.000000 0.000000 0.000000
1.000000 0.005737 0.000000
1.000000 0.039948 0.000000
0.145233 0.180634 0.177063
0.090546 0.045349 0.047913
0.534149 0.000000 0.002197
0.761414 0.000000 0.000000
0.943970 0.000000 0.000000
1.000000 0.000000 0.000000
1.000000 0.000000 0.000000
1.000000 0.042053 0.000000
0.469635 0.494049 0.000000
0.380432 0.397919 0.000000
0.430054 0.383759 0.000000
0.719574 0.227570 0.000000
0.922028 0.095886 0.000000
1.000000 0.000000 0.000000
1.000000 0.057953 0.000000
1.000000 0.076202 0.000000
0.692566 0.702911 0.000000
0.612976 0.627228 0.000000
0.613434 0.627655 0.000000
0.635864 0.618866 0.000000
0.857727 0.505127 0.000000
0.997772 0.414185 0.000000
1.000000 0.354370 0.000000
1.000000 0.327911 0.000000
0.829407 0.815033 0.000000
0.778503 0.763031 0.000000
0.778107 0.762665 0.000000
0.778015 0.763763 0.000000
0.798126 0.756500 0.000000
0.899902 0.704712 0.000000
0.954865 0.689728 0.000000
0.978668 0.682037 0.000000
0.918762 0.897827 0.071472
0.895294 0.868011 0.000000
0.895142 0.868805 0.000000
0.893738 0.868744 0.000000
0.892334 0.868652 0.000000
0.902466 0.863159 0.000000
0.950836 0.843018 0.000000
0.967529 0.837189 0.000000
0.943909 0.934479 0.173218
0.935730 0.923035 0.149414
0.936066 0.923248 0.149719
0.932861 0.920380 0.136292
0.928436 0.914368 0.120087
0.929047 0.913361 0.126312
0.940918 0.915070 0.142090
0.947510 0.916473 0.151306
0.952118 0.944489 0.182892
0.952026 0.944366 0.181366
0.951904 0.944031 0.181396
0.944702 0.938141 0.175903
0.935974 0.930817 0.171936
0.936707 0.929077 0.173859
0.942535 0.932129 0.180634
0.946716 0.934662 0.180725
0.119293 0.000000 0.682800
0.197327 0.000000 0.674103
0.622925 0.000000 0.621368
0.861389 0.000000 0.420929
0.994415 0.000000 0.249176
1.000000 0.000000 0.187744
1.000000 0.000641 0.131592
1.000000 0.033783 0.123474
0.108368 0.102386 0.685364
0.098145 0.000000 0.577423
0.507080 0.000000 0.518066
0.743286 0.000000 0.257324
0.939453 0.000000 0.097290
1.000000 0.000000 0.018280
1.000000 0.000000 0.002838
1.000000 0.042572 0.018097
0.408905 0.484558 0.480438
0.277618 0.339630 0.328339
0.212158 0.180603 0.193268
0.639832 0.040039 0.057831
0.874329 0.000000 0.000000
1.000000 0.000000 0.000000
1.000000 0.000000 0.000000
1.000000 0.053497 0.000000
0.669739 0.735107 0.186127
0.601135 0.645721 0.059479
0.496643 0.520081 0.000000
0.545685 0.514862 0.000000
0.817017 0.350739 0.000000
0.994476 0.232117 0.000000
1.000000 0.183136 0.000000
1.000000 0.154419 0.000000
0.799286 0.828308 0.078949
0.758301 0.773895 0.000000
0.711639 0.720215 0.000000
0.712067 0.721008 0.000000
0.737854 0.713959 0.000000
0.908783 0.630585 0.000000
0.999359 0.595001 0.000000
1.000000 0.572235 0.000000
0.902161 0.902588 0.118164
0.883759 0.870148 0.000000
0.847961 0.833252 0.000000
0.850067 0.833435 0.000000
0.847198 0.835907 0.000000
0.871826 0.831116 0.000000
0.948395 0.798279 0.000000
0.958099 0.792145 0.000000
0.938232 0.936462 0.199677
0.932861 0.924042 0.158081
0.926849 0.911255 0.116913
0.926086 0.910583 0.113495
0.923859 0.905792 0.091858
0.920563 0.903412 0.087952
0.934845 0.903961 0.110413
0.950989 0.902985 0.123047
0.950256 0.943542 0.203217
0.952454 0.944458 0.187225
0.952118 0.944366 0.183319
0.950897 0.942810 0.182983
0.937775 0.933563 0.176758
0.934662 0.928864 0.172729
0.940765 0.931244 0.181946
0.946838 0.934814 0.183838
0.234131 0.021637 0.858917
0.247681 0.016418 0.855621
0.435120 0.000000 0.843231
0.821564 0.000000 0.817047
0.993866 0.000000 0.730865
1.000000 0.000000 0.664734
1.000000 0.000000 0.617401
1.000000 0.000000 0.606293
0.197235 0.079803 0.856384
0.203278 0.000000 0.777008
0.324158 0.000000 0.767883
0.729095 0.000000 0.726349
0.937042 0.000000 0.587921
1.000000 0.000000 0.490204
1.000000 0.000000 0.426880
1.000000 0.013458 0.397156
0.239502 0.395416 0.825836
0.157501 0.265503 0.757996
0.186005 0.120270 0.695740
0.614197 0.000000 0.613983
0.877747 0.000000 0.435608
1.000000 0.000000 0.290283
1.000000 0.000000 0.217682
1.000000 0.049652 0.170349
0.626221 0.737244 0.734344
0.543488 0.632172 0.628021
0.434601 0.511139 0.499359
0.416351 0.372742 0.369598
0.771851 0.250458 0.218353
0.969360 0.109222 0.115143
1.000000 0.040771 0.037933
1.000000 0.095306 0.051514
0.759766 0.879242 0.516479
0.723999 0.822083 0.375519
0.684387 0.751465 0.215546
0.643311 0.693115 0.092468
0.696136 0.684082 0.095062
0.904602 0.562500 0.004974
1.000000 0.481140 0.000000
1.000000 0.430176 0.000000
0.869598 0.937897 0.428253
0.844513 0.894714 0.276886
0.813934 0.846436 0.119568
0.792786 0.806305 0.000946
0.791504 0.808624 0.003510
0.825562 0.803162 0.005035
0.935455 0.752380 0.000000
0.960571 0.739197 0.000000
0.914764 0.959076 0.422974
0.908020 0.935913 0.279938
0.910400 0.916260 0.164581
0.909149 0.900543 0.096924
0.907959 0.897919 0.084900
0.907654 0.896393 0.063416
0.920990 0.894073 0.085510
0.956268 0.885773 0.100311
0.928955 0.962494 0.425629
0.937561 0.948883 0.298584
0.947693 0.943665 0.216492
0.951813 0.944122 0.190643
0.939392 0.936249 0.186951
0.932800 0.930023 0.181549
0.938507 0.931030 0.190094
0.947266 0.935181 0.194061
0.248810 0.098816 0.988586
0.254333 0.098572 0.987396
0.365509 0.120453 0.974670
0.721954 0.005035 0.959747
0.975891 0.000000 0.964935
1.000000 0.000000 0.919281
1.000000 0.000000 0.914001
1.000000 0.000000 0.910461
0.240997 0.106873 0.985718
0.225830 0.076019 0.938202
0.254059 0.070770 0.931702
0.593445 0.011078 0.923462
0.902222 0.000000 0.903198
1.000000 0.000000 0.850189
1.000000 0.000000 0.817993
1.000000 0.000000 0.798248
0.242584 0.343018 0.974792
0.252625 0.207916 0.925354
0.212769 0.090668 0.871155
0.460083 0.029602 0.864014
0.837250 0.000000 0.835754
1.000000 0.000000 0.761597
1.000000 0.000000 0.693909
1.000000 0.000000 0.653229
0.516602 0.690735 0.974579
0.409302 0.584900 0.936005
0.274323 0.429962 0.851837
0.276276 0.282806 0.767303
0.749969 0.191650 0.744629
0.985718 0.059845 0.609161
1.000000 0.079651 0.542236
1.000000 0.037201 0.501862
0.744843 0.882355 0.871948
0.697845 0.828766 0.815948
0.641785 0.758667 0.751923
0.591492 0.688080 0.685944
0.621216 0.583588 0.582489
0.920380 0.442383 0.418701
1.000000 0.329498 0.341888
1.000000 0.268402 0.293518
0.831635 0.960724 0.734375
0.799927 0.931732 0.631989
0.776245 0.894623 0.540039
0.753204 0.857544 0.439270
0.734253 0.811188 0.314514
0.801605 0.802246 0.319275
0.973297 0.695892 0.202759
1.000000 0.663971 0.172913
0.894440 0.976349 0.706940
0.886444 0.966522 0.580719
0.881165 0.951202 0.461884
0.873840 0.928314 0.347351
0.859070 0.902344 0.228149
0.856628 0.903534 0.233521
0.873688 0.897705 0.224854
0.971313 0.867859 0.184784
0.908295 0.979218 0.702576
0.916840 0.975220 0.576904
0.925568 0.966156 0.461823
0.931152 0.954468 0.356781
0.931946 0.944122 0.270844
0.922699 0.936920 0.256042
0.931427 0.936584 0.264435
0.953064 0.941254 0.275604
0.315399 0.143555 1.000000
0.320435 0.145935 1.000000
0.367035 0.163055 1.000000
0.675079 0.153900 1.000000
0.922211 0.000000 1.000000
1.000000 0.000000 0.989075
1.000000 0.000000 0.996796
1.000000 0.000000 0.997681
0.322571 0.158478 1.000000
0.287048 0.127533 1.000000
0.308136 0.136108 1.000000
0.547150 0.160614 1.000000
0.834381 0.056366 0.995728
1.000000 0.000000 0.973206
1.000000 0.000000 0.973816
1.000000 0.000000 0.978333
0.290558 0.289063 1.000000
0.317230 0.189850 1.000000
0.273651 0.124847 0.993652
0.405975 0.158112 0.987762
0.746796 0.079376 0.967194
0.989471 0.000000 0.971161
1.000000 0.000000 0.943634
1.000000 0.000000 0.938843
0.447693 0.675110 1.000000
0.379852 0.540680 0.998535
0.268799 0.371613 0.981598
0.317261 0.254547 0.960266
0.643463 0.147888 0.938324
0.950500 0.005920 0.943085
1.000000 0.000000 0.898010
1.000000 0.000000 0.874146
0.670319 0.855347 0.989319
0.599243 0.786713 0.996002
0.536713 0.715088 0.976715
0.464233 0.635773 0.978516
0.522675 0.518158 0.926208
0.903412 0.398590 0.885345
1.000000 0.302521 0.771637
1.000000 0.234833 0.730591
0.831055 0.957306 0.953583
0.789734 0.927185 0.927368
0.757721 0.897980 0.891113
0.730927 0.866791 0.852905
0.695221 0.829163 0.806488
0.773529 0.753448 0.749023
1.000000 0.629211 0.601379
1.000000 0.580200 0.554443
0.890137 0.981903 0.925110
0.873566 0.976166 0.849457
0.850342 0.969543 0.765991
0.834534 0.957336 0.688385
0.822906 0.941010 0.614594
0.820709 0.921722 0.540253
0.900970 0.902405 0.533173
1.000000 0.858063 0.486511
0.902588 0.982483 0.909668
0.901947 0.980255 0.831726
0.905212 0.979645 0.746338
0.908417 0.978027 0.661011
0.908813 0.972626 0.575287
0.909027 0.964386 0.492249
0.922424 0.961884 0.492645
0.958771 0.965454 0.507019
0.341522 0.169678 1.000000
0.345245 0.171021 1.000000
0.375488 0.181671 1.000000
0.643433 0.186859 1.000000
0.894775 0.009644 1.000000
1.000000 0.000000 1.000000
1.000000 0.000000 1.000000
1.000000 0.000000 1.000000
0.340515 0.174316 1.000000
0.335419 0.163361 1.000000
0.348724 0.168823 1.000000
0.495361 0.189209 1.000000
0.796753 0.137878 1.000000
0.988739 0.000000 0.996918
1.000000 0.000000 1.000000
1.000000 0.000000 1.000000
0.302948 0.257782 1.000000
0.345367 0.199402 1.000000
0.338593 0.169952 1.000000
0.391052 0.185181 1.000000
0.699707 0.171112 1.000000
0.952148 0.000000 1.000000
1.000000 0.000000 0.998718
1.000000 0.000000 1.000000
0.429871 0.655975 1.000000
0.372528 0.479187 1.000000
0.305511 0.313263 1.000000
0.345337 0.225677 1.000000
0.596161 0.202667 1.000000
0.898407 0.004272 1.000000
1.000000 0.000000 0.996796
1.000000 0.000000 0.998413
0.639099 0.840668 1.000000
0.565094 0.763794 1.000000
0.462769 0.699677 1.000000
0.414795 0.602081 1.000000
0.478424 0.461670 0.996918
0.822205 0.368317 0.993073
1.000000 0.274536 0.999329
1.000000 0.192871 0.991638
0.794922 0.941254 0.992218
0.734833 0.907379 0.995178
0.691284 0.874084 0.987427
0.638428 0.828979 0.998901
0.588593 0.777802 0.999084
0.695953 0.706451 0.995239
0.995026 0.616241 0.973022
1.000000 0.560913 0.924500
0.881348 0.981567 0.972076
0.869476 0.976868 0.969025
0.850769 0.968994 0.963654
0.828918 0.956360 0.955719
0.797882 0.939026 0.956696
0.785736 0.924042 0.936371
0.911774 0.890198 0.898773
1.000000 0.813782 0.799011
0.900970 0.985748 0.975739
0.904541 0.986603 0.971344
0.903839 0.984802 0.943390
0.900696 0.982361 0.908051
0.893127 0.980652 0.870819
0.887695 0.977997 0.836029
0.906464 0.975494 0.789551
0.952515 0.978577 0.792267
0.345856 0.175690 1.000000
0.349091 0.176666 1.000000
0.375458 0.185547 1.000000
0.632111 0.192719 1.000000
0.887817 0.017792 1.000000
1.000000 0.000000 1.000000
1.000000 0.000000 1.000000
1.000000 0.000000 1.000000
0.344513 0.179108 1.000000
0.346710 0.176727 1.000000
0.356659 0.180176 1.000000
0.473663 0.191040 1.000000
0.780762 0.157013 1.000000
0.981720 0.017975 1.000000
1.000000 0.000000 1.000000
1.000000 0.000000 1.000000
0.314606 0.250122 1.000000
0.349792 0.200684 1.000000
0.347839 0.181396 1.000000
0.385101 0.192535 1.000000
0.672211 0.194550 1.000000
0.927155 0.000793 1.000000
1.000000 0.000000 1.000000
1.000000 0.000000 1.000000
0.426910 0.646637 1.000000
0.385223 0.449982 1.000000
0.312958 0.282806 1.000000
0.355865 0.216370 1.000000
0.554474 0.215485 1.000000
0.858429 0.084351 1.000000
1.000000 0.000000 1.000000
1.000000 0.000000 1.000000
0.631805 0.835358 1.000000
0.550537 0.759369 1.000000
0.433899 0.688721 1.000000
0.404114 0.551727 1.000000
0.444611 0.397369 1.000000
0.781769 0.341797 1.000000
0.999725 0.246582 1.000000
1.000000 0.204102 1.000000
0.786896 0.937897 0.998138
0.724609 0.904327 0.997345
0.664978 0.863129 0.998993
0.606659 0.804504 1.000000
0.551880 0.759888 1.000000
0.648438 0.682465 1.000000
0.981445 0.570221 1.000000
1.000000 0.523346 1.000000
0.876617 0.980469 0.973328
0.857208 0.972839 0.975494
0.824860 0.958008 0.984924
0.786346 0.938110 0.996246
0.751343 0.919830 0.999695
0.722656 0.900421 0.996765
0.862762 0.850372 1.000000
1.000000 0.806671 1.000000
0.896759 0.985229 0.976074
0.896637 0.985229 0.976044
0.896149 0.985138 0.975922
0.894836 0.984924 0.975739
0.888031 0.983978 0.974884
0.878296 0.981995 0.972626
0.905151 0.983704 0.975891
0.966980 0.968689 0.972260
